; GCode generated by CraftWare

G28 X0 Y0
G28 Z0

M104 S210 ;set head temp (no wait)
M190 S60 ;set bed temp (wait)
M109 S210 ;set head temp (wait); startup extrude
G21
G90
G92E0
G1E5F100
G92E0


; ------------------------------------
; Layer #0
; ------------------------------------
M106 S255 ;set fan speed
G21 ; mm
G90 ; abs
G92 E0 ;reset extr
G0 F4800 Z0.550
;segType:Skirt
G0 F4200 E-7.0000
G0 F4800 Z1.550
G0 X-65.864 Y59.751
G0 Z0.550
G0 F4200 E0.0000
G1 X-59.554 Y66.061 E0.2841 F1800
G1 X-59.225 Y66.259 E0.2963
G1 X-58.962 Y66.522 E0.3081
G1 X-57.976 Y67.113 E0.3447
G1 X-57.582 Y67.244 E0.3579
G1 X-57.188 Y67.507 E0.3730
G1 X-56.399 Y67.639 E0.3985
G1 X-56.267 Y67.770 E0.4044
G1 X-55.347 Y67.902 E0.4340
G1 X55.610 Y67.902 E3.9659
G1 X55.741 Y67.770 E3.9718
G1 X56.267 Y67.770 E3.9885
G1 X56.399 Y67.639 E3.9944
G1 X56.662 Y67.639 E4.0028
G1 X56.990 Y67.442 E4.0150
G1 X57.384 Y67.310 E4.0282
G1 X57.713 Y67.113 E4.0404
G1 X58.108 Y66.981 E4.0537
G1 X58.765 Y66.587 E4.0781
G1 X59.028 Y66.324 E4.0899
G1 X59.356 Y66.127 E4.1021
G1 X65.930 Y59.554 E4.3980
G1 X66.127 Y59.225 E4.4102
G1 X66.390 Y58.962 E4.4220
G1 X66.784 Y58.305 E4.4464
G1 X67.113 Y57.845 E4.4644
G1 X67.113 Y57.582 E4.4728
G1 X67.310 Y57.253 E4.4850
G1 X67.573 Y56.464 E4.5115
G1 X67.639 Y56.004 E4.5263
G1 X67.770 Y55.873 E4.5322
G1 X67.770 Y54.821 E4.5657
G1 X67.902 Y54.427 E4.5789
G1 X67.902 Y-54.427 E8.0438
G1 X67.770 Y-54.821 E8.0570
G1 X67.770 Y-55.347 E8.0738
G1 X67.639 Y-56.267 E8.1034
G1 X67.507 Y-56.399 E8.1093
G1 X67.507 Y-56.662 E8.1177
G1 X67.376 Y-56.793 E8.1236
G1 X67.376 Y-57.056 E8.1319
G1 X67.244 Y-57.188 E8.1379
G1 X67.244 Y-57.450 E8.1462
G1 X66.456 Y-58.765 E8.1950
G1 X66.193 Y-59.028 E8.2069
G1 X65.996 Y-59.356 E8.2191
G1 X59.422 Y-65.930 E8.5150
G1 X59.093 Y-66.127 E8.5272
G1 X58.831 Y-66.390 E8.5390
G1 X57.516 Y-67.179 E8.5878
G1 X57.122 Y-67.310 E8.6010
G1 X56.793 Y-67.507 E8.6132
G1 X56.333 Y-67.573 E8.6280
G1 X55.938 Y-67.705 E8.6413
G1 X55.478 Y-67.770 E8.6560
G1 X54.953 Y-67.770 E8.6728
G1 X54.558 Y-67.902 E8.6860
G1 X-54.821 Y-67.902 E12.1677
G1 X-54.953 Y-67.770 E12.1736
G1 X-56.004 Y-67.770 E12.2071
G1 X-56.136 Y-67.639 E12.2130
G1 X-56.596 Y-67.573 E12.2278
G1 X-56.925 Y-67.376 E12.2400
G1 X-57.188 Y-67.376 E12.2484
G1 X-57.319 Y-67.244 E12.2543
G1 X-57.582 Y-67.244 E12.2626
G1 X-58.897 Y-66.456 E12.3114
G1 X-59.159 Y-66.193 E12.3233
G1 X-59.488 Y-65.996 E12.3355
G1 X-66.324 Y-59.159 E12.6432
G1 X-67.113 Y-57.845 E12.6920
G1 X-67.244 Y-57.713 E12.6979
G1 X-67.244 Y-57.450 E12.7063
G1 X-67.442 Y-57.122 E12.7185
G1 X-67.705 Y-56.333 E12.7450
G1 X-67.770 Y-55.873 E12.7598
G1 X-67.902 Y-55.741 E12.7657
G1 X-67.902 Y-54.690 E12.7992
G1 X-68.033 Y-54.295 E12.8124
G1 X-68.033 Y54.558 E16.2773
G1 X-67.902 Y54.953 E16.2905
G1 X-67.902 Y55.478 E16.3073
G1 X-67.836 Y55.938 E16.3221
G1 X-67.705 Y56.333 E16.3353
G1 X-67.639 Y56.793 E16.3501
G1 X-67.507 Y56.925 E16.3560
G1 X-67.507 Y57.188 E16.3644
G1 X-67.113 Y57.845 E16.3888
G1 X-66.981 Y58.239 E16.4020
G1 X-66.587 Y58.897 E16.4264
G1 X-66.061 Y59.422 E16.4501
G1 X-65.864 Y59.751 E16.4623
;segType:Loop
G0 F4200 E9.4623
G0 F4800 Z1.550
G0 X-59.351 Y50.204
G0 Z0.550
G0 F4200 E16.4623
G1 X-59.351 Y-52.483 E20.5624 F1800
G1 X-59.313 Y-53.216 E20.5918
G1 X-59.201 Y-53.924 E20.6204
G1 X-59.015 Y-54.617 E20.6490
G1 X-58.758 Y-55.286 E20.6776
G1 X-58.433 Y-55.925 E20.7063
G1 X-58.042 Y-56.527 E20.7349
G1 X-57.591 Y-57.084 E20.7636
G1 X-57.084 Y-57.591 E20.7922
G1 X-56.527 Y-58.042 E20.8208
G1 X-55.925 Y-58.433 E20.8494
G1 X-55.286 Y-58.758 E20.8781
G1 X-54.617 Y-59.015 E20.9067
G1 X-53.924 Y-59.201 E20.9353
G1 X-53.216 Y-59.313 E20.9640
G1 X-52.483 Y-59.351 E20.9933
G1 X52.483 Y-59.351 E25.1845
G1 X53.216 Y-59.313 E25.2138
G1 X53.924 Y-59.201 E25.2424
G1 X54.617 Y-59.016 E25.2710
G1 X55.287 Y-58.758 E25.2997
G1 X55.925 Y-58.433 E25.3283
G1 X56.527 Y-58.042 E25.3569
G1 X57.084 Y-57.592 E25.3855
G1 X57.591 Y-57.084 E25.4142
G1 X58.043 Y-56.526 E25.4428
G1 X58.433 Y-55.925 E25.4714
G1 X58.758 Y-55.286 E25.5001
G1 X59.016 Y-54.617 E25.5287
G1 X59.201 Y-53.924 E25.5573
G1 X59.313 Y-53.216 E25.5860
G1 X59.351 Y-52.483 E25.6153
G1 X59.351 Y52.483 E29.8064
G1 X59.313 Y53.216 E29.8358
G1 X59.201 Y53.924 E29.8644
G1 X59.015 Y54.617 E29.8930
G1 X58.758 Y55.286 E29.9216
G1 X58.433 Y55.925 E29.9503
G1 X58.042 Y56.527 E29.9789
G1 X57.591 Y57.084 E30.0076
G1 X57.084 Y57.591 E30.0362
G1 X56.527 Y58.042 E30.0648
G1 X55.925 Y58.433 E30.0934
G1 X55.286 Y58.758 E30.1221
G1 X54.617 Y59.015 E30.1507
G1 X53.924 Y59.201 E30.1793
G1 X53.216 Y59.313 E30.2080
G1 X52.483 Y59.351 E30.2373
G1 X-52.483 Y59.351 E34.4285
G1 X-53.216 Y59.313 E34.4578
G1 X-53.924 Y59.201 E34.4864
G1 X-54.617 Y59.015 E34.5150
G1 X-55.287 Y58.758 E34.5437
G1 X-55.925 Y58.433 E34.5723
G1 X-56.527 Y58.042 E34.6009
G1 X-57.084 Y57.591 E34.6296
G1 X-57.591 Y57.084 E34.6582
G1 X-58.042 Y56.527 E34.6868
G1 X-58.433 Y55.925 E34.7154
G1 X-58.758 Y55.286 E34.7441
G1 X-59.015 Y54.617 E34.7727
G1 X-59.201 Y53.924 E34.8013
G1 X-59.313 Y53.216 E34.8300
G1 X-59.351 Y52.483 E34.8593
G1 X-59.351 Y50.404 E34.9338
;segType:Perimeter
G0 X-52.361 Y59.745 F4800
G1 X-52.555 Y59.796 E34.9409 F900
G1 X-53.263 Y59.759 E34.9662
G1 X-54.018 Y59.640 E34.9935
G1 X-54.756 Y59.442 E35.0207
G1 X-55.469 Y59.168 E35.0480
G1 X-56.150 Y58.821 E35.0752
G1 X-56.790 Y58.405 E35.1024
G1 X-57.384 Y57.924 E35.1297
G1 X-57.924 Y57.384 E35.1569
G1 X-58.405 Y56.790 E35.1841
G1 X-58.821 Y56.150 E35.2114
G1 X-59.168 Y55.469 E35.2386
G1 X-59.442 Y54.756 E35.2659
G1 X-59.640 Y54.018 E35.2931
G1 X-59.759 Y53.263 E35.3203
G1 X-59.799 Y52.495 E35.3478
G1 X-59.799 Y-52.495 E39.0907
G1 X-59.759 Y-53.263 E39.1181
G1 X-59.640 Y-54.018 E39.1454
G1 X-59.442 Y-54.755 E39.1726
G1 X-59.168 Y-55.469 E39.1999
G1 X-58.821 Y-56.150 E39.2271
G1 X-58.405 Y-56.790 E39.2543
G1 X-57.924 Y-57.384 E39.2816
G1 X-57.384 Y-57.924 E39.3088
G1 X-56.791 Y-58.405 E39.3360
G1 X-56.150 Y-58.821 E39.3633
G1 X-55.469 Y-59.168 E39.3905
G1 X-54.756 Y-59.442 E39.4178
G1 X-54.018 Y-59.640 E39.4450
G1 X-53.263 Y-59.759 E39.4722
G1 X-52.494 Y-59.799 E39.4997
G1 X52.495 Y-59.799 E43.2426
G1 X53.263 Y-59.759 E43.2700
G1 X54.018 Y-59.640 E43.2973
G1 X54.755 Y-59.442 E43.3245
G1 X55.469 Y-59.168 E43.3518
G1 X56.149 Y-58.822 E43.3790
G1 X56.791 Y-58.405 E43.4062
G1 X57.384 Y-57.925 E43.4334
G1 X57.925 Y-57.384 E43.4607
G1 X58.406 Y-56.790 E43.4880
G1 X58.821 Y-56.150 E43.5152
G1 X59.168 Y-55.469 E43.5424
G1 X59.442 Y-54.755 E43.5697
G1 X59.640 Y-54.018 E43.5969
G1 X59.759 Y-53.263 E43.6241
G1 X59.799 Y-52.495 E43.6516
G1 X59.799 Y52.494 E47.3945
G1 X59.759 Y53.263 E47.4219
G1 X59.640 Y54.018 E47.4492
G1 X59.442 Y54.756 E47.4764
G1 X59.168 Y55.469 E47.5037
G1 X58.821 Y56.150 E47.5309
G1 X58.405 Y56.791 E47.5581
G1 X57.924 Y57.384 E47.5854
G1 X57.384 Y57.924 E47.6126
G1 X56.790 Y58.405 E47.6399
G1 X56.150 Y58.821 E47.6671
G1 X55.469 Y59.168 E47.6943
G1 X54.755 Y59.442 E47.7216
G1 X54.018 Y59.640 E47.7488
G1 X53.263 Y59.759 E47.7760
G1 X52.495 Y59.799 E47.8035
G1 X-52.435 Y59.799 E51.5443
G0 X-52.625 Y59.738 F4800
;segType:Loop
G0 X5.199 Y5.210
G1 X5.166 Y5.229 E51.5452 F1800
G1 X5.207 Y5.114 E51.5490
;segType:Perimeter
G0 X5.261 Y5.657 F4800
G1 X9.757 Y10.152 E51.7756 F900
G1 X9.449 Y10.494 E51.7920
G1 X7.061 Y12.230 E51.8973
G1 X4.363 Y13.430 E52.0025
G1 X1.476 Y14.044 E52.1078
G1 X-1.476 Y14.044 E52.2130
G1 X-4.364 Y13.430 E52.3183
G1 X-7.060 Y12.230 E52.4235
G1 X-9.449 Y10.494 E52.5288
G1 X-9.757 Y10.152 E52.5452
G1 X-5.219 Y5.614 E52.7740
G1 X-2.953 Y7.128 E52.8711
G1 X0.000 Y7.716 E52.9785
G1 X2.953 Y7.128 E53.0858
G1 X5.169 Y5.648 E53.1808
;segType:Loop
G0 X5.286 Y-5.161 F4800
G1 X5.269 Y-5.165 E53.1812 F1800
;segType:Perimeter
G0 X-0.137 Y-7.192 F4800
G1 X0.059 Y-7.153 E53.1884 F900
G1 X2.742 Y-6.619 E53.2859
G1 X4.796 Y-5.246 E53.3740
G1 X4.801 Y-5.196 E53.3758
G1 X0.000 Y-0.395 E53.6178
G1 X-4.801 Y-5.196 E53.8599
G1 X-4.796 Y-5.246 E53.8617
G1 X-2.742 Y-6.619 E53.9497
G1 X-0.059 Y-7.153 E54.0472
;segType:Loop
G0 X-5.179 Y-5.253 F4800
G0 X-5.161 Y-5.286 F4800
G0 X-5.187 Y-5.171
G1 X-5.114 Y-5.207 E54.0497 F1800
G1 X-5.134 Y-5.200 E54.0504
;segType:Perimeter
G0 X-9.851 Y-10.048 F4800
G1 X-9.717 Y-10.197 E54.0575 F900
G1 X-9.449 Y-10.494 E54.0718
G1 X-7.061 Y-12.230 E54.1770
G1 X-4.364 Y-13.430 E54.2823
G1 X-1.476 Y-14.044 E54.3875
G1 X1.476 Y-14.044 E54.4928
G1 X4.363 Y-13.430 E54.5980
G1 X7.061 Y-12.229 E54.7033
G1 X9.174 Y-10.694 E54.7964
G1 X9.469 Y-10.473 E54.8095
G1 X9.757 Y-10.152 E54.8249
G1 X5.219 Y-5.614 E55.0537
G1 X2.953 Y-7.128 E55.1509
G1 X0.000 Y-7.716 E55.2582
G1 X-2.953 Y-7.128 E55.3655
G1 X-5.219 Y-5.614 E55.4627
G1 X-9.715 Y-10.110 E55.6893
;segType:Loop
G0 X-5.166 Y5.229 F4800
G1 X-5.207 Y5.114 E55.6931 F1800
G1 X-5.185 Y5.137 E55.6938
;segType:Perimeter
G0 X-0.099 Y0.296 F4800
G1 X0.042 Y0.438 E55.7009 F900
G1 X4.801 Y5.196 E55.9408
G1 X4.796 Y5.246 E55.9426
G1 X2.742 Y6.619 E56.0307
G1 X0.000 Y7.164 E56.1304
G1 X-2.742 Y6.619 E56.2300
G1 X-4.796 Y5.246 E56.3181
G1 X-4.801 Y5.196 E56.3199
G1 X-0.042 Y0.438 E56.5598
G0 X0.099 Y0.296 F4800
;segType:Loop
G0 X-45.293 Y53.536
G1 X-45.456 Y53.537 E56.5663 F1800
G1 X-45.693 Y53.335 E56.5787
G1 X-45.649 Y52.500 E56.6121
G1 X-45.687 Y51.784 E56.6408
G1 X-45.799 Y51.076 E56.6694
G1 X-45.985 Y50.383 E56.6980
G1 X-46.242 Y49.714 E56.7266
G1 X-46.567 Y49.075 E56.7553
G1 X-46.958 Y48.473 E56.7839
G1 X-47.564 Y47.725 E56.8224
G1 X-47.725 Y47.564 E56.8315
G1 X-48.473 Y46.958 E56.8699
G1 X-49.075 Y46.567 E56.8986
G1 X-49.714 Y46.241 E56.9272
G1 X-50.383 Y45.985 E56.9558
G1 X-51.076 Y45.799 E56.9844
G1 X-51.784 Y45.687 E57.0131
G1 X-52.500 Y45.649 E57.0417
G1 X-53.357 Y45.694 E57.0760
G1 X-53.539 Y45.297 E57.0848
G1 X-53.531 Y45.343 E57.0860
G1 X-53.509 Y45.457 E57.0899
G1 X-53.800 Y45.766 E57.1069
G1 X-54.617 Y45.985 E57.1406
G1 X-55.287 Y46.242 E57.1693
G1 X-55.925 Y46.567 E57.1979
G1 X-56.527 Y46.958 E57.2265
G1 X-57.084 Y47.409 E57.2552
G1 X-58.027 Y48.352 E57.3084
G1 X-58.722 Y48.065 E57.3384
G1 X-58.729 Y39.352 E57.6863
G1 X-58.371 Y39.174 E57.7069
G1 X-58.257 Y39.214 E57.7116
G1 X-58.143 Y39.254 E57.7147
G0 X-58.158 Y39.248 F4800
G1 X-58.274 Y39.202 E57.7197 F1800
G1 X-58.728 Y38.533 E57.7520
G1 X-58.728 Y25.011 E58.2919
G1 X-58.257 Y24.912 E58.3111
G1 X-58.143 Y24.909 E58.3153
G1 X-58.029 Y24.967 E58.3181
G0 X-58.076 Y24.943 F4800
G0 X-58.183 Y24.888
G1 X-58.227 Y24.771 E58.3231 F1800
G1 X-58.471 Y24.220 E58.3471
G1 X-58.728 Y23.552 E58.3757
G1 X-58.728 Y-23.552 E60.2565
G1 X-58.471 Y-24.220 E60.2851
G1 X-58.020 Y-25.237 E60.3295
G1 X-58.057 Y-25.341 E60.3339
G1 X-58.728 Y-25.704 E60.3644
G1 X-58.728 Y-38.533 E60.8767
G1 X-58.263 Y-39.218 E60.9097
G1 X-58.139 Y-39.255 E60.9130
G1 X-58.143 Y-39.254 E60.9131
G1 X-58.257 Y-39.214 E60.9178
G1 X-58.371 Y-39.174 E60.9240
G1 X-58.728 Y-39.352 E60.9400
G1 X-58.728 Y-48.073 E61.2882
G1 X-58.033 Y-48.360 E61.3182
G1 X-57.084 Y-47.409 E61.3719
G1 X-56.556 Y-46.981 E61.3990
G1 X-55.955 Y-46.587 E61.4277
G1 X-55.321 Y-46.260 E61.4562
G1 X-54.546 Y-45.966 E61.4893
G1 X-53.553 Y-45.699 E61.5304
G1 X-53.535 Y-45.319 E61.5388
G1 X-53.533 Y-45.478 E61.5452
G1 X-53.357 Y-45.694 E61.5563
G1 X-52.500 Y-45.649 E61.5906
G1 X-51.784 Y-45.687 E61.6192
G1 X-51.076 Y-45.799 E61.6478
G1 X-50.383 Y-45.985 E61.6765
G1 X-49.713 Y-46.242 E61.7051
G1 X-49.075 Y-46.567 E61.7337
G1 X-48.473 Y-46.958 E61.7624
G1 X-47.711 Y-47.575 E61.8015
G1 X-47.552 Y-47.740 E61.8107
G1 X-46.958 Y-48.473 E61.8484
G1 X-46.567 Y-49.075 E61.8770
G1 X-46.241 Y-49.714 E61.9056
G1 X-45.985 Y-50.383 E61.9343
G1 X-45.799 Y-51.076 E61.9629
G1 X-45.687 Y-51.784 E61.9915
G1 X-45.649 Y-52.500 E62.0202
G1 X-45.693 Y-53.335 E62.0535
G1 X-45.442 Y-53.550 E62.0667
G1 X-45.343 Y-53.526 E62.0693
G1 X-45.457 Y-53.503 E62.0734
G1 X-45.750 Y-53.743 E62.0886
G1 X-45.966 Y-54.547 E62.1218
G1 X-46.259 Y-55.321 E62.1548
G1 X-46.587 Y-55.955 E62.1834
G1 X-46.980 Y-56.554 E62.2120
G1 X-47.435 Y-57.110 E62.2407
G1 X-48.360 Y-58.033 E62.2928
G1 X-48.073 Y-58.728 E62.3229
G1 X-39.380 Y-58.728 E62.6699
G1 X-39.214 Y-58.314 E62.6903
G1 X-39.255 Y-58.200 E62.6942
G1 X-39.192 Y-58.291 E62.6986
G1 X-38.517 Y-58.728 E62.7308
G1 X-25.011 Y-58.728 E63.2700
G1 X-24.924 Y-58.314 E63.2869
G1 X-24.879 Y-58.200 E63.2922
G1 X-24.938 Y-58.086 E63.2960
G1 X-24.864 Y-58.185 E63.3009
G1 X-24.220 Y-58.471 E63.3290
G1 X-23.552 Y-58.728 E63.3576
G1 X23.552 Y-58.728 E65.2385
G1 X24.219 Y-58.471 E65.2670
G1 X25.218 Y-58.028 E65.3106
G1 X25.334 Y-58.091 E65.3159
G1 X25.718 Y-58.728 E65.3456
G1 X38.517 Y-58.728 E65.8567
G1 X39.208 Y-58.280 E65.8896
G1 X39.264 Y-58.174 E65.8931
G1 X39.255 Y-58.200 E65.8940
G1 X39.214 Y-58.314 E65.8995
G1 X39.380 Y-58.728 E65.9173
G1 X48.073 Y-58.728 E66.2644
G1 X48.360 Y-58.033 E66.2945
G1 X47.409 Y-57.084 E66.3481
G1 X46.958 Y-56.527 E66.3768
G1 X46.567 Y-55.925 E66.4054
G1 X46.242 Y-55.287 E66.4340
G1 X45.985 Y-54.617 E66.4626
G1 X45.699 Y-53.550 E66.5067
G0 X45.400 Y-53.514 F4800
G0 X45.286 Y-53.538
G1 X45.293 Y-53.536 E66.5069 F1800
G1 X45.456 Y-53.537 E66.5134
G1 X45.693 Y-53.335 E66.5258
G1 X45.653 Y-52.560 E66.5568
G1 X45.693 Y-51.746 E66.5894
G1 X45.808 Y-51.041 E66.6179
G1 X45.998 Y-50.350 E66.6465
G1 X46.258 Y-49.681 E66.6751
G1 X46.586 Y-49.046 E66.7037
G1 X47.004 Y-48.416 E66.7339
G1 X47.564 Y-47.725 E66.7694
G1 X47.725 Y-47.564 E66.7785
G1 X48.473 Y-46.958 E66.8169
G1 X49.075 Y-46.567 E66.8456
G1 X49.714 Y-46.241 E66.8742
G1 X50.383 Y-45.985 E66.9028
G1 X51.076 Y-45.799 E66.9315
G1 X51.784 Y-45.687 E66.9601
G1 X52.500 Y-45.649 E66.9887
G1 X53.357 Y-45.694 E67.0230
G1 X53.545 Y-45.464 E67.0349
G1 X53.539 Y-45.297 E67.0382
G1 X53.553 Y-45.699 E67.0543
G1 X54.617 Y-45.985 E67.0983
G1 X55.287 Y-46.242 E67.1270
G1 X55.925 Y-46.567 E67.1556
G1 X56.527 Y-46.958 E67.1842
G1 X57.084 Y-47.409 E67.2128
G1 X58.033 Y-48.360 E67.2665
G1 X58.728 Y-48.073 E67.2966
G1 X58.728 Y-39.352 E67.6448
G0 X58.314 Y-39.194 F4800
G0 X58.200 Y-39.234
G1 X58.159 Y-39.248 E67.6460 F1800
G1 X58.273 Y-39.202 E67.6509
G1 X58.728 Y-38.533 E67.6832
G1 X58.728 Y-25.718 E68.1949
G1 X58.091 Y-25.334 E68.2246
G1 X58.028 Y-25.218 E68.2299
G1 X58.471 Y-24.220 E68.2735
G1 X58.728 Y-23.552 E68.3021
G1 X58.728 Y23.552 E70.1829
G1 X58.471 Y24.220 E70.2115
G1 X58.185 Y24.864 E70.2396
G1 X58.086 Y24.938 E70.2432
G1 X58.200 Y24.879 E70.2488
G1 X58.314 Y24.924 E70.2537
G1 X58.728 Y25.011 E70.2706
G1 X58.728 Y38.533 E70.8105
G1 X58.284 Y39.186 E70.8420
G1 X58.200 Y39.234 E70.8451
G1 X58.314 Y39.194 E70.8506
G1 X58.728 Y39.352 E70.8683
G1 X58.728 Y48.073 E71.2165
G1 X58.033 Y48.360 E71.2466
G1 X57.084 Y47.409 E71.3002
G1 X56.527 Y46.958 E71.3289
G1 X55.925 Y46.567 E71.3575
G1 X55.287 Y46.241 E71.3861
G1 X54.617 Y45.985 E71.4148
G1 X53.743 Y45.750 E71.4509
G1 X53.509 Y45.457 E71.4637
G1 X53.531 Y45.343 E71.4665
G1 X53.557 Y45.450 E71.4709
G1 X53.357 Y45.694 E71.4835
G1 X52.500 Y45.649 E71.5178
G1 X51.784 Y45.687 E71.5464
G1 X51.076 Y45.799 E71.5751
G1 X50.383 Y45.985 E71.6037
G1 X49.714 Y46.241 E71.6323
G1 X49.075 Y46.567 E71.6610
G1 X48.473 Y46.958 E71.6896
G1 X47.740 Y47.552 E71.7273
G1 X47.575 Y47.711 E71.7364
G1 X46.958 Y48.473 E71.7756
G1 X46.567 Y49.075 E71.8042
G1 X46.242 Y49.713 E71.8328
G1 X45.985 Y50.383 E71.8615
G1 X45.799 Y51.076 E71.8901
G1 X45.687 Y51.784 E71.9188
G1 X45.649 Y52.500 E71.9474
G1 X45.693 Y53.335 E71.9807
G1 X45.470 Y53.525 E71.9924
G1 X45.315 Y53.532 E71.9960
G1 X45.286 Y53.538 E71.9966
G1 X45.400 Y53.514 E72.0001
G1 X45.699 Y53.550 E72.0122
G1 X45.966 Y54.547 E72.0533
G1 X46.259 Y55.321 E72.0864
G1 X46.587 Y55.955 E72.1149
G1 X46.980 Y56.555 E72.1435
G1 X47.435 Y57.110 E72.1722
G1 X48.360 Y58.033 E72.2244
G1 X48.073 Y58.728 E72.2544
G1 X39.380 Y58.728 E72.6015
G1 X39.194 Y58.371 E72.6225
G1 X39.235 Y58.257 E72.6272
G1 X39.275 Y58.143 E72.6304
G0 X39.271 Y58.155 F4800
G1 X39.224 Y58.270 E72.6353 F1800
G1 X38.517 Y58.728 E72.6690
G1 X25.704 Y58.728 E73.1806
G1 X25.341 Y58.057 E73.2111
G1 X25.321 Y57.943 E73.2149
G1 X25.237 Y58.020 E73.2195
G1 X24.220 Y58.471 E73.2639
G1 X23.552 Y58.728 E73.2925
G1 X-23.552 Y58.728 E75.1733
G1 X-24.219 Y58.471 E75.2019
G1 X-24.771 Y58.227 E75.2259
G0 X-24.888 Y58.183 F4800
G0 X-24.943 Y58.076
G1 X-24.967 Y58.029 E75.2271 F1800
G1 X-24.909 Y58.143 E75.2317
G1 X-24.912 Y58.257 E75.2363
G1 X-25.011 Y58.728 E75.2555
G1 X-38.517 Y58.728 E75.7948
G1 X-39.208 Y58.280 E75.8277
G1 X-39.264 Y58.174 E75.8312
G1 X-39.275 Y58.143 E75.8321
G1 X-39.235 Y58.257 E75.8368
G1 X-39.194 Y58.371 E75.8432
G1 X-39.380 Y58.728 E75.8593
G1 X-48.073 Y58.728 E76.2064
G1 X-48.361 Y58.033 E76.2364
G1 X-47.409 Y57.084 E76.2901
G1 X-46.958 Y56.527 E76.3187
G1 X-46.567 Y55.925 E76.3473
G1 X-46.242 Y55.287 E76.3759
G1 X-45.985 Y54.617 E76.4046
G1 X-45.766 Y53.800 E76.4384
G1 X-45.457 Y53.503 E76.4535
G1 X-45.343 Y53.526 E76.4565
;segType:Perimeter
G0 X-45.339 Y53.784 F4800
G1 X-45.187 Y53.914 E76.4636 F900
G1 X-44.560 Y54.450 E76.4930
G1 X-42.108 Y56.368 E76.6040
G1 X-39.655 Y58.118 E76.7114
G1 X-39.707 Y58.280 E76.7175
G1 X-47.773 Y58.280 E77.0051
G1 X-47.832 Y58.139 E77.0105
G1 X-47.076 Y57.384 E77.0486
G1 X-46.595 Y56.790 E77.0759
G1 X-46.178 Y56.150 E77.1031
G1 X-45.832 Y55.469 E77.1304
G1 X-45.558 Y54.756 E77.1576
G1 X-45.330 Y53.905 E77.1890
G1 X-45.290 Y53.893 E77.1905
;segType:Loop
G0 X-50.359 Y50.655 F4800
G1 X-49.847 Y51.453 E77.2283 F1800
G1 X-49.639 Y52.500 E77.2709
G1 X-49.857 Y53.595 E77.3155
G1 X-50.477 Y54.523 E77.3601
G1 X-51.405 Y55.143 E77.4047
G1 X-52.500 Y55.361 E77.4492
G1 X-53.595 Y55.143 E77.4938
G1 X-54.523 Y54.523 E77.5384
G1 X-55.143 Y53.595 E77.5830
G1 X-55.361 Y52.500 E77.6275
G1 X-55.143 Y51.405 E77.6721
G1 X-54.523 Y50.477 E77.7167
G1 X-53.636 Y49.884 E77.7593
G1 X-52.555 Y49.647 E77.8035
G1 X-51.459 Y49.844 E77.8479
G1 X-50.571 Y50.412 E77.8900
G1 X-50.483 Y50.501 E77.8950
;segType:Perimeter
G0 X-52.684 Y50.079 F4800
G1 X-52.487 Y50.115 E77.9021 F900
G1 X-51.626 Y50.269 E77.9333
G1 X-50.854 Y50.764 E77.9660
G1 X-50.764 Y50.854 E77.9706
G1 X-50.270 Y51.624 E78.0032
G1 X-50.096 Y52.500 E78.0350
G1 X-50.279 Y53.420 E78.0685
G1 X-50.800 Y54.200 E78.1019
G1 X-51.580 Y54.721 E78.1353
G1 X-52.500 Y54.904 E78.1688
G1 X-53.420 Y54.721 E78.2022
G1 X-54.200 Y54.200 E78.2357
G1 X-54.721 Y53.420 E78.2691
G1 X-54.904 Y52.500 E78.3026
G1 X-54.721 Y51.580 E78.3360
G1 X-54.200 Y50.800 E78.3695
G1 X-53.457 Y50.304 E78.4013
G1 X-52.605 Y50.117 E78.4324
G0 X-52.409 Y50.074 F4800
;segType:Loop
G0 X-50.560 Y-50.421
G1 X-51.405 Y-49.857 E78.4730 F1800
G1 X-52.500 Y-49.639 E78.5176
G1 X-53.595 Y-49.857 E78.5622
G1 X-54.523 Y-50.477 E78.6067
G1 X-55.143 Y-51.405 E78.6513
G1 X-55.361 Y-52.500 E78.6959
G1 X-55.143 Y-53.595 E78.7405
G1 X-54.523 Y-54.523 E78.7850
G1 X-53.636 Y-55.116 E78.8276
G1 X-52.555 Y-55.353 E78.8718
G1 X-51.459 Y-55.156 E78.9163
G1 X-50.571 Y-54.588 E78.9584
G1 X-50.412 Y-54.429 E78.9673
G1 X-49.847 Y-53.546 E79.0092
G1 X-49.639 Y-52.500 E79.0518
G1 X-49.857 Y-51.405 E79.0964
G1 X-50.421 Y-50.560 E79.1369
;segType:Perimeter
G0 X-47.635 Y-47.239 F4800
G1 X-47.493 Y-47.098 E79.1441 F900
G1 X-45.023 Y-44.628 E79.2686
G1 X-46.977 Y-42.576 E79.3696
G1 X-49.008 Y-40.221 E79.4805
G1 X-50.923 Y-37.767 E79.5915
G1 X-52.715 Y-35.222 E79.7024
G1 X-54.380 Y-32.594 E79.8133
G1 X-55.913 Y-29.886 E79.9243
G1 X-57.313 Y-27.107 E80.0352
G1 X-57.906 Y-25.769 E80.0874
G1 X-58.280 Y-25.971 E80.1026
G1 X-58.280 Y-38.395 E80.5455
G1 X-56.830 Y-40.528 E80.6374
G1 X-54.983 Y-43.000 E80.7474
G1 X-53.154 Y-45.235 E80.8504
G1 X-52.500 Y-45.201 E80.8738
G1 X-51.737 Y-45.241 E80.9010
G1 X-50.983 Y-45.360 E80.9282
G1 X-50.244 Y-45.558 E80.9555
G1 X-49.531 Y-45.832 E80.9827
G1 X-48.851 Y-46.178 E81.0099
G1 X-48.209 Y-46.595 E81.0372
G1 X-47.582 Y-47.103 E81.0660
G0 X-47.427 Y-47.228 F4800
;segType:Loop
G0 X52.402 Y-49.658
G1 X51.405 Y-49.857 E81.1066 F1800
G1 X50.477 Y-50.477 E81.1511
G1 X49.857 Y-51.405 E81.1957
G1 X49.639 Y-52.500 E81.2403
G1 X49.857 Y-53.595 E81.2848
G1 X50.477 Y-54.523 E81.3294
G1 X51.364 Y-55.116 E81.3720
G1 X52.445 Y-55.353 E81.4162
G1 X53.541 Y-55.157 E81.4607
G1 X54.429 Y-54.588 E81.5028
G1 X54.588 Y-54.429 E81.5117
G1 X55.153 Y-53.546 E81.5536
G1 X55.361 Y-52.500 E81.5962
G1 X55.143 Y-51.405 E81.6408
G1 X54.523 Y-50.477 E81.6853
G1 X53.595 Y-49.857 E81.7299
G1 X52.598 Y-49.658 E81.7705
;segType:Perimeter
G0 X52.316 Y-54.921 F4800
G1 X52.513 Y-54.885 E81.7776 F900
G1 X53.374 Y-54.731 E81.8088
G1 X54.146 Y-54.237 E81.8415
G1 X54.237 Y-54.146 E81.8460
G1 X54.730 Y-53.376 E81.8787
G1 X54.904 Y-52.500 E81.9105
G1 X54.721 Y-51.580 E81.9439
G1 X54.200 Y-50.800 E81.9774
G1 X53.420 Y-50.279 E82.0108
G1 X52.500 Y-50.096 E82.0443
G1 X51.580 Y-50.279 E82.0777
G1 X50.800 Y-50.800 E82.1112
G1 X50.279 Y-51.580 E82.1446
G1 X50.096 Y-52.500 E82.1781
G1 X50.279 Y-53.420 E82.2115
G1 X50.800 Y-54.200 E82.2450
G1 X51.542 Y-54.696 E82.2768
G1 X52.395 Y-54.883 E82.3079
;segType:Loop
G0 X49.837 Y53.497 F4800
G1 X49.639 Y52.500 E82.3485 F1800
G1 X49.857 Y51.405 E82.3931
G1 X50.477 Y50.477 E82.4376
G1 X51.364 Y49.884 E82.4803
G1 X52.445 Y49.647 E82.5244
G1 X53.541 Y49.844 E82.5689
G1 X54.429 Y50.412 E82.6110
G1 X54.588 Y50.571 E82.6200
G1 X55.153 Y51.453 E82.6618
G1 X55.361 Y52.500 E82.7044
G1 X55.143 Y53.595 E82.7490
G1 X54.523 Y54.523 E82.7936
G1 X53.595 Y55.143 E82.8381
G1 X52.500 Y55.361 E82.8827
G1 X51.405 Y55.143 E82.9273
G1 X50.477 Y54.523 E82.9719
G1 X49.912 Y53.678 E83.0124
;segType:Perimeter
G0 X52.513 Y50.115 F4800
G1 X53.374 Y50.269 E83.0436 F900
G1 X54.146 Y50.763 E83.0763
G1 X54.237 Y50.854 E83.0809
G1 X54.730 Y51.624 E83.1135
G1 X54.904 Y52.500 E83.1453
G1 X54.721 Y53.420 E83.1788
G1 X54.200 Y54.200 E83.2122
G1 X53.420 Y54.721 E83.2457
G1 X52.500 Y54.904 E83.2791
G1 X51.580 Y54.721 E83.3126
G1 X50.800 Y54.200 E83.3460
G1 X50.279 Y53.420 E83.3794
G1 X50.096 Y52.500 E83.4129
G1 X50.279 Y51.580 E83.4463
G1 X50.800 Y50.800 E83.4798
G1 X51.542 Y50.304 E83.5116
G1 X52.395 Y50.117 E83.5428
G0 X52.591 Y50.074 F4800
G0 X45.099 Y53.834
G1 X45.290 Y53.893 E83.5499 F900
G1 X45.330 Y53.905 E83.5514
G1 X45.539 Y54.684 E83.5801
G1 X45.850 Y55.504 E83.6114
G1 X46.199 Y56.182 E83.6386
G1 X46.619 Y56.820 E83.6658
G1 X47.103 Y57.411 E83.6930
G1 X47.832 Y58.139 E83.7298
G1 X47.773 Y58.280 E83.7352
G1 X39.707 Y58.280 E84.0228
G1 X39.655 Y58.118 E84.0289
G1 X42.107 Y56.369 E84.1362
G1 X44.559 Y54.451 E84.2472
G1 X45.187 Y53.914 E84.2767
G0 X44.670 Y45.066 F4800
G1 X47.140 Y47.536 E84.4012 F900
G1 X46.595 Y48.209 E84.4321
G1 X46.178 Y48.851 E84.4594
G1 X45.832 Y49.531 E84.4866
G1 X45.558 Y50.244 E84.5139
G1 X45.360 Y50.982 E84.5411
G1 X45.241 Y51.737 E84.5683
G1 X45.201 Y52.500 E84.5956
G1 X45.234 Y53.138 E84.6183
G1 X44.207 Y54.017 E84.6665
G1 X41.773 Y55.921 E84.7767
G1 X39.259 Y57.713 E84.8868
G1 X38.385 Y58.280 E84.9239
G1 X25.971 Y58.280 E85.3665
G1 X25.769 Y57.906 E85.3817
G1 X27.107 Y57.313 E85.4338
G1 X29.886 Y55.913 E85.5448
G1 X32.594 Y54.380 E85.6557
G1 X35.222 Y52.715 E85.7666
G1 X37.767 Y50.923 E85.8776
G1 X40.221 Y49.008 E85.9885
G1 X42.576 Y46.977 E86.0994
G1 X44.584 Y45.065 E86.1983
G0 X39.739 Y40.135 F4800
G1 X44.232 Y44.628 E86.4248 F900
G1 X42.200 Y46.562 E86.5248
G1 X39.865 Y48.576 E86.6348
G1 X37.433 Y50.474 E86.7447
G1 X34.913 Y52.249 E86.8546
G1 X32.307 Y53.899 E86.9646
G1 X29.623 Y55.420 E87.0746
G1 X26.868 Y56.807 E87.1845
G1 X24.048 Y58.057 E87.2945
G1 X23.469 Y58.280 E87.3166
G1 X-23.469 Y58.280 E88.9900
G1 X-24.048 Y58.057 E89.0121
G1 X-26.867 Y56.807 E89.1221
G1 X-29.623 Y55.420 E89.2321
G1 X-32.306 Y53.900 E89.3420
G1 X-34.912 Y52.250 E89.4520
G1 X-37.434 Y50.474 E89.5619
G1 X-39.866 Y48.576 E89.6719
G1 X-42.201 Y46.562 E89.7818
G1 X-44.232 Y44.628 E89.8818
G1 X-39.697 Y40.092 E90.1105
G1 X-38.226 Y41.524 E90.1837
G1 X-35.880 Y43.566 E90.2946
G1 X-33.425 Y45.477 E90.4055
G1 X-30.870 Y47.249 E90.5163
G1 X-28.220 Y48.878 E90.6272
G1 X-25.485 Y50.358 E90.7381
G1 X-22.672 Y51.686 E90.8490
G1 X-19.790 Y52.856 E90.9599
G1 X-16.848 Y53.866 E91.0708
G1 X-13.855 Y54.713 E91.1817
G1 X-10.820 Y55.393 E91.2925
G1 X-7.752 Y55.905 E91.4034
G1 X-4.661 Y56.247 E91.5143
G1 X-1.555 Y56.418 E91.6252
G1 X1.555 Y56.418 E91.7361
G1 X4.661 Y56.247 E91.8470
G1 X7.752 Y55.905 E91.9579
G1 X10.820 Y55.393 E92.0687
G1 X13.855 Y54.713 E92.1796
G1 X16.848 Y53.866 E92.2905
G1 X19.790 Y52.856 E92.4014
G1 X22.672 Y51.686 E92.5123
G1 X25.484 Y50.359 E92.6231
G1 X28.220 Y48.878 E92.7341
G1 X30.870 Y47.249 E92.8449
G1 X33.425 Y45.478 E92.9558
G1 X35.880 Y43.567 E93.0667
G1 X38.225 Y41.525 E93.1776
G1 X39.654 Y40.134 E93.2486
G0 X34.815 Y35.210 F4800
G1 X39.302 Y39.697 E93.4749 F900
G1 X37.846 Y41.113 E93.5473
G1 X35.524 Y43.135 E93.6570
G1 X33.094 Y45.026 E93.7668
G1 X30.563 Y46.782 E93.8766
G1 X27.940 Y48.394 E93.9864
G1 X25.232 Y49.859 E94.0961
G1 X22.447 Y51.174 E94.2060
G1 X19.594 Y52.333 E94.3157
G1 X16.681 Y53.333 E94.4255
G1 X13.718 Y54.170 E94.5353
G1 X10.713 Y54.844 E94.6451
G1 X7.675 Y55.351 E94.7549
G1 X4.614 Y55.690 E94.8647
G1 X1.540 Y55.859 E94.9745
G1 X-1.540 Y55.859 E95.0842
G1 X-4.615 Y55.690 E95.1940
G1 X-7.676 Y55.351 E95.3038
G1 X-10.713 Y54.844 E95.4136
G1 X-13.718 Y54.170 E95.5234
G1 X-16.681 Y53.333 E95.6332
G1 X-19.594 Y52.333 E95.7430
G1 X-22.447 Y51.174 E95.8528
G1 X-25.232 Y49.859 E95.9626
G1 X-27.940 Y48.394 E96.0723
G1 X-30.564 Y46.781 E96.1821
G1 X-33.094 Y45.026 E96.2919
G1 X-35.525 Y43.135 E96.4017
G1 X-37.847 Y41.113 E96.5115
G1 X-39.302 Y39.697 E96.5838
G1 X-34.772 Y35.168 E96.8122
G1 X-33.871 Y36.069 E96.8577
G1 X-31.539 Y38.125 E96.9685
G1 X-29.083 Y40.030 E97.0793
G1 X-26.513 Y41.777 E97.1901
G1 X-23.836 Y43.359 E97.3009
G1 X-21.067 Y44.770 E97.4117
G1 X-18.215 Y46.005 E97.5225
G1 X-15.290 Y47.058 E97.6334
G1 X-12.305 Y47.925 E97.7442
G1 X-9.272 Y48.603 E97.8550
G1 X-6.202 Y49.089 E97.9658
G1 X-3.107 Y49.382 E98.0766
G1 X0.000 Y49.480 E98.1874
G1 X3.107 Y49.382 E98.2983
G1 X6.202 Y49.089 E98.4091
G1 X9.271 Y48.603 E98.5199
G1 X12.305 Y47.925 E98.6307
G1 X15.290 Y47.058 E98.7415
G1 X18.214 Y46.005 E98.8523
G1 X21.068 Y44.770 E98.9632
G1 X23.837 Y43.359 E99.0740
G1 X26.512 Y41.777 E99.1848
G1 X29.084 Y40.030 E99.2956
G1 X31.539 Y38.125 E99.4064
G1 X33.871 Y36.069 E99.5172
G1 X34.730 Y35.210 E99.5606
G0 X57.981 Y39.591 F4800
G1 X58.172 Y39.650 E99.5677 F900
G1 X58.280 Y39.683 E99.5717
G1 X58.280 Y47.773 E99.8601
G1 X58.139 Y47.832 E99.8656
G1 X57.384 Y47.076 E99.9037
G1 X56.790 Y46.595 E99.9309
G1 X56.150 Y46.179 E99.9582
G1 X55.469 Y45.832 E99.9854
G1 X54.756 Y45.558 E100.0127
G1 X53.905 Y45.330 E100.0441
G1 X53.875 Y45.237 E100.0476
G1 X55.423 Y43.344 E100.1347
G1 X57.285 Y40.852 E100.2456
G1 X58.081 Y39.682 E100.2961
G0 X58.156 Y25.348 F4800
G1 X58.280 Y25.374 E100.3006 F900
G1 X58.280 Y38.395 E100.7648
G1 X56.831 Y40.526 E100.8567
G1 X54.982 Y43.001 E100.9668
G1 X53.154 Y45.235 E101.0697
G1 X52.500 Y45.201 E101.0931
G1 X51.737 Y45.241 E101.1203
G1 X50.982 Y45.360 E101.1476
G1 X50.244 Y45.558 E101.1748
G1 X49.531 Y45.832 E101.2020
G1 X48.850 Y46.179 E101.2293
G1 X48.209 Y46.595 E101.2565
G1 X47.536 Y47.140 E101.2874
G1 X45.023 Y44.628 E101.4141
G1 X46.976 Y42.577 E101.5151
G1 X49.009 Y40.219 E101.6261
G1 X50.923 Y37.768 E101.7369
G1 X52.715 Y35.222 E101.8479
G1 X54.380 Y32.594 E101.9588
G1 X55.914 Y29.886 E102.0698
G1 X57.312 Y27.108 E102.1807
G1 X58.073 Y25.391 E102.2476
G0 X10.191 Y10.587 F4800
G1 X14.671 Y15.066 E102.4735 F900
G1 X13.805 Y15.932 E102.5171
G1 X11.397 Y17.734 E102.6243
G1 X8.757 Y19.176 E102.7316
G1 X5.939 Y20.227 E102.8388
G1 X3.000 Y20.866 E102.9460
G1 X0.000 Y21.081 E103.0533
G1 X-3.000 Y20.866 E103.1605
G1 X-5.939 Y20.227 E103.2677
G1 X-8.757 Y19.176 E103.3749
G1 X-11.397 Y17.734 E103.4822
G1 X-13.805 Y15.932 E103.5894
G1 X-14.671 Y15.066 E103.6330
G1 X-10.149 Y10.545 E103.8610
G1 X-9.822 Y10.908 E103.8785
G1 X-7.340 Y12.712 E103.9878
G1 X-4.536 Y13.960 E104.0973
G1 X-1.534 Y14.598 E104.2067
G1 X1.534 Y14.598 E104.3161
G1 X4.536 Y13.960 E104.4255
G1 X7.339 Y12.712 E104.5349
G1 X9.822 Y10.908 E104.6443
G1 X10.109 Y10.589 E104.6596
G0 X0.296 Y0.099 F4800
G1 X0.438 Y-0.042 E104.6667 F900
G1 X5.196 Y-4.801 E104.9066
G1 X5.246 Y-4.796 E104.9084
G1 X6.619 Y-2.742 E104.9965
G1 X7.164 Y0.000 E105.0961
G1 X6.619 Y2.742 E105.1958
G1 X5.246 Y4.796 E105.2839
G1 X5.196 Y4.801 E105.2857
G1 X0.438 Y0.042 E105.5256
G0 X0.296 Y-0.099 F4800
G0 X-0.296 Y-0.099
G1 X-0.438 Y0.042 E105.5327 F900
G1 X-5.196 Y4.801 E105.7726
G1 X-5.246 Y4.796 E105.7744
G1 X-6.619 Y2.742 E105.8625
G1 X-7.164 Y0.000 E105.9621
G1 X-6.619 Y-2.742 E106.0618
G1 X-5.246 Y-4.796 E106.1499
G1 X-5.196 Y-4.801 E106.1517
G1 X-0.438 Y-0.042 E106.3916
G0 X-0.296 Y0.099 F4800
G0 X-10.231 Y-9.835
G1 X-10.089 Y-9.694 E106.3987 F900
G1 X-5.614 Y-5.219 E106.6243
G1 X-7.128 Y-2.953 E106.7215
G1 X-7.716 Y0.000 E106.8288
G1 X-7.128 Y2.953 E106.9362
G1 X-5.614 Y5.219 E107.0333
G1 X-10.132 Y9.736 E107.2611
G1 X-11.425 Y8.300 E107.3300
G1 X-12.901 Y5.744 E107.4352
G1 X-13.813 Y2.936 E107.5404
G1 X-14.121 Y0.000 E107.6457
G1 X-13.813 Y-2.936 E107.7509
G1 X-12.901 Y-5.744 E107.8562
G1 X-11.425 Y-8.300 E107.9614
G1 X-10.172 Y-9.692 E108.0282
G0 X-15.165 Y-14.770 F4800
G1 X-15.024 Y-14.629 E108.0353 F900
G1 X-10.524 Y-10.129 E108.2622
G1 X-11.875 Y-8.628 E108.3342
G1 X-13.409 Y-5.970 E108.4436
G1 X-14.358 Y-3.052 E108.5530
G1 X-14.678 Y0.000 E108.6624
G1 X-14.358 Y3.052 E108.7718
G1 X-13.409 Y5.970 E108.8812
G1 X-11.875 Y8.628 E108.9906
G1 X-10.524 Y10.129 E109.0626
G1 X-15.066 Y14.671 E109.2916
G1 X-15.932 Y13.805 E109.3352
G1 X-17.734 Y11.397 E109.4425
G1 X-19.176 Y8.757 E109.5497
G1 X-20.227 Y5.939 E109.6569
G1 X-20.866 Y3.000 E109.7642
G1 X-21.081 Y0.000 E109.8714
G1 X-20.866 Y-3.000 E109.9786
G1 X-20.227 Y-5.939 E110.0859
G1 X-19.176 Y-8.757 E110.1931
G1 X-17.734 Y-11.397 E110.3003
G1 X-15.932 Y-13.805 E110.4075
G1 X-15.109 Y-14.629 E110.4490
G0 X-14.967 Y-14.770 F4800
G0 X-19.993 Y-19.546
G1 X-19.400 Y-19.005 E110.4777 F900
G1 X-15.460 Y-15.065 E110.6763
G1 X-16.354 Y-14.171 E110.7214
G1 X-18.204 Y-11.699 E110.8315
G1 X-19.683 Y-8.989 E110.9415
G1 X-20.763 Y-6.096 E111.0516
G1 X-21.419 Y-3.080 E111.1617
G1 X-21.639 Y0.000 E111.2718
G1 X-21.419 Y3.079 E111.3818
G1 X-20.763 Y6.096 E111.4919
G1 X-19.683 Y8.989 E111.6020
G1 X-18.204 Y11.699 E111.7120
G1 X-16.354 Y14.171 E111.8221
G1 X-15.460 Y15.065 E111.8672
G1 X-20.009 Y19.614 E112.0965
G1 X-20.357 Y19.284 E112.1136
G1 X-22.323 Y16.969 E112.2219
G1 X-24.027 Y14.456 E112.3301
G1 X-25.449 Y11.774 E112.4384
G1 X-26.573 Y8.954 E112.5466
G1 X-27.385 Y6.028 E112.6549
G1 X-27.876 Y3.032 E112.7631
G1 X-28.041 Y0.000 E112.8713
G1 X-27.876 Y-3.032 E112.9796
G1 X-27.385 Y-6.028 E113.0878
G1 X-26.573 Y-8.953 E113.1961
G1 X-25.449 Y-11.774 E113.3043
G1 X-24.027 Y-14.457 E113.4126
G1 X-22.323 Y-16.970 E113.5208
G1 X-20.358 Y-19.283 E113.6290
G1 X-20.081 Y-19.546 E113.6426
G0 X-19.705 Y-19.902 F4800
G1 X-19.559 Y-20.039 E113.6497 F900
G1 X-18.153 Y-21.372 E113.7188
G1 X-15.736 Y-23.209 E113.8271
G1 X-13.134 Y-24.774 E113.9353
G1 X-10.379 Y-26.049 E114.0435
G1 X-7.501 Y-27.019 E114.1518
G1 X-4.536 Y-27.671 E114.2600
G1 X-1.518 Y-28.000 E114.3683
G1 X1.518 Y-28.000 E114.4765
G1 X4.537 Y-27.671 E114.5848
G1 X7.501 Y-27.019 E114.6930
G1 X10.378 Y-26.050 E114.8012
G1 X13.135 Y-24.774 E114.9095
G1 X15.737 Y-23.209 E115.0177
G1 X18.153 Y-21.371 E115.1260
G1 X19.603 Y-19.998 E115.1972
G1 X15.065 Y-15.460 E115.4260
G1 X14.171 Y-16.354 E115.4710
G1 X11.699 Y-18.204 E115.5811
G1 X8.989 Y-19.684 E115.6912
G1 X6.097 Y-20.762 E115.8012
G1 X3.080 Y-21.419 E115.9113
G1 X0.000 Y-21.639 E116.0214
G1 X-3.080 Y-21.419 E116.1315
G1 X-6.096 Y-20.763 E116.2415
G1 X-8.989 Y-19.683 E116.3516
G1 X-11.699 Y-18.204 E116.4616
G1 X-14.171 Y-16.354 E116.5717
G1 X-15.065 Y-15.460 E116.6168
G1 X-19.561 Y-19.956 E116.8435
G0 X-24.896 Y-24.500 F4800
G1 X-20.404 Y-20.008 E117.0700 F900
G1 X-20.763 Y-19.668 E117.0876
G1 X-22.768 Y-17.307 E117.1980
G1 X-24.506 Y-14.744 E117.3084
G1 X-25.956 Y-12.008 E117.4188
G1 X-27.102 Y-9.132 E117.5292
G1 X-27.931 Y-6.148 E117.6396
G1 X-28.432 Y-3.092 E117.7500
G1 X-28.599 Y0.000 E117.8604
G1 X-28.432 Y3.092 E117.9708
G1 X-27.931 Y6.148 E118.0812
G1 X-27.102 Y9.131 E118.1916
G1 X-25.956 Y12.009 E118.3020
G1 X-24.506 Y14.744 E118.4124
G1 X-22.768 Y17.307 E118.5228
G1 X-20.763 Y19.667 E118.6332
G1 X-20.429 Y19.985 E118.6496
G1 X-24.938 Y24.544 E118.8782
G1 X-26.812 Y22.498 E118.9771
G1 X-28.671 Y20.075 E119.0860
G1 X-30.311 Y17.500 E119.1948
G1 X-31.721 Y14.792 E119.3037
G1 X-32.890 Y11.971 E119.4126
G1 X-33.808 Y9.059 E119.5214
G1 X-34.469 Y6.078 E119.6303
G1 X-34.867 Y3.051 E119.7391
G1 X-35.001 Y0.000 E119.8480
G1 X-34.867 Y-3.051 E119.9568
G1 X-34.469 Y-6.078 E120.0657
G1 X-33.808 Y-9.059 E120.1745
G1 X-32.890 Y-11.971 E120.2834
G1 X-31.721 Y-14.792 E120.3923
G1 X-30.311 Y-17.500 E120.5011
G1 X-28.671 Y-20.075 E120.6100
G1 X-26.812 Y-22.498 E120.7188
G1 X-24.979 Y-24.499 E120.8156
G0 X-24.499 Y-24.979 F4800
G1 X-22.498 Y-26.812 E120.9123 F900
G1 X-20.076 Y-28.671 E121.0212
G1 X-17.500 Y-30.311 E121.1300
G1 X-14.792 Y-31.721 E121.2389
G1 X-11.971 Y-32.890 E121.3477
G1 X-9.058 Y-33.808 E121.4566
G1 X-6.078 Y-34.469 E121.5654
G1 X-3.051 Y-34.867 E121.6743
G1 X0.000 Y-35.001 E121.7832
G1 X3.050 Y-34.867 E121.8920
G1 X6.079 Y-34.469 E122.0009
G1 X9.059 Y-33.808 E122.1098
G1 X11.970 Y-32.890 E122.2186
G1 X14.793 Y-31.721 E122.3275
G1 X17.500 Y-30.311 E122.4363
G1 X20.076 Y-28.670 E122.5452
G1 X22.497 Y-26.812 E122.6540
G1 X24.543 Y-24.938 E122.7529
G1 X19.998 Y-20.393 E122.9821
G1 X18.515 Y-21.798 E123.0549
G1 X16.049 Y-23.671 E123.1653
G1 X13.396 Y-25.268 E123.2757
G1 X10.585 Y-26.568 E123.3861
G1 X7.651 Y-27.557 E123.4965
G1 X4.627 Y-28.223 E123.6069
G1 X1.548 Y-28.557 E123.7173
G1 X-1.549 Y-28.557 E123.8277
G1 X-4.626 Y-28.223 E123.9380
G1 X-7.651 Y-27.557 E124.0485
G1 X-10.586 Y-26.568 E124.1589
G1 X-13.396 Y-25.268 E124.2693
G1 X-16.050 Y-23.671 E124.3797
G1 X-18.515 Y-21.797 E124.4900
G1 X-19.997 Y-20.393 E124.5629
G1 X-24.500 Y-24.896 E124.7899
G0 X-29.559 Y-29.756 F4800
G1 X-29.420 Y-29.900 E124.7970 F900
G1 X-29.124 Y-30.208 E124.8122
G1 X-26.841 Y-32.253 E124.9215
G1 X-24.415 Y-34.126 E125.0308
G1 X-21.859 Y-35.817 E125.1401
G1 X-19.186 Y-37.317 E125.2493
G1 X-16.411 Y-38.618 E125.3586
G1 X-13.549 Y-39.713 E125.4678
G1 X-10.612 Y-40.596 E125.5772
G1 X-7.622 Y-41.262 E125.6864
G1 X-4.591 Y-41.709 E125.7956
G1 X-1.532 Y-41.932 E125.9049
G1 X1.533 Y-41.932 E126.0142
G1 X4.589 Y-41.709 E126.1234
G1 X7.623 Y-41.262 E126.2328
G1 X10.613 Y-40.596 E126.3420
G1 X13.547 Y-39.713 E126.4512
G1 X16.412 Y-38.618 E126.5606
G1 X19.187 Y-37.317 E126.6698
G1 X21.859 Y-35.817 E126.7791
G1 X24.415 Y-34.126 E126.8883
G1 X26.841 Y-32.253 E126.9976
G1 X29.147 Y-30.184 E127.1080
G1 X29.461 Y-29.857 E127.1242
G1 X24.938 Y-25.333 E127.3523
G1 X22.858 Y-27.239 E127.4528
G1 X20.395 Y-29.129 E127.5635
G1 X17.780 Y-30.795 E127.6741
G1 X15.028 Y-32.228 E127.7847
G1 X12.163 Y-33.414 E127.8952
G1 X9.204 Y-34.348 E128.0058
G1 X6.174 Y-35.019 E128.1165
G1 X3.099 Y-35.424 E128.2270
G1 X0.000 Y-35.559 E128.3377
G1 X-3.099 Y-35.424 E128.4482
G1 X-6.176 Y-35.019 E128.5589
G1 X-9.205 Y-34.348 E128.6695
G1 X-12.162 Y-33.415 E128.7800
G1 X-15.028 Y-32.228 E128.8906
G1 X-17.780 Y-30.795 E129.0012
G1 X-20.396 Y-29.129 E129.1118
G1 X-22.857 Y-27.240 E129.2224
G1 X-24.938 Y-25.333 E129.3230
G1 X-29.419 Y-29.815 E129.5490
G0 X-29.949 Y-29.553 F4800
G1 X-29.808 Y-29.412 E129.5561 F900
G1 X-25.333 Y-24.938 E129.7817
G1 X-27.240 Y-22.857 E129.8823
G1 X-29.128 Y-20.396 E129.9929
G1 X-30.795 Y-17.780 E130.1035
G1 X-32.228 Y-15.028 E130.2141
G1 X-33.415 Y-12.162 E130.3247
G1 X-34.348 Y-9.204 E130.4352
G1 X-35.019 Y-6.175 E130.5458
G1 X-35.424 Y-3.099 E130.6564
G1 X-35.559 Y0.000 E130.7670
G1 X-35.424 Y3.099 E130.8776
G1 X-35.019 Y6.175 E130.9882
G1 X-34.348 Y9.203 E131.0988
G1 X-33.415 Y12.162 E131.2094
G1 X-32.228 Y15.028 E131.3200
G1 X-30.795 Y17.780 E131.4306
G1 X-29.128 Y20.396 E131.5412
G1 X-27.240 Y22.857 E131.6518
G1 X-25.333 Y24.938 E131.7524
G1 X-29.850 Y29.454 E131.9801
G1 X-31.251 Y28.001 E132.0521
G1 X-33.211 Y25.645 E132.1613
G1 X-34.995 Y23.152 E132.2706
G1 X-36.591 Y20.537 E132.3799
G1 X-37.993 Y17.810 E132.4892
G1 X-39.192 Y14.990 E132.5984
G1 X-40.182 Y12.088 E132.7077
G1 X-40.957 Y9.123 E132.8169
G1 X-41.514 Y6.109 E132.9262
G1 X-41.849 Y3.063 E133.0355
G1 X-41.961 Y0.000 E133.1447
G1 X-41.849 Y-3.063 E133.2540
G1 X-41.514 Y-6.109 E133.3633
G1 X-40.957 Y-9.123 E133.4725
G1 X-40.181 Y-12.089 E133.5818
G1 X-39.192 Y-14.989 E133.6911
G1 X-37.993 Y-17.810 E133.8003
G1 X-36.591 Y-20.537 E133.9096
G1 X-34.995 Y-23.152 E134.0189
G1 X-33.211 Y-25.645 E134.1282
G1 X-31.251 Y-28.001 E134.2374
G1 X-29.892 Y-29.411 E134.3073
G0 X-29.753 Y-29.555 F4800
G0 X-34.872 Y-34.476
G1 X-34.730 Y-34.335 E134.3144 F900
G1 X-30.245 Y-29.849 E134.5405
G1 X-31.667 Y-28.375 E134.6136
G1 X-33.654 Y-25.986 E134.7243
G1 X-35.461 Y-23.461 E134.8350
G1 X-37.079 Y-20.810 E134.9458
G1 X-38.499 Y-18.048 E135.0565
G1 X-39.714 Y-15.189 E135.1672
G1 X-40.717 Y-12.250 E135.2779
G1 X-41.502 Y-9.245 E135.3887
G1 X-42.066 Y-6.191 E135.4994
G1 X-42.406 Y-3.104 E135.6101
G1 X-42.519 Y0.000 E135.7208
G1 X-42.406 Y3.104 E135.8315
G1 X-42.066 Y6.191 E135.9423
G1 X-41.502 Y9.245 E136.0530
G1 X-40.717 Y12.250 E136.1637
G1 X-39.714 Y15.189 E136.2744
G1 X-38.499 Y18.048 E136.3852
G1 X-37.079 Y20.810 E136.4959
G1 X-35.461 Y23.461 E136.6066
G1 X-33.654 Y25.986 E136.7173
G1 X-31.667 Y28.375 E136.8281
G1 X-30.245 Y29.849 E136.9011
G1 X-34.773 Y34.377 E137.1294
G1 X-35.661 Y33.489 E137.1742
G1 X-37.694 Y31.183 E137.2838
G1 X-39.577 Y28.755 E137.3933
G1 X-41.305 Y26.213 E137.5029
G1 X-42.870 Y23.567 E137.6125
G1 X-44.265 Y20.830 E137.7220
G1 X-45.485 Y18.009 E137.8316
G1 X-46.526 Y15.117 E137.9412
G1 X-47.384 Y12.166 E138.0507
G1 X-48.054 Y9.167 E138.1603
G1 X-48.535 Y6.131 E138.2699
G1 X-48.824 Y3.072 E138.3794
G1 X-48.921 Y0.000 E138.4890
G1 X-48.824 Y-3.072 E138.5985
G1 X-48.535 Y-6.131 E138.7081
G1 X-48.054 Y-9.167 E138.8177
G1 X-47.384 Y-12.166 E138.9272
G1 X-46.526 Y-15.117 E139.0368
G1 X-45.485 Y-18.009 E139.1464
G1 X-44.265 Y-20.830 E139.2559
G1 X-42.870 Y-23.567 E139.3655
G1 X-41.305 Y-26.213 E139.4751
G1 X-39.577 Y-28.755 E139.5846
G1 X-37.694 Y-31.183 E139.6942
G1 X-35.662 Y-33.488 E139.8037
G1 X-34.815 Y-34.335 E139.8464
G0 X-34.674 Y-34.476 F4800
G0 X-39.688 Y-39.238
G1 X-39.093 Y-38.698 E139.8750 F900
G1 X-35.168 Y-34.772 E140.0730
G1 X-36.069 Y-33.871 E140.1184
G1 X-38.125 Y-31.539 E140.2292
G1 X-40.030 Y-29.084 E140.3400
G1 X-41.777 Y-26.512 E140.4509
G1 X-43.359 Y-23.837 E140.5617
G1 X-44.770 Y-21.068 E140.6724
G1 X-46.005 Y-18.214 E140.7833
G1 X-47.058 Y-15.290 E140.8941
G1 X-47.925 Y-12.305 E141.0049
G1 X-48.603 Y-9.271 E141.1157
G1 X-49.089 Y-6.202 E141.2265
G1 X-49.382 Y-3.107 E141.3373
G1 X-49.480 Y0.000 E141.4482
G1 X-49.382 Y3.107 E141.5590
G1 X-49.089 Y6.202 E141.6698
G1 X-48.603 Y9.272 E141.7806
G1 X-47.925 Y12.305 E141.8914
G1 X-47.058 Y15.290 E142.0022
G1 X-46.005 Y18.215 E142.1131
G1 X-44.770 Y21.068 E142.2239
G1 X-43.359 Y23.837 E142.3347
G1 X-41.777 Y26.512 E142.4455
G1 X-40.030 Y29.083 E142.5563
G1 X-38.125 Y31.539 E142.6671
G1 X-36.069 Y33.871 E142.7779
G1 X-35.168 Y34.772 E142.8234
G1 X-39.703 Y39.307 E143.0521
G1 X-40.054 Y38.965 E143.0696
G1 X-42.140 Y36.699 E143.1794
G1 X-44.098 Y34.323 E143.2891
G1 X-45.922 Y31.841 E143.3989
G1 X-47.606 Y29.263 E143.5087
G1 X-49.145 Y26.596 E143.6185
G1 X-50.536 Y23.849 E143.7282
G1 X-51.773 Y21.028 E143.8381
G1 X-52.853 Y18.144 E143.9479
G1 X-53.772 Y15.205 E144.0576
G1 X-54.528 Y12.220 E144.1674
G1 X-55.118 Y9.198 E144.2772
G1 X-55.541 Y6.147 E144.3870
G1 X-55.795 Y3.078 E144.4968
G1 X-55.880 Y0.000 E144.6066
G1 X-55.795 Y-3.078 E144.7163
G1 X-55.541 Y-6.147 E144.8261
G1 X-55.118 Y-9.198 E144.9359
G1 X-54.528 Y-12.220 E145.0457
G1 X-53.772 Y-15.205 E145.1555
G1 X-52.853 Y-18.144 E145.2653
G1 X-51.773 Y-21.028 E145.3750
G1 X-50.536 Y-23.849 E145.4849
G1 X-49.146 Y-26.596 E145.5946
G1 X-47.606 Y-29.263 E145.7044
G1 X-45.922 Y-31.841 E145.8142
G1 X-44.097 Y-34.323 E145.9240
G1 X-42.139 Y-36.700 E146.0338
G1 X-40.054 Y-38.966 E146.1436
G1 X-39.775 Y-39.237 E146.1574
G0 X-39.632 Y-39.377 F4800
G0 X-44.334 Y-44.531
G1 X-44.189 Y-44.669 E146.1646 F900
G1 X-42.201 Y-46.562 E146.2624
G1 X-39.865 Y-48.577 E146.3724
G1 X-37.434 Y-50.474 E146.4823
G1 X-34.911 Y-52.250 E146.5923
G1 X-32.307 Y-53.900 E146.7022
G1 X-29.622 Y-55.421 E146.8122
G1 X-26.868 Y-56.807 E146.9221
G1 X-24.049 Y-58.057 E147.0321
G1 X-23.469 Y-58.280 E147.0543
G1 X23.469 Y-58.280 E148.7276
G1 X24.048 Y-58.057 E148.7497
G1 X26.868 Y-56.807 E148.8597
G1 X29.620 Y-55.422 E148.9696
G1 X32.304 Y-53.902 E149.0795
G1 X34.913 Y-52.249 E149.1896
G1 X37.435 Y-50.473 E149.2996
G1 X39.865 Y-48.576 E149.4095
G1 X42.204 Y-46.559 E149.5196
G1 X44.232 Y-44.628 E149.6195
G1 X39.697 Y-40.092 E149.8481
G1 X38.224 Y-41.526 E149.9214
G1 X35.883 Y-43.564 E150.0321
G1 X33.428 Y-45.475 E150.1430
G1 X30.871 Y-47.248 E150.2539
G1 X28.217 Y-48.880 E150.3650
G1 X25.485 Y-50.358 E150.4757
G1 X22.670 Y-51.686 E150.5867
G1 X19.791 Y-52.856 E150.6975
G1 X16.849 Y-53.866 E150.8084
G1 X13.853 Y-54.713 E150.9194
G1 X10.821 Y-55.392 E151.0302
G1 X7.752 Y-55.905 E151.1411
G1 X4.660 Y-56.247 E151.2520
G1 X1.555 Y-56.418 E151.3628
G1 X-1.554 Y-56.418 E151.4737
G1 X-4.660 Y-56.247 E151.5846
G1 X-7.753 Y-55.905 E151.6955
G1 X-10.818 Y-55.393 E151.8063
G1 X-13.856 Y-54.712 E151.9173
G1 X-16.849 Y-53.866 E152.0282
G1 X-19.788 Y-52.857 E152.1390
G1 X-22.671 Y-51.686 E152.2499
G1 X-25.485 Y-50.358 E152.3608
G1 X-28.220 Y-48.878 E152.4717
G1 X-30.869 Y-47.250 E152.5826
G1 X-33.425 Y-45.477 E152.6935
G1 X-35.879 Y-43.567 E152.8043
G1 X-38.226 Y-41.524 E152.9152
G1 X-39.697 Y-40.092 E152.9884
G1 X-44.190 Y-44.585 E153.2150
G0 X-44.727 Y-44.331 F4800
G1 X-44.585 Y-44.190 E153.2221 F900
G1 X-40.098 Y-39.703 E153.4483
G1 X-40.455 Y-39.355 E153.4661
G1 X-42.561 Y-37.067 E153.5770
G1 X-44.539 Y-34.665 E153.6879
G1 X-46.381 Y-32.159 E153.7988
G1 X-48.082 Y-29.555 E153.9097
G1 X-49.637 Y-26.862 E154.0205
G1 X-51.041 Y-24.088 E154.1314
G1 X-52.291 Y-21.239 E154.2423
G1 X-53.382 Y-18.326 E154.3532
G1 X-54.310 Y-15.357 E154.4641
G1 X-55.074 Y-12.342 E154.5749
G1 X-55.670 Y-9.290 E154.6858
G1 X-56.097 Y-6.209 E154.7967
G1 X-56.354 Y-3.109 E154.9076
G1 X-56.440 Y0.000 E155.0185
G1 X-56.354 Y3.109 E155.1294
G1 X-56.097 Y6.209 E155.2402
G1 X-55.670 Y9.290 E155.3511
G1 X-55.074 Y12.342 E155.4620
G1 X-54.310 Y15.357 E155.5729
G1 X-53.382 Y18.326 E155.6838
G1 X-52.291 Y21.239 E155.7947
G1 X-51.041 Y24.087 E155.9056
G1 X-49.637 Y26.862 E156.0164
G1 X-48.082 Y29.556 E156.1273
G1 X-46.381 Y32.159 E156.2382
G1 X-44.539 Y34.666 E156.3491
G1 X-42.561 Y37.067 E156.4600
G1 X-40.455 Y39.355 E156.5709
G1 X-40.098 Y39.702 E156.5886
G1 X-44.628 Y44.232 E156.8170
G1 X-46.561 Y42.201 E156.9170
G1 X-48.576 Y39.865 E157.0270
G1 X-50.474 Y37.434 E157.1369
G1 X-52.250 Y34.912 E157.2469
G1 X-53.900 Y32.307 E157.3568
G1 X-55.421 Y29.623 E157.4668
G1 X-56.807 Y26.867 E157.5768
G1 X-58.057 Y24.048 E157.6867
G1 X-58.280 Y23.469 E157.7088
G1 X-58.280 Y-23.469 E159.3822
G1 X-58.057 Y-24.048 E159.4043
G1 X-56.807 Y-26.868 E159.5143
G1 X-55.420 Y-29.623 E159.6243
G1 X-53.899 Y-32.307 E159.7342
G1 X-52.249 Y-34.913 E159.8442
G1 X-50.474 Y-37.433 E159.9541
G1 X-48.576 Y-39.865 E160.0641
G1 X-46.562 Y-42.200 E160.1740
G1 X-44.669 Y-44.189 E160.2719
G0 X-52.487 Y-54.885 F4800
G1 X-51.626 Y-54.731 E160.3031 F900
G1 X-50.854 Y-54.237 E160.3358
G1 X-50.764 Y-54.146 E160.3403
G1 X-50.270 Y-53.376 E160.3730
G1 X-50.096 Y-52.500 E160.4048
G1 X-50.279 Y-51.580 E160.4383
G1 X-50.800 Y-50.800 E160.4717
G1 X-51.580 Y-50.279 E160.5051
G1 X-52.500 Y-50.096 E160.5386
G1 X-53.420 Y-50.279 E160.5720
G1 X-54.200 Y-50.800 E160.6055
G1 X-54.721 Y-51.580 E160.6389
G1 X-54.904 Y-52.500 E160.6724
G1 X-54.721 Y-53.420 E160.7058
G1 X-54.200 Y-54.200 E160.7392
G1 X-53.457 Y-54.696 E160.7711
G1 X-52.605 Y-54.883 E160.8022
G0 X-58.096 Y-47.790 F4800
G1 X-57.384 Y-47.075 E160.8382 F900
G1 X-56.820 Y-46.619 E160.8640
G1 X-56.182 Y-46.199 E160.8913
G1 X-55.504 Y-45.850 E160.9185
G1 X-54.684 Y-45.539 E160.9497
G1 X-53.905 Y-45.330 E160.9785
G1 X-53.875 Y-45.237 E160.9820
G1 X-55.422 Y-43.346 E161.0691
G1 X-57.286 Y-40.850 E161.1801
G1 X-58.115 Y-39.632 E161.2327
G1 X-58.280 Y-39.683 E161.2388
G1 X-58.280 Y-47.773 E161.5273
G1 X-58.194 Y-47.809 E161.5306
G0 X-58.009 Y-47.886 F4800
G0 X-39.750 Y-58.414
G1 X-39.689 Y-58.223 E161.5377 F900
G1 X-39.655 Y-58.117 E161.5417
G1 X-42.107 Y-56.369 E161.6490
G1 X-44.561 Y-54.450 E161.7601
G1 X-45.233 Y-53.875 E161.7916
G1 X-45.330 Y-53.905 E161.7953
G1 X-45.539 Y-54.684 E161.8240
G1 X-45.850 Y-55.504 E161.8553
G1 X-46.199 Y-56.182 E161.8825
G1 X-46.619 Y-56.820 E161.9097
G1 X-47.103 Y-57.411 E161.9370
G1 X-47.832 Y-58.139 E161.9737
G1 X-47.773 Y-58.280 E161.9791
G1 X-39.767 Y-58.280 E162.2645
G0 X-25.403 Y-58.417 F4800
G1 X-25.362 Y-58.222 E162.2717 F900
G1 X-25.336 Y-58.098 E162.2762
G1 X-27.108 Y-57.312 E162.3453
G1 X-29.886 Y-55.914 E162.4562
G1 X-32.594 Y-54.380 E162.5671
G1 X-35.222 Y-52.715 E162.6780
G1 X-37.768 Y-50.923 E162.7890
G1 X-40.219 Y-49.009 E162.8999
G1 X-42.577 Y-46.976 E163.0109
G1 X-44.627 Y-45.023 E163.1118
G1 X-47.140 Y-47.536 E163.2385
G1 X-46.595 Y-48.209 E163.2694
G1 X-46.179 Y-48.850 E163.2966
G1 X-45.832 Y-49.531 E163.3239
G1 X-45.558 Y-50.244 E163.3511
G1 X-45.360 Y-50.982 E163.3783
G1 X-45.241 Y-51.737 E163.4056
G1 X-45.201 Y-52.500 E163.4328
G1 X-45.234 Y-53.138 E163.4556
G1 X-44.206 Y-54.018 E163.5038
G1 X-41.774 Y-55.920 E163.6139
G1 X-39.258 Y-57.714 E163.7240
G1 X-38.385 Y-58.280 E163.7612
G1 X-25.434 Y-58.280 E164.2228
G0 X-25.234 Y-58.280 F4800
G0 X26.031 Y-58.280
G1 X38.385 Y-58.280 E164.6632 F900
G1 X39.260 Y-57.713 E164.7004
G1 X41.773 Y-55.921 E164.8104
G1 X44.204 Y-54.020 E164.9205
G1 X45.234 Y-53.138 E164.9688
G1 X45.204 Y-52.561 E164.9894
G1 X45.247 Y-51.698 E165.0202
G1 X45.370 Y-50.946 E165.0474
G1 X45.572 Y-50.209 E165.0746
G1 X45.849 Y-49.497 E165.1019
G1 X46.199 Y-48.819 E165.1290
G1 X46.642 Y-48.151 E165.1576
G1 X47.140 Y-47.536 E165.1858
G1 X44.628 Y-45.023 E165.3125
G1 X42.579 Y-46.974 E165.4134
G1 X40.221 Y-49.008 E165.5244
G1 X37.766 Y-50.924 E165.6354
G1 X35.224 Y-52.714 E165.7462
G1 X32.597 Y-54.378 E165.8571
G1 X29.884 Y-55.915 E165.9683
G1 X27.108 Y-57.312 E166.0791
G1 X25.751 Y-57.914 E166.1320
G1 X25.940 Y-58.229 E166.1451
G0 X26.044 Y-58.400 F4800
G0 X39.567 Y-58.280
G1 X39.767 Y-58.280 E166.1523 F900
G1 X47.773 Y-58.280 E166.4377
G1 X47.832 Y-58.139 E166.4432
G1 X47.076 Y-57.384 E166.4813
G1 X46.595 Y-56.790 E166.5085
G1 X46.178 Y-56.150 E166.5357
G1 X45.832 Y-55.469 E166.5630
G1 X45.558 Y-54.756 E166.5902
G1 X45.330 Y-53.905 E166.6216
G1 X45.233 Y-53.875 E166.6252
G1 X44.559 Y-54.451 E166.6569
G1 X42.110 Y-56.366 E166.7677
G1 X39.655 Y-58.118 E166.8752
G1 X39.689 Y-58.223 E166.8791
G0 X39.750 Y-58.414 F4800
G0 X47.427 Y-47.228
G1 X47.582 Y-47.103 E166.8863 F900
G1 X48.209 Y-46.595 E166.9150
G1 X48.850 Y-46.178 E166.9423
G1 X49.531 Y-45.832 E166.9695
G1 X50.244 Y-45.558 E166.9967
G1 X50.982 Y-45.360 E167.0240
G1 X51.737 Y-45.241 E167.0512
G1 X52.500 Y-45.201 E167.0785
G1 X53.154 Y-45.235 E167.1018
G1 X54.985 Y-42.997 E167.2049
G1 X56.828 Y-40.530 E167.3147
G1 X58.280 Y-38.395 E167.4067
G1 X58.280 Y-25.971 E167.8496
G1 X57.914 Y-25.751 E167.8649
G1 X57.314 Y-27.104 E167.9177
G1 X55.912 Y-29.889 E168.0288
G1 X54.379 Y-32.596 E168.1398
G1 X52.715 Y-35.222 E168.2506
G1 X50.923 Y-37.768 E168.3616
G1 X49.007 Y-40.223 E168.4726
G1 X46.975 Y-42.578 E168.5835
G1 X45.023 Y-44.628 E168.6844
G1 X47.493 Y-47.098 E168.8090
G0 X47.635 Y-47.239 F4800
G0 X44.669 Y-44.189
G1 X46.562 Y-42.201 E168.9068 F900
G1 X48.574 Y-39.868 E169.0166
G1 X50.474 Y-37.434 E169.1267
G1 X52.249 Y-34.914 E169.2366
G1 X53.900 Y-32.307 E169.3466
G1 X55.422 Y-29.620 E169.4567
G1 X56.808 Y-26.865 E169.5667
G1 X58.057 Y-24.048 E169.6765
G1 X58.280 Y-23.469 E169.6986
G1 X58.280 Y23.469 E171.3720
G1 X58.057 Y24.049 E171.3942
G1 X56.807 Y26.868 E171.5041
G1 X55.421 Y29.622 E171.6140
G1 X53.900 Y32.307 E171.7241
G1 X52.250 Y34.911 E171.8339
G1 X50.474 Y37.434 E171.9439
G1 X48.577 Y39.865 E172.0539
G1 X46.562 Y42.201 E172.1639
G1 X44.628 Y44.232 E172.2638
G1 X40.098 Y39.702 E172.4922
G1 X40.455 Y39.355 E172.5100
G1 X42.561 Y37.067 E172.6209
G1 X44.538 Y34.666 E172.7318
G1 X46.381 Y32.159 E172.8427
G1 X48.082 Y29.556 E172.9536
G1 X49.637 Y26.861 E173.0645
G1 X51.042 Y24.087 E173.1753
G1 X52.291 Y21.239 E173.2862
G1 X53.381 Y18.327 E173.3970
G1 X54.310 Y15.357 E173.5080
G1 X55.074 Y12.341 E173.6189
G1 X55.669 Y9.291 E173.7297
G1 X56.097 Y6.207 E173.8407
G1 X56.354 Y3.107 E173.9516
G1 X56.440 Y0.001 E174.0624
G1 X56.354 Y-3.111 E174.1733
G1 X56.097 Y-6.207 E174.2841
G1 X55.670 Y-9.289 E174.3950
G1 X55.073 Y-12.343 E174.5060
G1 X54.310 Y-15.356 E174.6168
G1 X53.382 Y-18.326 E174.7277
G1 X52.290 Y-21.240 E174.8386
G1 X51.040 Y-24.090 E174.9496
G1 X49.636 Y-26.865 E175.0604
G1 X48.081 Y-29.557 E175.1713
G1 X46.381 Y-32.159 E175.2821
G1 X44.540 Y-34.665 E175.3929
G1 X42.562 Y-37.065 E175.5038
G1 X40.455 Y-39.355 E175.6148
G1 X40.098 Y-39.702 E175.6325
G1 X44.585 Y-44.190 E175.8588
G0 X44.727 Y-44.331 F4800
G0 X39.401 Y-39.796
G1 X39.259 Y-39.655 E175.8659 F900
G1 X34.772 Y-35.168 E176.0921
G1 X33.870 Y-36.070 E176.1376
G1 X31.542 Y-38.122 E176.2483
G1 X29.086 Y-40.028 E176.3591
G1 X26.512 Y-41.777 E176.4700
G1 X23.837 Y-43.359 E176.5808
G1 X21.068 Y-44.770 E176.6916
G1 X18.216 Y-46.004 E176.8024
G1 X15.290 Y-47.058 E176.9133
G1 X12.305 Y-47.925 E177.0241
G1 X9.273 Y-48.603 E177.1349
G1 X6.200 Y-49.090 E177.2458
G1 X3.107 Y-49.382 E177.3565
G1 X0.000 Y-49.480 E177.4674
G1 X-3.105 Y-49.382 E177.5781
G1 X-6.203 Y-49.089 E177.6891
G1 X-9.271 Y-48.603 E177.7998
G1 X-12.305 Y-47.925 E177.9107
G1 X-15.291 Y-47.057 E178.0215
G1 X-18.215 Y-46.005 E178.1323
G1 X-21.067 Y-44.770 E178.2431
G1 X-23.836 Y-43.359 E178.3539
G1 X-26.513 Y-41.777 E178.4647
G1 X-29.083 Y-40.030 E178.5756
G1 X-31.539 Y-38.125 E178.6863
G1 X-33.871 Y-36.069 E178.7972
G1 X-34.772 Y-35.168 E178.8426
G1 X-39.302 Y-39.697 E179.0710
G1 X-37.847 Y-41.113 E179.1434
G1 X-35.524 Y-43.135 E179.2532
G1 X-33.094 Y-45.027 E179.3630
G1 X-30.564 Y-46.781 E179.4727
G1 X-27.940 Y-48.394 E179.5825
G1 X-25.232 Y-49.859 E179.6923
G1 X-22.447 Y-51.174 E179.8021
G1 X-19.594 Y-52.332 E179.9118
G1 X-16.682 Y-53.333 E180.0216
G1 X-13.717 Y-54.171 E180.1315
G1 X-10.713 Y-54.844 E180.2412
G1 X-7.676 Y-55.351 E180.3510
G1 X-4.616 Y-55.689 E180.4608
G1 X-1.538 Y-55.859 E180.5707
G1 X1.540 Y-55.859 E180.6804
G1 X4.613 Y-55.690 E180.7901
G1 X7.677 Y-55.351 E180.9000
G1 X10.713 Y-54.844 E181.0098
G1 X13.718 Y-54.170 E181.1195
G1 X16.680 Y-53.333 E181.2293
G1 X19.594 Y-52.332 E181.3391
G1 X22.447 Y-51.174 E181.4489
G1 X25.233 Y-49.859 E181.5587
G1 X27.942 Y-48.393 E181.6685
G1 X30.566 Y-46.780 E181.7783
G1 X33.094 Y-45.026 E181.8880
G1 X35.524 Y-43.135 E181.9978
G1 X37.845 Y-41.114 E182.1075
G1 X39.259 Y-39.739 E182.1778
G0 X39.746 Y-39.265 F4800
G1 X40.054 Y-38.966 E182.1931 F900
G1 X42.138 Y-36.701 E182.3028
G1 X44.098 Y-34.322 E182.4128
G1 X45.922 Y-31.840 E182.5226
G1 X47.605 Y-29.265 E182.6322
G1 X49.145 Y-26.597 E182.7421
G1 X50.537 Y-23.847 E182.8519
G1 X51.772 Y-21.030 E182.9616
G1 X52.853 Y-18.143 E183.0715
G1 X53.772 Y-15.204 E183.1813
G1 X54.528 Y-12.220 E183.2910
G1 X55.118 Y-9.198 E183.4008
G1 X55.542 Y-6.146 E183.5107
G1 X55.796 Y-3.077 E183.6204
G1 X55.880 Y-0.001 E183.7301
G1 X55.796 Y3.077 E183.8399
G1 X55.541 Y6.148 E183.9498
G1 X55.118 Y9.197 E184.0595
G1 X54.528 Y12.219 E184.1693
G1 X53.772 Y15.204 E184.2790
G1 X52.852 Y18.145 E184.3889
G1 X51.773 Y21.029 E184.4987
G1 X50.536 Y23.848 E184.6084
G1 X49.146 Y26.596 E184.7182
G1 X47.606 Y29.263 E184.8280
G1 X45.921 Y31.841 E184.9378
G1 X44.097 Y34.323 E185.0476
G1 X42.139 Y36.700 E185.1574
G1 X40.054 Y38.965 E185.2672
G1 X39.703 Y39.307 E185.2847
G1 X35.168 Y34.772 E185.5133
G1 X36.069 Y33.871 E185.5588
G1 X38.125 Y31.539 E185.6696
G1 X40.030 Y29.083 E185.7804
G1 X41.777 Y26.513 E185.8912
G1 X43.359 Y23.836 E186.0021
G1 X44.770 Y21.067 E186.1129
G1 X46.005 Y18.215 E186.2237
G1 X47.057 Y15.291 E186.3344
G1 X47.925 Y12.305 E186.4453
G1 X48.603 Y9.271 E186.5561
G1 X49.089 Y6.203 E186.6669
G1 X49.382 Y3.105 E186.7778
G1 X49.480 Y0.001 E186.8886
G1 X49.382 Y-3.107 E186.9994
G1 X49.090 Y-6.200 E187.1102
G1 X48.603 Y-9.273 E187.2211
G1 X47.925 Y-12.305 E187.3318
G1 X47.058 Y-15.290 E187.4427
G1 X46.004 Y-18.216 E187.5535
G1 X44.770 Y-21.067 E187.6643
G1 X43.359 Y-23.836 E187.7751
G1 X41.775 Y-26.515 E187.8860
G1 X40.028 Y-29.086 E187.9968
G1 X38.125 Y-31.539 E188.1075
G1 X36.069 Y-33.871 E188.2184
G1 X35.168 Y-34.772 E188.2638
G1 X39.660 Y-39.265 E188.4903
G0 X39.802 Y-39.406 F4800
G0 X34.476 Y-34.872
G1 X34.335 Y-34.730 E188.4974 F900
G1 X29.857 Y-30.252 E188.7232
G1 X29.512 Y-30.610 E188.7409
G1 X27.198 Y-32.683 E188.8517
G1 X24.740 Y-34.581 E188.9624
G1 X22.150 Y-36.295 E189.0731
G1 X19.442 Y-37.815 E189.1838
G1 X16.629 Y-39.133 E189.2945
G1 X13.728 Y-40.242 E189.4053
G1 X10.754 Y-41.137 E189.5160
G1 X7.724 Y-41.812 E189.6267
G1 X4.649 Y-42.264 E189.7375
G1 X1.553 Y-42.491 E189.8482
G1 X-1.551 Y-42.491 E189.9588
G1 X-4.652 Y-42.264 E190.0697
G1 X-7.722 Y-41.812 E190.1803
G1 X-10.754 Y-41.137 E190.2911
G1 X-13.729 Y-40.242 E190.4018
G1 X-16.629 Y-39.133 E190.5125
G1 X-19.442 Y-37.814 E190.6233
G1 X-22.150 Y-36.294 E190.7340
G1 X-24.740 Y-34.580 E190.8447
G1 X-27.199 Y-32.682 E190.9554
G1 X-29.512 Y-30.610 E191.0661
G1 X-29.857 Y-30.252 E191.0839
G1 X-34.377 Y-34.773 E191.3118
G1 X-33.488 Y-35.662 E191.3566
G1 X-31.183 Y-37.694 E191.4661
G1 X-28.755 Y-39.578 E191.5757
G1 X-26.213 Y-41.305 E191.6852
G1 X-23.568 Y-42.869 E191.7948
G1 X-20.829 Y-44.265 E191.9044
G1 X-18.009 Y-45.485 E192.0140
G1 X-15.117 Y-46.526 E192.1236
G1 X-12.165 Y-47.384 E192.2331
G1 X-9.166 Y-48.054 E192.3427
G1 X-6.130 Y-48.535 E192.4523
G1 X-3.073 Y-48.824 E192.5618
G1 X0.000 Y-48.921 E192.6714
G1 X3.071 Y-48.824 E192.7809
G1 X6.132 Y-48.535 E192.8906
G1 X9.166 Y-48.054 E193.0001
G1 X12.165 Y-47.384 E193.1096
G1 X15.116 Y-46.527 E193.2192
G1 X18.008 Y-45.485 E193.3287
G1 X20.829 Y-44.265 E193.4383
G1 X23.567 Y-42.870 E193.5479
G1 X26.212 Y-41.305 E193.6574
G1 X28.755 Y-39.577 E193.7670
G1 X31.183 Y-37.694 E193.8766
G1 X33.232 Y-35.887 E193.9740
G1 X33.572 Y-35.578 E193.9903
G1 X34.335 Y-34.815 E194.0288
G0 X34.476 Y-34.674 F4800
G0 X34.674 Y-34.476
G1 X34.815 Y-34.335 E194.0359 F900
G1 X35.662 Y-33.488 E194.0786
G1 X37.693 Y-31.185 E194.1881
G1 X39.577 Y-28.755 E194.2977
G1 X41.305 Y-26.213 E194.4073
G1 X42.870 Y-23.567 E194.5169
G1 X44.265 Y-20.829 E194.6264
G1 X45.486 Y-18.007 E194.7360
G1 X46.527 Y-15.116 E194.8456
G1 X47.384 Y-12.165 E194.9551
G1 X48.054 Y-9.166 E195.0647
G1 X48.535 Y-6.132 E195.1742
G1 X48.824 Y-3.071 E195.2838
G1 X48.921 Y0.000 E195.3933
G1 X48.824 Y3.073 E195.5030
G1 X48.535 Y6.130 E195.6125
G1 X48.054 Y9.166 E195.7220
G1 X47.384 Y12.165 E195.8316
G1 X46.526 Y15.117 E195.9412
G1 X45.485 Y18.009 E196.0508
G1 X44.265 Y20.829 E196.1603
G1 X42.869 Y23.568 E196.2699
G1 X41.305 Y26.213 E196.3795
G1 X39.578 Y28.755 E196.4890
G1 X37.694 Y31.183 E196.5986
G1 X35.662 Y33.488 E196.7081
G1 X34.773 Y34.377 E196.7530
G1 X30.245 Y29.849 E196.9812
G1 X31.667 Y28.374 E197.0543
G1 X33.654 Y25.987 E197.1650
G1 X35.461 Y23.461 E197.2757
G1 X37.079 Y20.810 E197.3864
G1 X38.499 Y18.048 E197.4972
G1 X39.714 Y15.190 E197.6079
G1 X40.717 Y12.249 E197.7186
G1 X41.502 Y9.246 E197.8293
G1 X42.066 Y6.190 E197.9401
G1 X42.406 Y3.103 E198.0508
G1 X42.519 Y0.001 E198.1615
G1 X42.406 Y-3.105 E198.2723
G1 X42.066 Y-6.190 E198.3829
G1 X41.502 Y-9.244 E198.4937
G1 X40.716 Y-12.251 E198.6045
G1 X39.715 Y-15.188 E198.7151
G1 X38.499 Y-18.048 E198.8259
G1 X37.079 Y-20.810 E198.9366
G1 X35.461 Y-23.462 E199.0474
G1 X33.654 Y-25.986 E199.1580
G1 X31.668 Y-28.374 E199.2687
G1 X30.245 Y-29.849 E199.3418
G1 X34.730 Y-34.335 E199.5680
G0 X34.872 Y-34.476 F4800
G0 X29.892 Y-29.411
G1 X31.251 Y-28.001 E199.6378 F900
G1 X33.211 Y-25.646 E199.7470
G1 X34.994 Y-23.154 E199.8563
G1 X36.592 Y-20.536 E199.9656
G1 X37.993 Y-17.811 E200.0749
G1 X39.192 Y-14.989 E200.1842
G1 X40.181 Y-12.089 E200.2934
G1 X40.957 Y-9.123 E200.4027
G1 X41.513 Y-6.110 E200.5119
G1 X41.849 Y-3.064 E200.6212
G1 X41.961 Y0.001 E200.7305
G1 X41.849 Y3.063 E200.8398
G1 X41.514 Y6.109 E200.9490
G1 X40.957 Y9.123 E201.0583
G1 X40.182 Y12.088 E201.1675
G1 X39.192 Y14.989 E201.2768
G1 X37.993 Y17.811 E201.3861
G1 X36.592 Y20.536 E201.4953
G1 X34.995 Y23.152 E201.6046
G1 X33.212 Y25.645 E201.7139
G1 X31.251 Y28.001 E201.8232
G1 X29.850 Y29.455 E201.8951
G1 X25.333 Y24.938 E202.1229
G1 X27.240 Y22.857 E202.2235
G1 X29.129 Y20.396 E202.3341
G1 X30.795 Y17.780 E202.4447
G1 X32.228 Y15.028 E202.5553
G1 X33.415 Y12.162 E202.6659
G1 X34.348 Y9.205 E202.7764
G1 X35.019 Y6.175 E202.8870
G1 X35.424 Y3.099 E202.9977
G1 X35.559 Y0.000 E203.1082
G1 X35.424 Y-3.099 E203.2188
G1 X35.019 Y-6.174 E203.3294
G1 X34.348 Y-9.204 E203.4400
G1 X33.414 Y-12.163 E203.5506
G1 X32.228 Y-15.028 E203.6612
G1 X30.796 Y-17.779 E203.7718
G1 X29.128 Y-20.397 E203.8824
G1 X27.240 Y-22.857 E203.9930
G1 X25.333 Y-24.938 E204.0936
G1 X29.807 Y-29.412 E204.3192
G0 X29.949 Y-29.553 F4800
G0 X24.979 Y-24.499
G1 X26.812 Y-22.498 E204.4159 F900
G1 X28.671 Y-20.075 E204.5248
G1 X30.311 Y-17.501 E204.6336
G1 X31.721 Y-14.792 E204.7425
G1 X32.890 Y-11.971 E204.8513
G1 X33.808 Y-9.059 E204.9602
G1 X34.469 Y-6.079 E205.0690
G1 X34.867 Y-3.050 E205.1779
G1 X35.001 Y0.000 E205.2867
G1 X34.867 Y3.051 E205.3956
G1 X34.469 Y6.078 E205.5045
G1 X33.808 Y9.058 E205.6133
G1 X32.890 Y11.971 E205.7222
G1 X31.721 Y14.792 E205.8310
G1 X30.311 Y17.500 E205.9399
G1 X28.671 Y20.076 E206.0488
G1 X26.812 Y22.498 E206.1576
G1 X24.938 Y24.543 E206.2565
G1 X20.404 Y20.008 E206.4851
G1 X20.763 Y19.668 E206.5027
G1 X22.768 Y17.307 E206.6131
G1 X24.506 Y14.744 E206.7235
G1 X25.956 Y12.009 E206.8339
G1 X27.102 Y9.132 E206.9443
G1 X27.931 Y6.147 E207.0548
G1 X28.432 Y3.092 E207.1651
G1 X28.599 Y0.001 E207.2755
G1 X28.432 Y-3.093 E207.3859
G1 X27.931 Y-6.148 E207.4963
G1 X27.103 Y-9.131 E207.6067
G1 X25.956 Y-12.009 E207.7171
G1 X24.505 Y-14.745 E207.8276
G1 X22.768 Y-17.307 E207.9379
G1 X20.763 Y-19.668 E208.0483
G1 X20.404 Y-20.008 E208.0660
G1 X24.896 Y-24.500 E208.2925
G0 X25.037 Y-24.642 F4800
G0 X19.907 Y-19.710
G1 X20.053 Y-19.572 E208.2996 F900
G1 X20.358 Y-19.283 E208.3146
G1 X22.323 Y-16.970 E208.4228
G1 X24.026 Y-14.457 E208.5310
G1 X25.449 Y-11.774 E208.6393
G1 X26.573 Y-8.954 E208.7475
G1 X27.385 Y-6.028 E208.8557
G1 X27.877 Y-3.031 E208.9640
G1 X28.041 Y-0.001 E209.0722
G1 X27.876 Y3.032 E209.1805
G1 X27.385 Y6.028 E209.2887
G1 X26.573 Y8.954 E209.3970
G1 X25.449 Y11.774 E209.5052
G1 X24.027 Y14.457 E209.6135
G1 X22.323 Y16.969 E209.7217
G1 X20.358 Y19.283 E209.8299
G1 X20.009 Y19.614 E209.8471
G1 X15.460 Y15.065 E210.0764
G1 X16.354 Y14.171 E210.1215
G1 X18.204 Y11.699 E210.2316
G1 X19.683 Y8.989 E210.3416
G1 X20.763 Y6.096 E210.4517
G1 X21.419 Y3.080 E210.5617
G1 X21.639 Y0.000 E210.6718
G1 X21.419 Y-3.080 E210.7819
G1 X20.762 Y-6.097 E210.8920
G1 X19.684 Y-8.989 E211.0020
G1 X18.204 Y-11.699 E211.1121
G1 X16.354 Y-14.171 E211.2221
G1 X15.460 Y-15.065 E211.2672
G1 X19.967 Y-19.571 E211.4944
G0 X20.108 Y-19.712 F4800
G0 X15.109 Y-14.629
G1 X15.932 Y-13.805 E211.5360 F900
G1 X17.734 Y-11.397 E211.6432
G1 X19.176 Y-8.757 E211.7504
G1 X20.227 Y-5.939 E211.8577
G1 X20.866 Y-3.000 E211.9649
G1 X21.081 Y0.000 E212.0721
G1 X20.866 Y3.000 E212.1793
G1 X20.227 Y5.939 E212.2866
G1 X19.176 Y8.758 E212.3938
G1 X17.734 Y11.397 E212.5010
G1 X15.932 Y13.805 E212.6083
G1 X15.066 Y14.671 E212.6519
G1 X10.524 Y10.129 E212.8809
G1 X11.875 Y8.628 E212.9529
G1 X13.409 Y5.970 E213.0623
G1 X14.358 Y3.052 E213.1717
G1 X14.679 Y0.000 E213.2811
G1 X14.358 Y-3.052 E213.3905
G1 X13.410 Y-5.970 E213.4999
G1 X11.875 Y-8.628 E213.6093
G1 X10.524 Y-10.129 E213.6813
G1 X15.024 Y-14.629 E213.9082
G0 X14.629 Y-15.024 F4800
G1 X10.149 Y-10.545 E214.1340 F900
G1 X9.822 Y-10.908 E214.1514
G1 X7.339 Y-12.712 E214.2609
G1 X4.536 Y-13.960 E214.3703
G1 X1.534 Y-14.598 E214.4797
G1 X-1.534 Y-14.598 E214.5890
G1 X-4.536 Y-13.960 E214.6985
G1 X-7.339 Y-12.712 E214.8079
G1 X-9.822 Y-10.908 E214.9173
G1 X-10.149 Y-10.544 E214.9347
G1 X-14.671 Y-15.066 E215.1627
G1 X-13.805 Y-15.932 E215.2064
G1 X-11.397 Y-17.734 E215.3136
G1 X-8.758 Y-19.176 E215.4208
G1 X-5.939 Y-20.227 E215.5281
G1 X-3.000 Y-20.866 E215.6353
G1 X0.000 Y-21.081 E215.7425
G1 X3.000 Y-20.866 E215.8497
G1 X5.939 Y-20.227 E215.9570
G1 X8.757 Y-19.176 E216.0642
G1 X11.398 Y-17.734 E216.1714
G1 X13.805 Y-15.932 E216.2786
G1 X14.629 Y-15.109 E216.3202
G0 X10.172 Y-9.692 F4800
G1 X11.425 Y-8.300 E216.3869 F900
G1 X12.901 Y-5.743 E216.4922
G1 X13.813 Y-2.936 E216.5974
G1 X14.121 Y0.000 E216.7026
G1 X13.813 Y2.936 E216.8079
G1 X12.901 Y5.744 E216.9131
G1 X11.425 Y8.300 E217.0184
G1 X10.132 Y9.736 E217.0873
G1 X5.614 Y5.219 E217.3150
G1 X7.128 Y2.953 E217.4122
G1 X7.716 Y0.000 E217.5195
G1 X7.128 Y-2.952 E217.6268
G1 X5.614 Y-5.219 E217.7240
G1 X10.089 Y-9.694 E217.9496
G0 X10.231 Y-9.835 F4800
G0 X-15.164 Y15.361
G1 X-15.022 Y15.502 E217.9567 F900
G1 X-14.171 Y16.354 E217.9997
G1 X-11.699 Y18.204 E218.1097
G1 X-8.989 Y19.683 E218.2198
G1 X-6.096 Y20.763 E218.3299
G1 X-3.079 Y21.419 E218.4400
G1 X0.000 Y21.639 E218.5500
G1 X3.080 Y21.419 E218.6601
G1 X6.096 Y20.763 E218.7701
G1 X8.989 Y19.683 E218.8802
G1 X11.699 Y18.204 E218.9903
G1 X14.171 Y16.354 E219.1004
G1 X15.065 Y15.460 E219.1454
G1 X19.603 Y19.998 E219.3742
G1 X18.153 Y21.372 E219.4454
G1 X15.736 Y23.209 E219.5537
G1 X13.135 Y24.774 E219.6619
G1 X10.379 Y26.049 E219.7702
G1 X7.502 Y27.018 E219.8784
G1 X4.536 Y27.671 E219.9867
G1 X1.518 Y28.000 E220.0949
G1 X-1.518 Y28.000 E220.2031
G1 X-4.537 Y27.671 E220.3114
G1 X-7.502 Y27.018 E220.4196
G1 X-10.379 Y26.049 E220.5279
G1 X-13.134 Y24.774 E220.6361
G1 X-15.736 Y23.209 E220.7444
G1 X-18.153 Y21.372 E220.8526
G1 X-19.603 Y19.998 E220.9238
G1 X-15.107 Y15.502 E221.1504
G0 X-14.966 Y15.361 F4800
G0 X-20.099 Y20.297
G1 X-19.954 Y20.434 E221.1576 F900
G1 X-18.515 Y21.797 E221.2282
G1 X-16.050 Y23.671 E221.3386
G1 X-13.396 Y25.268 E221.4490
G1 X-10.585 Y26.568 E221.5594
G1 X-7.651 Y27.557 E221.6698
G1 X-4.627 Y28.223 E221.7802
G1 X-1.548 Y28.557 E221.8906
G1 X1.548 Y28.557 E222.0010
G1 X4.627 Y28.223 E222.1114
G1 X7.651 Y27.557 E222.2218
G1 X10.585 Y26.568 E222.3322
G1 X13.396 Y25.268 E222.4426
G1 X16.050 Y23.671 E222.5530
G1 X18.515 Y21.797 E222.6634
G1 X19.998 Y20.393 E222.7362
G1 X24.543 Y24.938 E222.9654
G1 X22.498 Y26.812 E223.0643
G1 X20.075 Y28.671 E223.1731
G1 X17.500 Y30.311 E223.2820
G1 X14.792 Y31.721 E223.3909
G1 X11.971 Y32.890 E223.4997
G1 X9.059 Y33.808 E223.6086
G1 X6.078 Y34.469 E223.7174
G1 X3.051 Y34.867 E223.8263
G1 X0.000 Y35.001 E223.9351
G1 X-3.051 Y34.867 E224.0440
G1 X-6.078 Y34.469 E224.1528
G1 X-9.059 Y33.808 E224.2617
G1 X-11.971 Y32.890 E224.3706
G1 X-14.792 Y31.721 E224.4794
G1 X-17.500 Y30.311 E224.5883
G1 X-20.076 Y28.671 E224.6971
G1 X-22.498 Y26.812 E224.8060
G1 X-24.543 Y24.938 E224.9049
G1 X-20.040 Y20.435 E225.1319
G0 X-19.899 Y20.294 F4800
G0 X-24.894 Y25.374
G1 X-22.857 Y27.240 E225.2304 F900
G1 X-20.396 Y29.129 E225.3410
G1 X-17.780 Y30.795 E225.4516
G1 X-15.028 Y32.228 E225.5622
G1 X-12.162 Y33.415 E225.6727
G1 X-9.203 Y34.348 E225.7834
G1 X-6.175 Y35.019 E225.8939
G1 X-3.099 Y35.424 E226.0045
G1 X0.000 Y35.559 E226.1151
G1 X3.099 Y35.424 E226.2257
G1 X6.175 Y35.019 E226.3363
G1 X9.204 Y34.348 E226.4469
G1 X12.162 Y33.415 E226.5575
G1 X15.028 Y32.228 E226.6681
G1 X17.780 Y30.795 E226.7787
G1 X20.396 Y29.128 E226.8893
G1 X22.857 Y27.240 E226.9999
G1 X24.938 Y25.333 E227.1005
G1 X29.462 Y29.857 E227.3285
G1 X29.124 Y30.208 E227.3459
G1 X26.841 Y32.253 E227.4552
G1 X24.415 Y34.126 E227.5645
G1 X21.859 Y35.817 E227.6737
G1 X19.186 Y37.317 E227.7830
G1 X16.411 Y38.618 E227.8923
G1 X13.548 Y39.713 E228.0015
G1 X10.613 Y40.596 E228.1108
G1 X7.622 Y41.262 E228.2201
G1 X4.589 Y41.709 E228.3293
G1 X1.533 Y41.932 E228.4386
G1 X-1.533 Y41.932 E228.5479
G1 X-4.589 Y41.709 E228.6571
G1 X-7.622 Y41.262 E228.7664
G1 X-10.613 Y40.596 E228.8757
G1 X-13.548 Y39.713 E228.9850
G1 X-16.411 Y38.618 E229.0942
G1 X-19.186 Y37.317 E229.2035
G1 X-21.859 Y35.817 E229.3127
G1 X-24.415 Y34.126 E229.4220
G1 X-26.841 Y32.253 E229.5313
G1 X-29.124 Y30.208 E229.6405
G1 X-29.462 Y29.857 E229.6579
G1 X-24.980 Y25.376 E229.8838
G0 X-24.839 Y25.234 F4800
G0 X-29.815 Y30.295
G1 X-29.512 Y30.610 E229.8994 F900
G1 X-27.199 Y32.682 E230.0101
G1 X-24.740 Y34.580 E230.1208
G1 X-22.150 Y36.294 E230.2316
G1 X-19.441 Y37.815 E230.3423
G1 X-16.629 Y39.133 E230.4530
G1 X-13.729 Y40.242 E230.5638
G1 X-10.755 Y41.137 E230.6745
G1 X-7.723 Y41.812 E230.7852
G1 X-4.651 Y42.264 E230.8959
G1 X-1.553 Y42.491 E231.0067
G1 X1.553 Y42.491 E231.1174
G1 X4.650 Y42.264 E231.2281
G1 X7.723 Y41.812 E231.3388
G1 X10.754 Y41.137 E231.4496
G1 X13.729 Y40.242 E231.5603
G1 X16.630 Y39.133 E231.6710
G1 X19.441 Y37.815 E231.7817
G1 X22.150 Y36.295 E231.8924
G1 X24.740 Y34.581 E232.0032
G1 X27.199 Y32.682 E232.1139
G1 X29.512 Y30.610 E232.2246
G1 X29.857 Y30.252 E232.2424
G1 X34.377 Y34.772 E232.4703
G1 X33.488 Y35.662 E232.5151
G1 X31.183 Y37.694 E232.6246
G1 X28.755 Y39.577 E232.7342
G1 X26.213 Y41.305 E232.8437
G1 X23.567 Y42.870 E232.9534
G1 X20.830 Y44.265 E233.0629
G1 X18.009 Y45.485 E233.1725
G1 X15.117 Y46.526 E233.2820
G1 X12.166 Y47.384 E233.3916
G1 X9.167 Y48.054 E233.5011
G1 X6.131 Y48.535 E233.6107
G1 X3.072 Y48.824 E233.7203
G1 X0.000 Y48.921 E233.8298
G1 X-3.072 Y48.824 E233.9394
G1 X-6.131 Y48.535 E234.0489
G1 X-9.167 Y48.054 E234.1585
G1 X-12.166 Y47.384 E234.2681
G1 X-15.117 Y46.526 E234.3777
G1 X-18.009 Y45.485 E234.4872
G1 X-20.829 Y44.265 E234.5968
G1 X-23.568 Y42.869 E234.7064
G1 X-26.213 Y41.305 E234.8159
G1 X-28.755 Y39.578 E234.9255
G1 X-31.183 Y37.694 E235.0350
G1 X-33.488 Y35.662 E235.1446
G1 X-34.377 Y34.773 E235.1894
G1 X-29.899 Y30.294 E235.4152
G0 X-44.584 Y45.065 F4800
G1 X-42.576 Y46.976 E235.5140 F900
G1 X-40.220 Y49.009 E235.6249
G1 X-37.767 Y50.923 E235.7359
G1 X-35.223 Y52.715 E235.8468
G1 X-32.594 Y54.380 E235.9577
G1 X-29.886 Y55.913 E236.0687
G1 X-27.107 Y57.313 E236.1796
G1 X-25.336 Y58.098 E236.2487
G1 X-25.375 Y58.280 E236.2553
G1 X-38.385 Y58.280 E236.7192
G1 X-39.259 Y57.713 E236.7563
G1 X-41.774 Y55.920 E236.8664
G1 X-44.206 Y54.018 E236.9765
G1 X-45.234 Y53.138 E237.0248
G1 X-45.201 Y52.500 E237.0475
G1 X-45.241 Y51.737 E237.0748
G1 X-45.360 Y50.982 E237.1020
G1 X-45.558 Y50.244 E237.1292
G1 X-45.832 Y49.531 E237.1565
G1 X-46.179 Y48.850 E237.1837
G1 X-46.595 Y48.209 E237.2110
G1 X-47.140 Y47.536 E237.2419
G1 X-44.670 Y45.066 E237.3664
G0 X-58.194 Y39.516 F4800
G1 X-58.082 Y39.681 E237.3735 F900
G1 X-57.286 Y40.851 E237.4240
G1 X-55.423 Y43.345 E237.5350
G1 X-53.875 Y45.237 E237.6221
G1 X-53.905 Y45.330 E237.6256
G1 X-54.756 Y45.558 E237.6570
G1 X-55.469 Y45.832 E237.6842
G1 X-56.150 Y46.178 E237.7115
G1 X-56.790 Y46.595 E237.7387
G1 X-57.384 Y47.076 E237.7659
G1 X-58.132 Y47.824 E237.8037
G1 X-58.274 Y47.765 E237.8091
G1 X-58.281 Y39.683 E238.0973
G1 X-58.173 Y39.649 E238.1013
G0 X-58.073 Y25.391 F4800
G1 X-57.313 Y27.107 E238.1682 F900
G1 X-55.913 Y29.886 E238.2791
G1 X-54.380 Y32.594 E238.3901
G1 X-52.715 Y35.223 E238.5010
G1 X-50.923 Y37.767 E238.6119
G1 X-49.009 Y40.220 E238.7229
G1 X-46.976 Y42.577 E238.8338
G1 X-45.023 Y44.628 E238.9348
G1 X-47.536 Y47.140 E239.0615
G1 X-48.209 Y46.595 E239.0924
G1 X-48.850 Y46.179 E239.1196
G1 X-49.531 Y45.832 E239.1468
G1 X-50.244 Y45.558 E239.1741
G1 X-50.982 Y45.360 E239.2013
G1 X-51.737 Y45.241 E239.2286
G1 X-52.500 Y45.201 E239.2558
G1 X-53.154 Y45.235 E239.2791
G1 X-54.982 Y43.001 E239.3820
G1 X-56.831 Y40.526 E239.4922
G1 X-58.280 Y38.395 E239.5840
G1 X-58.280 Y25.374 E240.0482
G1 X-58.156 Y25.348 E240.0528
G0 X58.009 Y-47.886 F4800
G1 X58.194 Y-47.809 E240.0599 F900
G1 X58.280 Y-47.773 E240.0632
G1 X58.280 Y-39.683 E240.3517
G1 X58.115 Y-39.632 E240.3578
G1 X57.288 Y-40.848 E240.4102
G1 X55.423 Y-43.344 E240.5213
G1 X53.875 Y-45.237 E240.6085
G1 X53.905 Y-45.330 E240.6120
G1 X54.756 Y-45.558 E240.6434
G1 X55.469 Y-45.832 E240.6706
G1 X56.150 Y-46.178 E240.6979
G1 X56.790 Y-46.595 E240.7251
G1 X57.384 Y-47.076 E240.7524
G1 X58.096 Y-47.790 E240.7883
G0 X58.238 Y-47.931 F4800
;segType:InnerHair
G0 X59.040 Y-48.143
G1 X59.040 Y-39.229 E240.9398 F1350
G0 X59.040 Y-38.543 F4800
G1 X59.040 Y-25.629 E241.1593 F1350
;segType:HShell
G0 X59.063 Y-24.846 F4800
G1 X58.603 Y-25.306 E241.1846 F1350
G0 X58.517 Y-24.827 F4800
G1 X59.063 Y-24.280 E241.2146 F1350
G0 X59.063 Y-23.715 F4800
G1 X58.919 Y-23.859 E241.2225 F1350
;segType:InnerHair
G0 X59.040 Y-23.571 F4800
G1 X59.040 Y23.514 E242.0228 F1350
G1 X59.037 Y23.629 E242.0249
;segType:HShell
G0 X59.028 Y24.050 F4800
G1 X58.765 Y24.636 E242.0415 F1350
;segType:InnerHair
G0 X59.040 Y24.886 F4800
G1 X59.040 Y38.600 E242.2746 F1350
G1 X59.065 Y39.171 E242.2816
G1 X59.040 Y39.286 E242.2835
G1 X59.040 Y48.200 E242.4350
;segType:HShell
G0 X58.747 Y48.377 F4800
G1 X59.063 Y48.693 E242.4524 F1350
G0 X59.063 Y49.259 F4800
G1 X58.347 Y48.542 E242.4917 F1350
G0 X59.048 Y39.061 F4800
G1 X58.852 Y38.865 E242.5025 F1350
G0 X56.741 Y47.502 F4800
G1 X59.063 Y49.824 E242.6300 F1350
G0 X59.063 Y50.390 F4800
G1 X55.188 Y46.515 E242.8429 F1350
G0 X54.308 Y46.200 F4800
G1 X59.063 Y50.956 E243.1040 F1350
G0 X59.063 Y51.521 F4800
G1 X53.548 Y46.006 E243.4069 F1350
G0 X52.937 Y45.961 F4800
G1 X59.063 Y52.087 E243.7434 F1350
G0 X59.055 Y52.644 F4800
G1 X52.356 Y45.945 E244.1113 F1350
G0 X51.818 Y45.974 F4800
G1 X59.026 Y53.181 E244.5071 F1350
G0 X58.949 Y53.670 F4800
G1 X51.330 Y46.050 E244.9256 F1350
G0 X50.867 Y46.153 F4800
G1 X58.847 Y54.133 E245.3638 F1350
G0 X58.723 Y54.575 F4800
G1 X55.306 Y51.158 E245.5515 F1350
G0 X55.549 Y51.967 F4800
G1 X58.566 Y54.984 E245.7172 F1350
G0 X58.390 Y55.374 F4800
G1 X55.632 Y52.615 E245.8687 F1350
G0 X55.538 Y53.087 F4800
G1 X58.199 Y55.749 E246.0149 F1350
G0 X57.980 Y56.094 F4800
G1 X55.444 Y53.559 E246.1541 F1350
G0 X55.259 Y53.940 F4800
G1 X57.750 Y56.430 E246.2909 F1350
G0 X57.497 Y56.743 F4800
G1 X55.033 Y54.279 E246.4262 F1350
G0 X54.806 Y54.618 F4800
G1 X57.228 Y57.040 E246.5592 F1350
G0 X56.945 Y57.323 F4800
G1 X54.505 Y54.882 E246.6932 F1350
G0 X54.165 Y55.109 F4800
G1 X56.638 Y57.581 E246.8290 F1350
G0 X56.322 Y57.831 F4800
G1 X53.826 Y55.335 E246.9661 F1350
G0 X53.401 Y55.476 F4800
G1 X55.979 Y58.054 E247.1077 F1350
G0 X55.623 Y58.263 F4800
G1 X52.929 Y55.569 E247.2557 F1350
G0 X52.436 Y55.642 F4800
G1 X55.248 Y58.454 E247.4101 F1350
G0 X54.847 Y58.619 F4800
G1 X51.730 Y55.502 E247.5813 F1350
G0 X50.644 Y54.981 F4800
G1 X54.430 Y58.767 E247.7892 F1350
G0 X53.984 Y58.887 F4800
G1 X46.113 Y51.016 E248.2215 F1350
G0 X46.024 Y51.493 F4800
G1 X53.507 Y58.975 E248.6324 F1350
G0 X53.001 Y59.036 F4800
G1 X45.964 Y51.999 E249.0188 F1350
G0 X45.940 Y52.540 F4800
G1 X52.463 Y59.063 E249.3771 F1350
G0 X51.897 Y59.063 F4800
G1 X45.971 Y53.137 E249.7026 F1350
G0 X46.062 Y53.794 F4800
G1 X51.332 Y59.063 E249.9920 F1350
G0 X50.766 Y59.063 F4800
G1 X46.289 Y54.586 E250.2379 F1350
G0 X46.718 Y55.581 F4800
G1 X50.200 Y59.063 E250.4291 F1350
G0 X49.635 Y59.063 F4800
G1 X48.652 Y58.081 E250.4831 F1350
G0 X48.487 Y58.481 F4800
G1 X49.069 Y59.063 E250.5151 F1350
G0 X48.503 Y59.063 F4800
G1 X48.321 Y58.881 E250.5251 F1350
G0 X50.425 Y46.277 F4800
G1 X53.842 Y49.695 E250.7128 F1350
G0 X53.044 Y49.462 F4800
G1 X50.016 Y46.434 E250.8790 F1350
G0 X49.626 Y46.610 F4800
G1 X52.383 Y49.366 E251.0304 F1350
G0 X51.919 Y49.468 F4800
G1 X49.251 Y46.800 E251.1769 F1350
G0 X48.906 Y47.020 F4800
G1 X51.454 Y49.569 E251.3169 F1350
G0 X51.060 Y49.741 F4800
G1 X48.570 Y47.250 E251.4537 F1350
G0 X48.257 Y47.503 F4800
G1 X50.721 Y49.967 E251.5890 F1350
G0 X50.382 Y50.194 F4800
G1 X47.945 Y47.757 E251.7229 F1350
G0 X47.672 Y48.049 F4800
G1 X50.118 Y50.496 E251.8572 F1350
G0 X49.891 Y50.835 F4800
G1 X47.419 Y48.362 E251.9930 F1350
G0 X47.169 Y48.678 F4800
G1 X49.665 Y51.174 E252.1301 F1350
G0 X49.524 Y51.599 F4800
G1 X46.946 Y49.021 E252.2717 F1350
G0 X46.736 Y49.377 F4800
G1 X49.430 Y52.071 E252.4196 F1350
G0 X49.358 Y52.564 F4800
G1 X46.546 Y49.752 E252.5741 F1350
G0 X46.381 Y50.153 F4800
G1 X49.498 Y53.270 E252.7453 F1350
G0 X50.019 Y54.357 F4800
G1 X46.233 Y50.570 E252.9532 F1350
;segType:InnerHair
G0 X48.143 Y59.040 F4800
G1 X48.029 Y59.040 E252.9552 F1350
G1 X47.914 Y59.040 E252.9571
G1 X47.800 Y59.040 E252.9591
G1 X47.686 Y59.040 E252.9610
G1 X47.571 Y59.040 E252.9629
G1 X47.457 Y59.040 E252.9649
G1 X47.343 Y59.040 E252.9668
G1 X47.229 Y59.040 E252.9688
G1 X47.114 Y59.040 E252.9707
G1 X47.000 Y59.040 E252.9726
G1 X46.886 Y59.040 E252.9746
G1 X46.771 Y59.040 E252.9765
G1 X46.657 Y59.040 E252.9785
G1 X46.543 Y59.040 E252.9804
G1 X46.429 Y59.040 E252.9823
G1 X46.314 Y59.040 E252.9843
G1 X46.200 Y59.040 E252.9862
G1 X46.086 Y59.040 E252.9881
G1 X45.971 Y59.040 E252.9901
G1 X45.857 Y59.040 E252.9920
G1 X45.743 Y59.040 E252.9940
G1 X45.629 Y59.040 E252.9959
G1 X45.514 Y59.040 E252.9978
G1 X45.400 Y59.040 E252.9998
G1 X45.286 Y59.040 E253.0017
G1 X45.171 Y59.040 E253.0036
G1 X45.057 Y59.040 E253.0056
G1 X44.943 Y59.040 E253.0075
G1 X44.829 Y59.040 E253.0095
G1 X44.714 Y59.040 E253.0114
G1 X44.600 Y59.040 E253.0133
G1 X44.486 Y59.040 E253.0153
G1 X44.371 Y59.040 E253.0172
G1 X44.257 Y59.040 E253.0191
G1 X44.143 Y59.040 E253.0211
G1 X44.029 Y59.040 E253.0230
G1 X43.914 Y59.040 E253.0250
G1 X43.800 Y59.040 E253.0269
G1 X43.686 Y59.040 E253.0288
G1 X43.571 Y59.040 E253.0308
G1 X43.457 Y59.040 E253.0327
G1 X43.343 Y59.040 E253.0346
G1 X43.229 Y59.040 E253.0366
G1 X43.114 Y59.040 E253.0385
G1 X43.000 Y59.040 E253.0405
G1 X42.886 Y59.040 E253.0424
G1 X42.771 Y59.040 E253.0443
G1 X42.657 Y59.040 E253.0463
G1 X42.543 Y59.040 E253.0482
G1 X42.429 Y59.040 E253.0502
G1 X42.314 Y59.040 E253.0521
G1 X42.200 Y59.040 E253.0540
G1 X42.086 Y59.040 E253.0560
G1 X41.971 Y59.040 E253.0579
G1 X41.857 Y59.040 E253.0598
G1 X41.743 Y59.040 E253.0618
G1 X41.629 Y59.040 E253.0637
G1 X41.514 Y59.040 E253.0657
G1 X41.400 Y59.040 E253.0676
G1 X41.286 Y59.040 E253.0695
G1 X41.171 Y59.040 E253.0715
G1 X41.057 Y59.040 E253.0734
G1 X40.943 Y59.040 E253.0753
G1 X40.829 Y59.040 E253.0773
G1 X40.714 Y59.040 E253.0792
G1 X40.600 Y59.040 E253.0812
G1 X40.486 Y59.040 E253.0831
G1 X40.371 Y59.040 E253.0850
G1 X40.257 Y59.040 E253.0870
G1 X40.143 Y59.040 E253.0889
G1 X40.029 Y59.040 E253.0908
G1 X39.914 Y59.040 E253.0928
G1 X39.800 Y59.040 E253.0947
G1 X39.686 Y59.040 E253.0967
G1 X39.571 Y59.040 E253.0986
G1 X39.457 Y59.040 E253.1005
G1 X39.343 Y59.040 E253.1025
G1 X39.229 Y59.040 E253.1044
G0 X38.543 Y59.040 F4800
G1 X25.629 Y59.040 E253.3239 F1350
;segType:HShell
G0 X25.310 Y59.063 F4800
G1 X24.783 Y58.536 E253.3528 F1350
G0 X24.391 Y58.710 F4800
G1 X24.745 Y59.063 E253.3723 F1350
G0 X24.179 Y59.063 F4800
G1 X23.986 Y58.870 E253.3829 F1350
;segType:InnerHair
G0 X23.571 Y59.040 F4800
G1 X-23.514 Y59.040 E254.1831 F1350
G1 X-23.629 Y59.037 E254.1851
;segType:HShell
G0 X-23.754 Y58.931 F4800
G1 X-24.601 Y58.932 E254.2071 F1350
;segType:InnerHair
G0 X-24.886 Y59.040 F4800
G1 X-38.486 Y59.040 E254.4382 F1350
G1 X-38.600 Y59.043 E254.4401
G0 X-39.286 Y59.040 F4800
G1 X-48.200 Y59.040 E254.5916 F1350
;segType:HShell
G0 X-49.055 Y46.923 F4800
G1 X-46.923 Y49.055 E254.7087 F1350
G0 X-46.376 Y50.169 F4800
G1 X-50.169 Y46.376 E254.9170 F1350
G0 X-50.990 Y46.120 F4800
G1 X-46.120 Y50.990 E255.1844 F1350
G0 X-45.995 Y51.681 F4800
G1 X-51.681 Y45.995 E255.4967 F1350
G0 X-52.293 Y45.949 F4800
G1 X-45.949 Y52.293 E255.8451 F1350
G0 X-45.956 Y52.851 F4800
G1 X-52.851 Y45.956 E256.2237 F1350
G0 X-53.382 Y45.990 F4800
G1 X-45.984 Y53.388 E256.6300 F1350
G0 X-46.080 Y53.859 F4800
G1 X-53.859 Y46.080 E257.0572 F1350
G0 X-54.305 Y46.199 F4800
G1 X-46.199 Y54.305 E257.5024 F1350
G0 X-46.337 Y54.732 F4800
G1 X-49.538 Y51.532 E257.6781 F1350
G0 X-49.397 Y52.238 F4800
G1 X-46.494 Y55.141 E257.8375 F1350
G0 X-46.683 Y55.518 F4800
G1 X-49.404 Y52.797 E257.9870 F1350
G0 X-49.498 Y53.269 F4800
G1 X-46.883 Y55.883 E258.1306 F1350
G0 X-47.106 Y56.226 F4800
G1 X-49.601 Y53.731 E258.2676 F1350
G0 X-49.828 Y54.070 F4800
G1 X-47.348 Y56.550 E258.4038 F1350
G0 X-47.601 Y56.863 F4800
G1 X-50.054 Y54.409 E258.5386 F1350
G0 X-50.287 Y54.743 F4800
G1 X-47.881 Y57.148 E258.6707 F1350
G0 X-48.164 Y57.431 F4800
G1 X-50.626 Y54.969 E258.8059 F1350
G0 X-50.965 Y55.196 F4800
G1 X-48.448 Y57.713 E258.9441 F1350
G0 X-48.658 Y58.069 F4800
G1 X-51.309 Y55.418 E259.0897 F1350
G0 X-51.780 Y55.512 F4800
G1 X-48.303 Y58.989 E259.2807 F1350
G0 X-48.795 Y59.063 F4800
G1 X-52.252 Y55.606 E259.4706 F1350
G0 X-52.835 Y55.588 F4800
G1 X-49.360 Y59.063 E259.6615 F1350
G0 X-49.926 Y59.063 F4800
G1 X-53.542 Y55.448 E259.8601 F1350
G0 X-56.113 Y57.968 F4800
G1 X-57.968 Y56.113 E259.9619 F1350
G0 X-58.588 Y54.927 F4800
G1 X-54.927 Y58.588 E260.1630 F1350
G0 X-54.091 Y58.858 F4800
G1 X-58.858 Y54.091 E260.4248 F1350
G0 X-58.994 Y53.389 F4800
G1 X-53.389 Y58.994 E260.7326 F1350
G0 X-52.770 Y59.048 F4800
G1 X-59.048 Y52.770 E261.0774 F1350
G0 X-59.063 Y52.189 F4800
G1 X-52.189 Y59.063 E261.4549 F1350
G0 X-51.623 Y59.063 F4800
G1 X-59.063 Y51.623 E261.8636 F1350
G0 X-59.063 Y51.057 F4800
G1 X-51.057 Y59.063 E262.3033 F1350
G0 X-50.492 Y59.063 F4800
G1 X-59.063 Y50.492 E262.7740 F1350
G0 X-59.063 Y49.926 F4800
G1 X-55.448 Y53.542 E262.9726 F1350
G0 X-55.588 Y52.835 F4800
G1 X-59.063 Y49.360 E263.1635 F1350
G0 X-59.063 Y48.795 F4800
G1 X-55.606 Y52.252 E263.3534 F1350
G0 X-55.512 Y51.780 F4800
G1 X-58.995 Y48.298 E263.5447 F1350
G0 X-58.088 Y48.639 F4800
G1 X-55.418 Y51.309 E263.6913 F1350
G0 X-55.196 Y50.965 F4800
G1 X-57.714 Y48.446 E263.8296 F1350
G0 X-57.431 Y48.164 F4800
G1 X-54.969 Y50.626 E263.9648 F1350
G0 X-54.743 Y50.287 F4800
G1 X-57.149 Y47.881 E264.0970 F1350
G0 X-56.863 Y47.601 F4800
G1 X-54.409 Y50.054 E264.2317 F1350
G0 X-54.070 Y49.828 F4800
G1 X-56.550 Y47.348 E264.3679 F1350
G0 X-56.226 Y47.106 F4800
G1 X-53.724 Y49.608 E264.5053 F1350
G0 X-53.260 Y49.507 F4800
G1 X-55.883 Y46.883 E264.6494 F1350
G0 X-55.518 Y46.683 F4800
G1 X-52.796 Y49.405 E264.7989 F1350
G0 X-52.221 Y49.414 F4800
G1 X-55.141 Y46.494 E264.9593 F1350
G0 X-54.732 Y46.337 F4800
G1 X-51.532 Y49.538 E265.1350 F1350
;segType:InnerHair
G0 X-59.036 Y48.200 F4800
G1 X-59.036 Y48.086 E265.1370 F1350
G1 X-59.037 Y47.971 E265.1391
G1 X-59.037 Y47.857 E265.1411
G1 X-59.037 Y47.743 E265.1431
G1 X-59.037 Y47.629 E265.1451
G1 X-59.037 Y47.514 E265.1471
G1 X-59.037 Y47.400 E265.1491
G1 X-59.037 Y47.286 E265.1511
G1 X-59.037 Y47.171 E265.1531
G1 X-59.037 Y47.057 E265.1552
G1 X-59.037 Y46.943 E265.1572
G1 X-59.037 Y46.829 E265.1592
G1 X-59.037 Y46.714 E265.1612
G1 X-59.037 Y46.600 E265.1632
G1 X-59.037 Y46.486 E265.1652
G1 X-59.037 Y46.371 E265.1672
G1 X-59.037 Y46.257 E265.1693
G1 X-59.037 Y46.143 E265.1713
G1 X-59.037 Y46.029 E265.1733
G1 X-59.037 Y45.914 E265.1753
G1 X-59.037 Y45.800 E265.1773
G1 X-59.038 Y45.686 E265.1792
G1 X-59.038 Y45.571 E265.1812
G1 X-59.038 Y45.457 E265.1832
G1 X-59.038 Y45.343 E265.1852
G1 X-59.038 Y45.229 E265.1872
G1 X-59.038 Y45.114 E265.1892
G1 X-59.038 Y45.000 E265.1911
G1 X-59.038 Y44.886 E265.1931
G1 X-59.038 Y44.771 E265.1951
G1 X-59.038 Y44.657 E265.1971
G1 X-59.038 Y44.543 E265.1991
G1 X-59.038 Y44.429 E265.2011
G1 X-59.038 Y44.314 E265.2030
G1 X-59.038 Y44.200 E265.2050
G1 X-59.038 Y44.086 E265.2070
G1 X-59.038 Y43.971 E265.2090
G1 X-59.038 Y43.857 E265.2110
G1 X-59.038 Y43.743 E265.2130
G1 X-59.038 Y43.629 E265.2149
G1 X-59.038 Y43.514 E265.2169
G1 X-59.039 Y43.400 E265.2189
G1 X-59.039 Y43.286 E265.2209
G1 X-59.039 Y43.171 E265.2229
G1 X-59.039 Y43.057 E265.2249
G1 X-59.039 Y42.943 E265.2268
G1 X-59.039 Y42.829 E265.2288
G1 X-59.039 Y42.714 E265.2308
G1 X-59.039 Y42.600 E265.2327
G1 X-59.039 Y42.486 E265.2347
G1 X-59.039 Y42.371 E265.2366
G1 X-59.039 Y42.257 E265.2386
G1 X-59.039 Y42.143 E265.2406
G1 X-59.039 Y42.029 E265.2425
G1 X-59.039 Y41.914 E265.2445
G1 X-59.039 Y41.800 E265.2464
G1 X-59.039 Y41.686 E265.2484
G1 X-59.039 Y41.571 E265.2503
G1 X-59.039 Y41.457 E265.2523
G1 X-59.039 Y41.343 E265.2542
G1 X-59.039 Y41.229 E265.2562
G1 X-59.039 Y41.114 E265.2581
G1 X-59.040 Y41.000 E265.2601
G1 X-59.040 Y40.886 E265.2620
G1 X-59.040 Y40.771 E265.2640
G1 X-59.040 Y40.657 E265.2659
G1 X-59.040 Y40.543 E265.2679
G1 X-59.040 Y40.429 E265.2698
G1 X-59.040 Y40.314 E265.2718
G1 X-59.040 Y40.200 E265.2738
G1 X-59.040 Y40.086 E265.2757
G1 X-59.040 Y39.971 E265.2777
G1 X-59.040 Y39.857 E265.2796
G1 X-59.040 Y39.743 E265.2816
G1 X-59.040 Y39.629 E265.2835
G1 X-59.040 Y39.514 E265.2854
G1 X-59.040 Y39.400 E265.2874
G1 X-59.040 Y39.286 E265.2893
G1 X-59.072 Y39.171 E265.2906
G1 X-59.040 Y38.600 E265.3003
G1 X-59.040 Y24.886 E265.5334
;segType:HShell
G0 X-58.933 Y24.884 F4800
G1 X-58.932 Y24.036 E265.5553 F1350
;segType:InnerHair
G0 X-59.037 Y23.629 F4800
G1 X-59.040 Y23.514 E265.5573 F1350
G1 X-59.040 Y-23.571 E266.3575
;segType:HShell
G0 X-59.063 Y-24.179 F4800
G1 X-58.870 Y-23.986 E266.3681 F1350
G0 X-58.710 Y-24.391 F4800
G1 X-59.063 Y-24.745 E266.3876 F1350
G0 X-59.063 Y-25.310 F4800
G1 X-58.536 Y-24.783 E266.4165 F1350
;segType:InnerHair
G0 X-59.040 Y-25.629 F4800
G1 X-59.040 Y-38.543 E266.6360 F1350
G1 X-59.040 Y-39.229 E266.6476
G1 X-59.040 Y-48.143 E266.7991
G0 X-59.040 Y-39.229 F4800
G1 X-58.714 Y-39.055 E266.8033 F1350
G1 X-58.738 Y-39.046 E266.8036
;segType:HShell
G0 X-59.063 Y-48.503 F4800
G1 X-58.881 Y-48.322 E266.8136 F1350
G0 X-58.481 Y-48.487 F4800
G1 X-59.063 Y-49.069 E266.8456 F1350
G0 X-59.063 Y-49.635 F4800
G1 X-58.081 Y-48.652 E266.8995 F1350
G0 X-59.063 Y-50.200 F4800
G1 X-55.581 Y-46.718 E267.0908 F1350
G0 X-54.586 Y-46.289 F4800
G1 X-59.063 Y-50.766 E267.3367 F1350
G0 X-59.063 Y-51.332 F4800
G1 X-53.794 Y-46.062 E267.6261 F1350
G0 X-53.137 Y-45.971 F4800
G1 X-59.063 Y-51.897 E267.9516 F1350
G0 X-59.063 Y-52.463 F4800
G1 X-52.540 Y-45.940 E268.3098 F1350
G0 X-51.999 Y-45.964 F4800
G1 X-59.036 Y-53.001 E268.6963 F1350
G0 X-58.975 Y-53.507 F4800
G1 X-51.493 Y-46.024 E269.1072 F1350
G0 X-51.016 Y-46.113 F4800
G1 X-58.887 Y-53.984 E269.5395 F1350
G0 X-58.767 Y-54.430 F4800
G1 X-54.981 Y-50.644 E269.7474 F1350
G0 X-55.502 Y-51.730 F4800
G1 X-58.619 Y-54.847 E269.9186 F1350
G0 X-58.454 Y-55.248 F4800
G1 X-55.642 Y-52.436 E270.0730 F1350
G0 X-55.569 Y-52.929 F4800
G1 X-58.263 Y-55.623 E270.2210 F1350
G0 X-58.054 Y-55.979 F4800
G1 X-55.476 Y-53.401 E270.3626 F1350
G0 X-55.335 Y-53.826 F4800
G1 X-57.831 Y-56.322 E270.4996 F1350
G0 X-57.581 Y-56.638 F4800
G1 X-55.109 Y-54.165 E270.6354 F1350
G0 X-54.882 Y-54.505 F4800
G1 X-57.323 Y-56.945 E270.7695 F1350
G0 X-57.040 Y-57.228 F4800
G1 X-54.618 Y-54.806 E270.9025 F1350
G0 X-54.279 Y-55.033 F4800
G1 X-56.743 Y-57.497 E271.0378 F1350
G0 X-56.430 Y-57.750 F4800
G1 X-53.940 Y-55.259 E271.1746 F1350
G0 X-53.545 Y-55.431 F4800
G1 X-56.094 Y-57.980 E271.3146 F1350
G0 X-55.749 Y-58.199 F4800
G1 X-53.081 Y-55.532 E271.4610 F1350
G0 X-52.617 Y-55.634 F4800
G1 X-55.374 Y-58.390 E271.6124 F1350
G0 X-54.984 Y-58.566 F4800
G1 X-51.956 Y-55.538 E271.7787 F1350
G0 X-51.158 Y-55.306 F4800
G1 X-54.575 Y-58.723 E271.9664 F1350
G0 X-54.133 Y-58.847 F4800
G1 X-46.153 Y-50.867 E272.4046 F1350
G0 X-46.050 Y-51.330 F4800
G1 X-53.670 Y-58.949 E272.8231 F1350
G0 X-53.181 Y-59.026 F4800
G1 X-45.974 Y-51.818 E273.2190 F1350
G0 X-45.945 Y-52.356 F4800
G1 X-52.644 Y-59.055 E273.5869 F1350
G0 X-52.087 Y-59.063 F4800
G1 X-45.961 Y-52.937 E273.9233 F1350
G0 X-46.006 Y-53.548 F4800
G1 X-51.521 Y-59.063 E274.2262 F1350
G0 X-50.956 Y-59.063 F4800
G1 X-46.200 Y-54.308 E274.4874 F1350
G0 X-46.519 Y-55.192 F4800
G1 X-50.390 Y-59.063 E274.7000 F1350
G0 X-49.824 Y-59.063 F4800
G1 X-47.521 Y-56.760 E274.8265 F1350
G0 X-49.695 Y-53.842 F4800
G1 X-46.277 Y-50.425 E275.0142 F1350
G0 X-46.434 Y-50.016 F4800
G1 X-49.451 Y-53.033 E275.1799 F1350
G0 X-49.368 Y-52.384 F4800
G1 X-46.610 Y-49.626 E275.3314 F1350
G0 X-46.800 Y-49.251 F4800
G1 X-49.462 Y-51.913 E275.4776 F1350
G0 X-49.556 Y-51.441 F4800
G1 X-47.020 Y-48.906 E275.6168 F1350
G0 X-47.250 Y-48.570 F4800
G1 X-49.741 Y-51.060 E275.7536 F1350
G0 X-49.967 Y-50.721 F4800
G1 X-47.503 Y-48.257 E275.8889 F1350
G0 X-47.757 Y-47.945 F4800
G1 X-50.194 Y-50.382 E276.0227 F1350
G0 X-50.496 Y-50.118 F4800
G1 X-48.049 Y-47.672 E276.1571 F1350
G0 X-48.362 Y-47.419 F4800
G1 X-50.835 Y-49.891 E276.2929 F1350
G0 X-51.174 Y-49.665 F4800
G1 X-48.678 Y-47.169 E276.4300 F1350
G0 X-49.021 Y-46.946 F4800
G1 X-51.599 Y-49.524 E276.5716 F1350
G0 X-52.071 Y-49.430 F4800
G1 X-49.377 Y-46.736 E276.7195 F1350
G0 X-49.752 Y-46.546 F4800
G1 X-52.564 Y-49.358 E276.8740 F1350
G0 X-53.270 Y-49.498 F4800
G1 X-50.153 Y-46.381 E277.0451 F1350
G0 X-50.570 Y-46.233 F4800
G1 X-54.357 Y-50.019 E277.2531 F1350
G0 X-49.259 Y-59.063 F4800
G1 X-48.542 Y-58.347 E277.2924 F1350
G0 X-48.377 Y-58.747 F4800
G1 X-48.693 Y-59.063 E277.3098 F1350
;segType:InnerHair
G0 X-48.200 Y-59.040 F4800
G1 X-39.286 Y-59.040 E277.4616 F1350
;segType:HShell
G0 X-39.076 Y-59.063 F4800
G1 X-38.862 Y-58.849 E277.4734 F1350
;segType:InnerHair
G0 X-38.600 Y-59.043 F4800
G1 X-38.486 Y-59.040 E277.4753 F1350
G1 X-24.886 Y-59.040 E277.7065
;segType:HShell
G0 X-24.050 Y-59.028 F4800
G1 X-24.636 Y-58.765 E277.7231 F1350
;segType:InnerHair
G0 X-23.629 Y-59.037 F4800
G1 X-23.514 Y-59.040 E277.7250 F1350
G1 X23.571 Y-59.040 E278.5253
;segType:HShell
G0 X23.715 Y-59.063 F4800
G1 X23.859 Y-58.919 E278.5332 F1350
G0 X24.827 Y-58.517 F4800
G1 X24.280 Y-59.063 E278.5632 F1350
G0 X24.846 Y-59.063 F4800
G1 X25.306 Y-58.603 E278.5885 F1350
;segType:InnerHair
G0 X25.629 Y-59.040 F4800
G1 X38.543 Y-59.040 E278.8080 F1350
G0 X39.229 Y-59.040 F4800
G1 X48.143 Y-59.040 E278.9595 F1350
;segType:HShell
G0 X55.632 Y-58.259 F4800
G1 X58.259 Y-55.632 E279.1038 F1350
G0 X58.706 Y-54.619 F4800
G1 X54.619 Y-58.706 E279.3282 F1350
G0 X53.836 Y-58.923 F4800
G1 X58.923 Y-53.836 E279.6076 F1350
G0 X59.027 Y-53.167 F4800
G1 X53.167 Y-59.027 E279.9294 F1350
G0 X52.570 Y-59.058 F4800
G1 X59.058 Y-52.570 E280.2858 F1350
G0 X59.063 Y-51.999 F4800
G1 X51.999 Y-59.063 E280.6737 F1350
G0 X51.433 Y-59.063 F4800
G1 X59.063 Y-51.433 E281.0928 F1350
G0 X59.063 Y-50.868 F4800
G1 X50.868 Y-59.063 E281.5429 F1350
G0 X50.302 Y-59.063 F4800
G1 X54.447 Y-54.918 E281.7706 F1350
G0 X53.309 Y-55.491 F4800
G1 X49.736 Y-59.063 E281.9667 F1350
G0 X49.171 Y-59.063 F4800
G1 X52.620 Y-55.614 E282.1562 F1350
G0 X52.097 Y-55.571 F4800
G1 X48.605 Y-59.063 E282.3479 F1350
G0 X48.392 Y-58.710 F4800
G1 X51.633 Y-55.470 E282.5259 F1350
G0 X51.190 Y-55.346 F4800
G1 X48.636 Y-57.901 E282.6662 F1350
G0 X48.353 Y-57.618 F4800
G1 X50.851 Y-55.120 E282.8034 F1350
G0 X50.512 Y-54.893 F4800
G1 X48.070 Y-57.336 E282.9376 F1350
G0 X47.786 Y-57.053 F4800
G1 X50.205 Y-54.635 E283.0704 F1350
G0 X49.978 Y-54.296 F4800
G1 X47.516 Y-56.758 E283.2057 F1350
G0 X47.263 Y-56.446 F4800
G1 X49.752 Y-53.957 E283.3424 F1350
G0 X49.561 Y-53.582 F4800
G1 X47.031 Y-56.111 E283.4813 F1350
G0 X46.810 Y-55.767 F4800
G1 X49.467 Y-53.111 E283.6272 F1350
G0 X49.373 Y-52.639 F4800
G1 X46.619 Y-55.393 E283.7784 F1350
G0 X46.442 Y-55.004 F4800
G1 X49.444 Y-52.001 E283.9433 F1350
G0 X49.585 Y-51.295 F4800
G1 X46.285 Y-54.595 E284.1246 F1350
G0 X46.159 Y-54.155 F4800
G1 X54.155 Y-46.159 E284.5637 F1350
G0 X53.709 Y-46.040 F4800
G1 X46.040 Y-53.709 E284.9849 F1350
G0 X45.975 Y-53.208 F4800
G1 X53.208 Y-45.975 E285.3821 F1350
G0 X52.671 Y-45.947 F4800
G1 X45.947 Y-52.671 E285.7514 F1350
G0 X45.965 Y-52.087 F4800
G1 X52.092 Y-45.959 E286.0879 F1350
G0 X51.455 Y-46.030 F4800
G1 X46.033 Y-51.453 E286.3857 F1350
G0 X46.193 Y-50.727 F4800
G1 X50.730 Y-46.190 E286.6349 F1350
G0 X49.861 Y-46.494 F4800
G1 X46.500 Y-49.855 E286.8195 F1350
G0 X47.383 Y-48.406 F4800
G1 X48.406 Y-47.383 E286.8757 F1350
G0 X51.295 Y-49.585 F4800
G1 X54.595 Y-46.285 E287.0570 F1350
G0 X55.004 Y-46.442 F4800
G1 X52.001 Y-49.444 E287.2218 F1350
G0 X52.639 Y-49.373 F4800
G1 X55.393 Y-46.619 E287.3731 F1350
G0 X55.767 Y-46.810 F4800
G1 X53.111 Y-49.467 E287.5190 F1350
G0 X53.582 Y-49.561 F4800
G1 X56.111 Y-47.031 E287.6579 F1350
G0 X56.446 Y-47.263 F4800
G1 X53.957 Y-49.752 E287.7946 F1350
G0 X54.296 Y-49.978 F4800
G1 X56.758 Y-47.516 E287.9298 F1350
G0 X57.053 Y-47.786 F4800
G1 X54.635 Y-50.205 E288.0627 F1350
G0 X54.893 Y-50.512 F4800
G1 X57.336 Y-48.070 E288.1968 F1350
G0 X57.618 Y-48.353 F4800
G1 X55.120 Y-50.851 E288.3341 F1350
G0 X55.346 Y-51.190 F4800
G1 X57.901 Y-48.636 E288.4743 F1350
G0 X58.710 Y-48.392 F4800
G1 X55.480 Y-51.622 E288.6517 F1350
G0 X55.574 Y-52.094 F4800
G1 X59.063 Y-48.605 E288.8434 F1350
G0 X59.063 Y-49.171 F4800
G1 X55.635 Y-52.599 E289.0316 F1350
G0 X55.495 Y-53.305 F4800
G1 X59.063 Y-49.736 E289.2276 F1350
G0 X59.063 Y-50.302 F4800
G1 X54.918 Y-54.447 E289.4553 F1350
; ------------------------------------
; Layer #1
; ------------------------------------
M106 S255 ;set fan speed
G21 ; mm
G90 ; abs
G92 E0 ;reset extr
;segType:Loop
G0 F4200 E-7.0000
G0 F4800 Z1.750
G0 X-59.351 Y50.213
G0 Z0.750
G0 F4200 E0.0000
G1 X-59.351 Y-52.483 E4.0499 F2400
G1 X-59.313 Y-53.216 E4.0789
G1 X-59.201 Y-53.924 E4.1071
G1 X-59.015 Y-54.617 E4.1354
G1 X-58.758 Y-55.286 E4.1637
G1 X-58.433 Y-55.925 E4.1920
G1 X-58.042 Y-56.527 E4.2202
G1 X-57.591 Y-57.084 E4.2485
G1 X-57.084 Y-57.591 E4.2768
G1 X-56.527 Y-58.042 E4.3051
G1 X-55.925 Y-58.433 E4.3334
G1 X-55.286 Y-58.758 E4.3617
G1 X-54.617 Y-59.015 E4.3899
G1 X-53.924 Y-59.201 E4.4182
G1 X-53.216 Y-59.313 E4.4465
G1 X-52.483 Y-59.351 E4.4754
G1 X52.483 Y-59.351 E8.6149
G1 X53.216 Y-59.313 E8.6438
G1 X53.924 Y-59.201 E8.6721
G1 X54.617 Y-59.016 E8.7003
G1 X55.287 Y-58.758 E8.7286
G1 X55.925 Y-58.433 E8.7569
G1 X56.527 Y-58.042 E8.7852
G1 X57.084 Y-57.592 E8.8134
G1 X57.591 Y-57.084 E8.8418
G1 X58.043 Y-56.526 E8.8700
G1 X58.433 Y-55.925 E8.8983
G1 X58.758 Y-55.286 E8.9266
G1 X59.016 Y-54.617 E8.9549
G1 X59.201 Y-53.924 E8.9831
G1 X59.313 Y-53.216 E9.0114
G1 X59.351 Y-52.483 E9.0404
G1 X59.351 Y52.483 E13.1798
G1 X59.313 Y53.216 E13.2087
G1 X59.201 Y53.924 E13.2370
G1 X59.015 Y54.617 E13.2653
G1 X58.758 Y55.286 E13.2936
G1 X58.433 Y55.925 E13.3219
G1 X58.042 Y56.527 E13.3501
G1 X57.591 Y57.084 E13.3784
G1 X57.084 Y57.591 E13.4067
G1 X56.527 Y58.042 E13.4350
G1 X55.925 Y58.433 E13.4632
G1 X55.286 Y58.758 E13.4915
G1 X54.617 Y59.015 E13.5198
G1 X53.924 Y59.201 E13.5481
G1 X53.216 Y59.313 E13.5764
G1 X52.483 Y59.351 E13.6053
G1 X-52.483 Y59.351 E17.7447
G1 X-53.216 Y59.313 E17.7737
G1 X-53.924 Y59.201 E17.8020
G1 X-54.617 Y59.015 E17.8302
G1 X-55.287 Y58.758 E17.8585
G1 X-55.925 Y58.433 E17.8868
G1 X-56.527 Y58.042 E17.9151
G1 X-57.084 Y57.591 E17.9434
G1 X-57.591 Y57.084 E17.9716
G1 X-58.042 Y56.527 E17.9999
G1 X-58.433 Y55.925 E18.0282
G1 X-58.758 Y55.286 E18.0565
G1 X-59.015 Y54.617 E18.0848
G1 X-59.201 Y53.924 E18.1130
G1 X-59.313 Y53.216 E18.1413
G1 X-59.351 Y52.483 E18.1703
G1 X-59.351 Y50.413 E18.2435
;segType:Perimeter
G0 X-52.361 Y59.745 F4800
G1 X-52.555 Y59.796 E18.2506 F1200
G1 X-53.263 Y59.759 E18.2756
G1 X-54.018 Y59.640 E18.3025
G1 X-54.756 Y59.442 E18.3294
G1 X-55.469 Y59.168 E18.3563
G1 X-56.150 Y58.821 E18.3832
G1 X-56.790 Y58.405 E18.4101
G1 X-57.384 Y57.924 E18.4370
G1 X-57.924 Y57.384 E18.4639
G1 X-58.405 Y56.790 E18.4908
G1 X-58.821 Y56.150 E18.5177
G1 X-59.168 Y55.469 E18.5446
G1 X-59.442 Y54.756 E18.5715
G1 X-59.640 Y54.018 E18.5984
G1 X-59.759 Y53.263 E18.6253
G1 X-59.799 Y52.495 E18.6524
G1 X-59.799 Y-52.495 E22.3491
G1 X-59.759 Y-53.263 E22.3762
G1 X-59.640 Y-54.018 E22.4031
G1 X-59.442 Y-54.755 E22.4300
G1 X-59.168 Y-55.469 E22.4569
G1 X-58.821 Y-56.150 E22.4838
G1 X-58.405 Y-56.790 E22.5107
G1 X-57.924 Y-57.384 E22.5376
G1 X-57.384 Y-57.924 E22.5645
G1 X-56.791 Y-58.405 E22.5914
G1 X-56.150 Y-58.821 E22.6183
G1 X-55.469 Y-59.168 E22.6452
G1 X-54.756 Y-59.442 E22.6721
G1 X-54.018 Y-59.640 E22.6990
G1 X-53.263 Y-59.759 E22.7259
G1 X-52.494 Y-59.799 E22.7530
G1 X52.495 Y-59.799 E26.4498
G1 X53.263 Y-59.759 E26.4768
G1 X54.018 Y-59.640 E26.5037
G1 X54.755 Y-59.442 E26.5306
G1 X55.469 Y-59.168 E26.5575
G1 X56.149 Y-58.822 E26.5844
G1 X56.791 Y-58.405 E26.6113
G1 X57.384 Y-57.925 E26.6382
G1 X57.925 Y-57.384 E26.6652
G1 X58.406 Y-56.790 E26.6921
G1 X58.821 Y-56.150 E26.7189
G1 X59.168 Y-55.469 E26.7459
G1 X59.442 Y-54.755 E26.7728
G1 X59.640 Y-54.018 E26.7997
G1 X59.759 Y-53.263 E26.8266
G1 X59.799 Y-52.495 E26.8536
G1 X59.799 Y52.494 E30.5504
G1 X59.759 Y53.263 E30.5775
G1 X59.640 Y54.018 E30.6044
G1 X59.442 Y54.756 E30.6313
G1 X59.168 Y55.469 E30.6582
G1 X58.821 Y56.150 E30.6851
G1 X58.405 Y56.791 E30.7120
G1 X57.924 Y57.384 E30.7389
G1 X57.384 Y57.924 E30.7658
G1 X56.790 Y58.405 E30.7927
G1 X56.150 Y58.821 E30.8196
G1 X55.469 Y59.168 E30.8465
G1 X54.755 Y59.442 E30.8734
G1 X54.018 Y59.640 E30.9003
G1 X53.263 Y59.759 E30.9272
G1 X52.495 Y59.799 E30.9543
G1 X-52.435 Y59.799 E34.6489
G0 X-52.625 Y59.738 F4800
;segType:Loop
G0 X5.199 Y5.210
G1 X5.166 Y5.229 E34.6498 F2400
G1 X5.207 Y5.114 E34.6535
;segType:Perimeter
G0 X5.261 Y5.657 F4800
G1 X9.757 Y10.152 E34.8774 F1200
G1 X9.449 Y10.494 E34.8936
G1 X7.061 Y12.230 E34.9975
G1 X4.363 Y13.430 E35.1015
G1 X1.476 Y14.044 E35.2054
G1 X-1.476 Y14.044 E35.3094
G1 X-4.364 Y13.430 E35.4133
G1 X-7.060 Y12.230 E35.5173
G1 X-9.449 Y10.494 E35.6212
G1 X-9.757 Y10.152 E35.6374
G1 X-5.219 Y5.614 E35.8634
G1 X-2.953 Y7.128 E35.9594
G1 X0.000 Y7.716 E36.0654
G1 X2.953 Y7.128 E36.1714
G1 X5.169 Y5.648 E36.2652
;segType:Loop
G0 X5.286 Y-5.161 F4800
G1 X5.269 Y-5.165 E36.2657 F2400
;segType:Perimeter
G0 X-0.137 Y-7.192 F4800
G1 X0.059 Y-7.153 E36.2727 F1200
G1 X2.742 Y-6.619 E36.3690
G1 X4.796 Y-5.246 E36.4560
G1 X4.801 Y-5.196 E36.4578
G1 X0.000 Y-0.395 E36.6969
G1 X-4.801 Y-5.196 E36.9359
G1 X-4.796 Y-5.246 E36.9377
G1 X-2.742 Y-6.619 E37.0247
G1 X-0.059 Y-7.153 E37.1210
;segType:Loop
G0 X-5.179 Y-5.253 F4800
G0 X-5.161 Y-5.286 F4800
G0 X-5.187 Y-5.171
G1 X-5.114 Y-5.207 E37.1234 F2400
G1 X-5.134 Y-5.200 E37.1241
;segType:Perimeter
G0 X-9.851 Y-10.048 F4800
G1 X-9.717 Y-10.197 E37.1311 F1200
G1 X-9.449 Y-10.494 E37.1452
G1 X-7.061 Y-12.230 E37.2492
G1 X-4.364 Y-13.430 E37.3531
G1 X-1.476 Y-14.044 E37.4571
G1 X1.476 Y-14.044 E37.5610
G1 X4.363 Y-13.430 E37.6649
G1 X7.061 Y-12.229 E37.7689
G1 X8.909 Y-10.887 E37.8494
G1 X9.487 Y-10.452 E37.8748
G1 X9.757 Y-10.152 E37.8890
G1 X5.219 Y-5.614 E38.1150
G1 X2.953 Y-7.128 E38.2110
G1 X0.000 Y-7.716 E38.3170
G1 X-2.953 Y-7.128 E38.4230
G1 X-5.219 Y-5.614 E38.5189
G1 X-9.715 Y-10.110 E38.7428
;segType:Loop
G0 X-5.166 Y5.229 F4800
G1 X-5.207 Y5.114 E38.7465 F2400
G1 X-5.185 Y5.137 E38.7472
;segType:Perimeter
G0 X-0.099 Y0.296 F4800
G1 X0.042 Y0.438 E38.7543 F1200
G1 X4.801 Y5.196 E38.9912
G1 X4.796 Y5.246 E38.9930
G1 X2.742 Y6.619 E39.0800
G1 X0.000 Y7.164 E39.1784
G1 X-2.742 Y6.619 E39.2768
G1 X-4.796 Y5.246 E39.3638
G1 X-4.801 Y5.196 E39.3656
G1 X-0.042 Y0.438 E39.6025
G0 X0.099 Y0.296 F4800
;segType:Loop
G0 X-45.293 Y53.536
G1 X-45.456 Y53.537 E39.6089 F2400
G1 X-45.693 Y53.335 E39.6212
G1 X-45.649 Y52.500 E39.6542
G1 X-45.687 Y51.784 E39.6825
G1 X-45.799 Y51.076 E39.7107
G1 X-45.985 Y50.383 E39.7390
G1 X-46.242 Y49.714 E39.7673
G1 X-46.567 Y49.075 E39.7956
G1 X-46.958 Y48.473 E39.8239
G1 X-47.564 Y47.725 E39.8618
G1 X-47.725 Y47.564 E39.8708
G1 X-48.473 Y46.958 E39.9088
G1 X-49.075 Y46.567 E39.9371
G1 X-49.714 Y46.241 E39.9654
G1 X-50.383 Y45.985 E39.9936
G1 X-51.076 Y45.799 E40.0219
G1 X-51.784 Y45.687 E40.0502
G1 X-52.500 Y45.649 E40.0785
G1 X-53.357 Y45.694 E40.1123
G1 X-53.539 Y45.297 E40.1210
G1 X-53.531 Y45.343 E40.1222
G1 X-53.509 Y45.457 E40.1261
G1 X-53.800 Y45.766 E40.1428
G1 X-54.617 Y45.985 E40.1762
G1 X-55.287 Y46.242 E40.2045
G1 X-55.925 Y46.567 E40.2327
G1 X-56.527 Y46.958 E40.2610
G1 X-57.084 Y47.409 E40.2893
G1 X-58.027 Y48.352 E40.3419
G1 X-58.722 Y48.065 E40.3715
G1 X-58.729 Y39.352 E40.7151
G1 X-58.371 Y39.174 E40.7354
G1 X-58.257 Y39.214 E40.7401
G1 X-58.143 Y39.254 E40.7432
G0 X-58.158 Y39.248 F4800
G1 X-58.274 Y39.202 E40.7481 F2400
G1 X-58.728 Y38.533 E40.7800
G1 X-58.728 Y25.011 E41.3132
G1 X-58.257 Y24.912 E41.3322
G1 X-58.143 Y24.909 E41.3363
G1 X-58.029 Y24.967 E41.3391
G0 X-58.076 Y24.943 F4800
G0 X-58.183 Y24.888
G1 X-58.227 Y24.771 E41.3440 F2400
G1 X-58.471 Y24.220 E41.3678
G1 X-58.728 Y23.552 E41.3960
G1 X-58.728 Y-23.552 E43.2536
G1 X-58.471 Y-24.220 E43.2818
G1 X-58.020 Y-25.237 E43.3257
G1 X-58.057 Y-25.341 E43.3300
G1 X-58.728 Y-25.704 E43.3602
G1 X-58.728 Y-38.533 E43.8661
G1 X-58.263 Y-39.218 E43.8987
G1 X-58.143 Y-39.254 E43.9019
G1 X-58.257 Y-39.214 E43.9066
G1 X-58.371 Y-39.174 E43.9127
G1 X-58.728 Y-39.352 E43.9285
G1 X-58.728 Y-48.073 E44.2724
G1 X-58.033 Y-48.360 E44.3020
G1 X-57.084 Y-47.409 E44.3551
G1 X-56.585 Y-47.005 E44.3803
G1 X-55.985 Y-46.607 E44.4087
G1 X-55.350 Y-46.274 E44.4370
G1 X-54.684 Y-46.010 E44.4653
G1 X-53.800 Y-45.763 E44.5015
G1 X-53.606 Y-45.390 E44.5181
G1 X-53.357 Y-45.694 E44.5336
G1 X-52.500 Y-45.649 E44.5674
G1 X-51.784 Y-45.687 E44.5957
G1 X-51.076 Y-45.799 E44.6240
G1 X-50.383 Y-45.985 E44.6523
G1 X-49.713 Y-46.242 E44.6806
G1 X-49.075 Y-46.567 E44.7088
G1 X-48.473 Y-46.958 E44.7371
G1 X-47.711 Y-47.575 E44.7758
G1 X-47.552 Y-47.740 E44.7848
G1 X-46.958 Y-48.473 E44.8220
G1 X-46.567 Y-49.075 E44.8503
G1 X-46.241 Y-49.714 E44.8786
G1 X-45.985 Y-50.383 E44.9069
G1 X-45.799 Y-51.076 E44.9352
G1 X-45.687 Y-51.784 E44.9634
G1 X-45.649 Y-52.500 E44.9917
G1 X-45.693 Y-53.335 E45.0247
G1 X-45.442 Y-53.550 E45.0377
G1 X-45.343 Y-53.527 E45.0403
G1 X-45.457 Y-53.503 E45.0443
G1 X-45.747 Y-53.743 E45.0592
G1 X-46.010 Y-54.684 E45.0977
G1 X-46.274 Y-55.350 E45.1260
G1 X-46.606 Y-55.985 E45.1543
G1 X-47.003 Y-56.583 E45.1825
G1 X-47.462 Y-57.137 E45.2109
G1 X-48.360 Y-58.032 E45.2609
G1 X-48.072 Y-58.728 E45.2906
G1 X-39.380 Y-58.728 E45.6334
G1 X-39.214 Y-58.314 E45.6534
G1 X-39.255 Y-58.200 E45.6573
G1 X-39.192 Y-58.291 E45.6617
G1 X-38.517 Y-58.728 E45.6934
G1 X-25.011 Y-58.728 E46.2260
G1 X-24.924 Y-58.314 E46.2427
G1 X-24.879 Y-58.200 E46.2480
G1 X-24.938 Y-58.086 E46.2517
G1 X-24.864 Y-58.185 E46.2565
G1 X-24.220 Y-58.471 E46.2843
G1 X-23.552 Y-58.728 E46.3125
G1 X23.552 Y-58.728 E48.1702
G1 X24.219 Y-58.471 E48.1984
G1 X25.218 Y-58.028 E48.2415
G1 X25.334 Y-58.091 E48.2466
G1 X25.718 Y-58.728 E48.2760
G1 X38.517 Y-58.728 E48.7807
G1 X39.208 Y-58.280 E48.8132
G1 X39.264 Y-58.174 E48.8167
G1 X39.255 Y-58.200 E48.8176
G1 X39.214 Y-58.314 E48.8230
G1 X39.380 Y-58.728 E48.8406
G1 X48.073 Y-58.728 E49.1835
G1 X48.360 Y-58.033 E49.2131
G1 X47.409 Y-57.084 E49.2661
G1 X46.958 Y-56.527 E49.2944
G1 X46.567 Y-55.925 E49.3227
G1 X46.242 Y-55.287 E49.3510
G1 X45.985 Y-54.617 E49.3792
G1 X45.699 Y-53.550 E49.4228
G0 X45.400 Y-53.514 F4800
G0 X45.286 Y-53.538
G1 X45.293 Y-53.536 E49.4229 F2400
G1 X45.456 Y-53.537 E49.4294
G1 X45.693 Y-53.335 E49.4417
G1 X45.649 Y-52.500 E49.4746
G1 X45.687 Y-51.784 E49.5029
G1 X45.799 Y-51.076 E49.5312
G1 X45.985 Y-50.383 E49.5595
G1 X46.241 Y-49.714 E49.5877
G1 X46.567 Y-49.075 E49.6160
G1 X46.958 Y-48.473 E49.6443
G1 X47.564 Y-47.725 E49.6822
G1 X47.725 Y-47.564 E49.6913
G1 X48.473 Y-46.958 E49.7292
G1 X49.075 Y-46.567 E49.7575
G1 X49.714 Y-46.241 E49.7858
G1 X50.383 Y-45.985 E49.8141
G1 X51.076 Y-45.799 E49.8423
G1 X51.784 Y-45.687 E49.8706
G1 X52.500 Y-45.649 E49.8989
G1 X53.357 Y-45.694 E49.9327
G1 X53.545 Y-45.464 E49.9445
G1 X53.539 Y-45.297 E49.9478
G1 X53.553 Y-45.699 E49.9637
G1 X54.617 Y-45.985 E50.0071
G1 X55.287 Y-46.242 E50.0354
G1 X55.925 Y-46.567 E50.0637
G1 X56.527 Y-46.958 E50.0920
G1 X57.084 Y-47.409 E50.1202
G1 X58.033 Y-48.360 E50.1733
G1 X58.728 Y-48.073 E50.2029
G1 X58.728 Y-39.352 E50.5468
G0 X58.314 Y-39.194 F4800
G0 X58.200 Y-39.234
G1 X58.159 Y-39.248 E50.5480 F2400
G1 X58.273 Y-39.202 E50.5529
G1 X58.728 Y-38.533 E50.5848
G1 X58.728 Y-25.718 E51.0902
G1 X58.091 Y-25.334 E51.1196
G1 X58.028 Y-25.218 E51.1247
G1 X58.471 Y-24.220 E51.1678
G1 X58.728 Y-23.552 E51.1960
G1 X58.728 Y23.552 E53.0536
G1 X58.471 Y24.220 E53.0819
G1 X58.185 Y24.864 E53.1097
G1 X58.086 Y24.938 E53.1132
G1 X58.200 Y24.879 E53.1187
G1 X58.314 Y24.924 E53.1235
G1 X58.728 Y25.011 E53.1402
G1 X58.728 Y38.533 E53.6735
G1 X58.284 Y39.186 E53.7046
G1 X58.200 Y39.234 E53.7077
G1 X58.314 Y39.194 E53.7131
G1 X58.728 Y39.352 E53.7306
G1 X58.728 Y48.073 E54.0745
G1 X58.033 Y48.360 E54.1042
G1 X57.084 Y47.409 E54.1572
G1 X56.527 Y46.958 E54.1855
G1 X55.925 Y46.567 E54.2137
G1 X55.287 Y46.241 E54.2420
G1 X54.617 Y45.985 E54.2703
G1 X53.743 Y45.750 E54.3060
G1 X53.509 Y45.457 E54.3186
G1 X53.531 Y45.343 E54.3214
G1 X53.557 Y45.450 E54.3258
G1 X53.357 Y45.694 E54.3382
G1 X52.500 Y45.649 E54.3721
G1 X51.784 Y45.687 E54.4003
G1 X51.076 Y45.799 E54.4286
