; GCode generated by CraftWare

G28 X0 Y0
G28 Z0

M104 S210 ;set head temp (no wait)
M190 S60 ;set bed temp (wait)
M109 S210 ;set head temp (wait); startup extrude
G21
G90
G92E0
G1E3F100
G92E0


; ------------------------------------
; Layer #0
; ------------------------------------
M106 S0 ;turn off fan
G21 ; mm
G90 ; abs
G92 E0 ;reset extr
G0 F4800 Z0.550
;segType:Skirt
G0 F4200 E-7.0000
G0 F4800 Z1.550
G0 X-65.864 Y59.751
G0 Z0.550
G0 F4200 E0.0000
G1 X-59.554 Y66.061 E2.5040 F1800
G1 X-59.225 Y66.259 E2.6116
G1 X-58.962 Y66.522 E2.7160
G1 X-57.976 Y67.113 E3.0385
G1 X-57.582 Y67.244 E3.1551
G1 X-56.793 Y67.639 E3.4026
G1 X-56.399 Y67.639 E3.5132
G1 X-56.267 Y67.770 E3.5654
G1 X-55.347 Y67.902 E3.8262
G1 X55.610 Y67.902 E34.9590
G1 X55.741 Y67.770 E35.0112
G1 X56.267 Y67.770 E35.1587
G1 X56.399 Y67.639 E35.2109
G1 X56.662 Y67.639 E35.2847
G1 X56.990 Y67.442 E35.3921
G1 X57.384 Y67.310 E35.5088
G1 X57.713 Y67.113 E35.6164
G1 X58.108 Y66.981 E35.7330
G1 X58.765 Y66.587 E35.9481
G1 X59.028 Y66.324 E36.0525
G1 X59.356 Y66.127 E36.1599
G1 X65.930 Y59.554 E38.7682
G1 X66.127 Y59.225 E38.8759
G1 X66.390 Y58.962 E38.9802
G1 X66.784 Y58.305 E39.1953
G1 X67.113 Y57.845 E39.3538
G1 X67.113 Y57.582 E39.4276
G1 X67.310 Y57.253 E39.5353
G1 X67.573 Y56.464 E39.7686
G1 X67.639 Y56.004 E39.8989
G1 X67.770 Y55.873 E39.9511
G1 X67.770 Y54.821 E40.2462
G1 X67.902 Y54.427 E40.3628
G1 X67.902 Y-54.427 E70.9054
G1 X67.770 Y-54.821 E71.0220
G1 X67.770 Y-55.347 E71.1696
G1 X67.639 Y-56.267 E71.4304
G1 X67.507 Y-56.399 E71.4826
G1 X67.507 Y-56.662 E71.5564
G1 X67.376 Y-56.793 E71.6085
G1 X67.376 Y-57.056 E71.6823
G1 X67.244 Y-57.188 E71.7345
G1 X67.244 Y-57.450 E71.8082
G1 X66.456 Y-58.765 E72.2384
G1 X66.193 Y-59.028 E72.3427
G1 X65.996 Y-59.356 E72.4502
G1 X59.422 Y-65.930 E75.0585
G1 X59.093 Y-66.127 E75.1661
G1 X58.831 Y-66.390 E75.2705
G1 X57.516 Y-67.179 E75.7007
G1 X57.122 Y-67.310 E75.8173
G1 X56.793 Y-67.507 E75.9247
G1 X56.333 Y-67.573 E76.0552
G1 X55.938 Y-67.705 E76.1719
G1 X55.478 Y-67.770 E76.3022
G1 X54.953 Y-67.770 E76.4498
G1 X54.558 Y-67.902 E76.5664
G1 X-54.821 Y-67.902 E107.2565
G1 X-54.953 Y-67.770 E107.3087
G1 X-56.004 Y-67.770 E107.6038
G1 X-56.136 Y-67.639 E107.6560
G1 X-56.596 Y-67.573 E107.7863
G1 X-56.925 Y-67.376 E107.8939
G1 X-57.188 Y-67.376 E107.9677
G1 X-57.319 Y-67.244 E108.0199
G1 X-57.582 Y-67.244 E108.0937
G1 X-58.897 Y-66.456 E108.5238
G1 X-59.159 Y-66.193 E108.6282
G1 X-59.488 Y-65.996 E108.7356
G1 X-66.324 Y-59.159 E111.4483
G1 X-67.113 Y-57.845 E111.8784
G1 X-67.244 Y-57.713 E111.9306
G1 X-67.244 Y-57.450 E112.0044
G1 X-67.442 Y-57.122 E112.1120
G1 X-67.705 Y-56.333 E112.3453
G1 X-67.770 Y-55.873 E112.4756
G1 X-67.902 Y-55.741 E112.5278
G1 X-67.902 Y-54.690 E112.8229
G1 X-68.033 Y-54.295 E112.9396
G1 X-68.033 Y54.558 E143.4821
G1 X-67.902 Y54.953 E143.5988
G1 X-67.902 Y55.478 E143.7463
G1 X-67.836 Y55.938 E143.8767
G1 X-67.705 Y56.333 E143.9933
G1 X-67.639 Y56.793 E144.1238
G1 X-67.507 Y56.925 E144.1760
G1 X-67.507 Y57.188 E144.2498
G1 X-67.113 Y57.845 E144.4649
G1 X-66.981 Y58.239 E144.5815
G1 X-66.587 Y58.897 E144.7966
G1 X-66.061 Y59.422 E145.0053
G1 X-65.864 Y59.751 E145.1127
;segType:Loop
G0 F4200 E138.1127
G0 F4800 Z1.550
G0 X-59.351 Y50.204
G0 Z0.550
G0 F4200 E145.1127
G1 X-59.351 Y-52.483 E181.2549 F1800
G1 X-59.313 Y-53.216 E181.5133
G1 X-59.201 Y-53.924 E181.7657
G1 X-59.015 Y-54.617 E182.0180
G1 X-58.758 Y-55.286 E182.2704
G1 X-58.433 Y-55.925 E182.5228
G1 X-58.042 Y-56.527 E182.7752
G1 X-57.591 Y-57.084 E183.0276
G1 X-57.084 Y-57.591 E183.2799
G1 X-56.527 Y-58.042 E183.5323
G1 X-55.925 Y-58.433 E183.7848
G1 X-55.286 Y-58.758 E184.0372
G1 X-54.617 Y-59.015 E184.2895
G1 X-53.924 Y-59.201 E184.5420
G1 X-53.216 Y-59.313 E184.7943
G1 X-52.483 Y-59.351 E185.0528
G1 X52.483 Y-59.351 E221.9971
G1 X53.216 Y-59.313 E222.2554
G1 X53.924 Y-59.201 E222.5078
G1 X54.617 Y-59.016 E222.7601
G1 X55.287 Y-58.758 E223.0126
G1 X55.925 Y-58.433 E223.2649
G1 X56.527 Y-58.042 E223.5174
G1 X57.084 Y-57.592 E223.7695
G1 X57.591 Y-57.084 E224.0222
G1 X58.043 Y-56.526 E224.2747
G1 X58.433 Y-55.925 E224.5269
G1 X58.758 Y-55.286 E224.7793
G1 X59.016 Y-54.617 E225.0318
G1 X59.201 Y-53.924 E225.2841
G1 X59.313 Y-53.216 E225.5365
G1 X59.351 Y-52.483 E225.7948
G1 X59.351 Y52.483 E262.7391
G1 X59.313 Y53.216 E262.9975
G1 X59.201 Y53.924 E263.2499
G1 X59.015 Y54.617 E263.5023
G1 X58.758 Y55.286 E263.7546
G1 X58.433 Y55.925 E264.0070
G1 X58.042 Y56.527 E264.2595
G1 X57.591 Y57.084 E264.5119
G1 X57.084 Y57.591 E264.7641
G1 X56.527 Y58.042 E265.0166
G1 X55.925 Y58.433 E265.2689
G1 X55.286 Y58.758 E265.5213
G1 X54.617 Y59.015 E265.7737
G1 X53.924 Y59.201 E266.0261
G1 X53.216 Y59.313 E266.2784
G1 X52.483 Y59.351 E266.5369
G1 X-52.483 Y59.351 E303.4812
G1 X-53.216 Y59.313 E303.7396
G1 X-53.924 Y59.201 E303.9919
G1 X-54.617 Y59.015 E304.2443
G1 X-55.287 Y58.758 E304.4967
G1 X-55.925 Y58.433 E304.7491
G1 X-56.527 Y58.042 E305.0015
G1 X-57.084 Y57.591 E305.2539
G1 X-57.591 Y57.084 E305.5063
G1 X-58.042 Y56.527 E305.7586
G1 X-58.433 Y55.925 E306.0110
G1 X-58.758 Y55.286 E306.2634
G1 X-59.015 Y54.617 E306.5159
G1 X-59.201 Y53.924 E306.7682
G1 X-59.313 Y53.216 E307.0205
G1 X-59.351 Y52.483 E307.2790
G1 X-59.351 Y50.404 E307.9359
;segType:Perimeter
G0 X-52.361 Y59.745 F4800
G1 X-52.555 Y59.796 E307.9988 F900
G1 X-53.263 Y59.759 E308.2218
G1 X-54.018 Y59.640 E308.4618
G1 X-54.756 Y59.442 E308.7019
G1 X-55.469 Y59.168 E308.9421
G1 X-56.150 Y58.821 E309.1821
G1 X-56.790 Y58.405 E309.4222
G1 X-57.384 Y57.924 E309.6623
G1 X-57.924 Y57.384 E309.9024
G1 X-58.405 Y56.790 E310.1425
G1 X-58.821 Y56.150 E310.3826
G1 X-59.168 Y55.469 E310.6227
G1 X-59.442 Y54.756 E310.8629
G1 X-59.640 Y54.018 E311.1029
G1 X-59.759 Y53.263 E311.3430
G1 X-59.799 Y52.495 E311.5848
G1 X-59.799 Y-52.495 E344.5782
G1 X-59.759 Y-53.263 E344.8200
G1 X-59.640 Y-54.018 E345.0601
G1 X-59.442 Y-54.755 E345.3001
G1 X-59.168 Y-55.469 E345.5403
G1 X-58.821 Y-56.150 E345.7804
G1 X-58.405 Y-56.790 E346.0204
G1 X-57.924 Y-57.384 E346.2606
G1 X-57.384 Y-57.924 E346.5007
G1 X-56.791 Y-58.405 E346.7407
G1 X-56.150 Y-58.821 E346.9808
G1 X-55.469 Y-59.168 E347.2210
G1 X-54.756 Y-59.442 E347.4610
G1 X-54.018 Y-59.640 E347.7012
G1 X-53.263 Y-59.759 E347.9412
G1 X-52.494 Y-59.799 E348.1831
G1 X52.495 Y-59.799 E381.1765
G1 X53.263 Y-59.759 E381.4181
G1 X54.018 Y-59.640 E381.6582
G1 X54.755 Y-59.442 E381.8983
G1 X55.469 Y-59.168 E382.1385
G1 X56.149 Y-58.822 E382.3785
G1 X56.791 Y-58.405 E382.6187
G1 X57.384 Y-57.925 E382.8586
G1 X57.925 Y-57.384 E383.0989
G1 X58.406 Y-56.790 E383.3391
G1 X58.821 Y-56.150 E383.5790
G1 X59.168 Y-55.469 E383.8192
G1 X59.442 Y-54.755 E384.0593
G1 X59.640 Y-54.018 E384.2993
G1 X59.759 Y-53.263 E384.5394
G1 X59.799 Y-52.495 E384.7812
G1 X59.799 Y52.494 E417.7745
G1 X59.759 Y53.263 E418.0163
G1 X59.640 Y54.018 E418.2564
G1 X59.442 Y54.756 E418.4965
G1 X59.168 Y55.469 E418.7366
G1 X58.821 Y56.150 E418.9767
G1 X58.405 Y56.791 E419.2169
G1 X57.924 Y57.384 E419.4569
G1 X57.384 Y57.924 E419.6970
G1 X56.790 Y58.405 E419.9372
G1 X56.150 Y58.821 E420.1772
G1 X55.469 Y59.168 E420.4173
G1 X54.755 Y59.442 E420.6575
G1 X54.018 Y59.640 E420.8975
G1 X53.263 Y59.759 E421.1376
G1 X52.495 Y59.799 E421.3794
G1 X-52.435 Y59.799 E454.3539
G0 X-52.625 Y59.738 F4800
G0 X-45.214 Y52.749
G0 X-45.201 Y52.500
G0 X-45.241 Y51.737
G0 X-45.360 Y50.982
G0 X-45.558 Y50.244
G0 X-45.832 Y49.531
G0 X-46.179 Y48.850
G0 X-46.595 Y48.209
G0 X-47.140 Y47.536
G0 X-44.628 Y45.023
G0 X-42.576 Y46.976
G0 X-40.757 Y48.546
G0 X-40.757 Y48.546
G0 X-40.220 Y49.009
G0 X-37.767 Y50.923
G0 X-35.223 Y52.715
G0 X-32.594 Y54.380
G0 X-29.886 Y55.913
G0 X-32.306 Y53.900
G0 X-34.912 Y52.250
G0 X-37.434 Y50.474
G0 X-39.866 Y48.576
G0 X-40.348 Y48.160
G0 X-40.348 Y48.160
G0 X-42.201 Y46.562
G0 X-44.232 Y44.628
G0 X-39.697 Y40.092
G0 X-38.226 Y41.524
G0 X-35.880 Y43.566
G0 X-35.659 Y43.739
G0 X-35.659 Y43.739
G0 X-33.425 Y45.477
G0 X-30.870 Y47.249
G0 X-28.220 Y48.878
G0 X-25.485 Y50.358
G0 X-22.672 Y51.686
G0 X-19.790 Y52.856
G0 X-16.848 Y53.866
G0 X-13.855 Y54.713
G0 X-10.820 Y55.393
G0 X-7.752 Y55.905
G0 X-4.661 Y56.247
G0 X-1.555 Y56.418
G0 X1.555 Y56.418
G0 X4.661 Y56.247
G0 X7.752 Y55.905
G0 X10.820 Y55.393
G0 X13.855 Y54.713
G0 X16.848 Y53.866
G0 X19.790 Y52.856
G0 X22.672 Y51.686
G0 X25.484 Y50.359
G0 X28.220 Y48.878
G0 X30.870 Y47.249
G0 X33.425 Y45.478
G0 X35.880 Y43.567
G0 X38.225 Y41.525
G0 X39.697 Y40.092
G0 X37.846 Y41.113
G0 X35.524 Y43.135
G0 X33.094 Y45.026
G0 X30.563 Y46.782
G0 X27.940 Y48.394
G0 X25.232 Y49.859
G0 X22.447 Y51.174
G0 X19.594 Y52.333
G0 X16.681 Y53.333
G0 X13.718 Y54.170
G0 X10.713 Y54.844
G0 X7.675 Y55.351
G0 X4.614 Y55.690
G0 X1.540 Y55.859
G0 X-1.540 Y55.859
G0 X-4.615 Y55.690
G0 X-7.676 Y55.351
G0 X-10.713 Y54.844
G0 X-13.718 Y54.170
G0 X-16.681 Y53.333
G0 X-19.594 Y52.333
G0 X-22.447 Y51.174
G0 X-25.232 Y49.859
G0 X-27.940 Y48.394
G0 X-30.564 Y46.781
G0 X-33.094 Y45.026
G0 X-35.247 Y43.351
G0 X-35.247 Y43.351
G0 X-35.525 Y43.135
G0 X-37.847 Y41.113
G0 X-39.302 Y39.697
G0 X-34.772 Y35.168
G0 X-33.871 Y36.069
G0 X-31.539 Y38.125
G0 X-30.533 Y38.905
G0 X-30.533 Y38.905
G0 X-29.083 Y40.030
G0 X-26.513 Y41.777
G0 X-23.836 Y43.359
G0 X-21.067 Y44.770
G0 X-18.215 Y46.005
G0 X-15.290 Y47.058
G0 X-12.305 Y47.925
G0 X-9.272 Y48.603
G0 X-6.202 Y49.089
G0 X-3.107 Y49.382
G0 X0.000 Y49.480
G0 X3.107 Y49.382
G0 X6.202 Y49.089
G0 X9.271 Y48.603
G0 X12.305 Y47.925
G0 X15.290 Y47.058
G0 X18.214 Y46.005
G0 X21.068 Y44.770
G0 X18.009 Y45.485
G0 X15.117 Y46.526
G0 X12.166 Y47.384
G0 X9.167 Y48.054
G0 X6.131 Y48.535
G0 X3.072 Y48.824
G0 X0.000 Y48.921
G0 X-3.072 Y48.824
G0 X-6.131 Y48.535
G0 X-9.167 Y48.054
G0 X-12.166 Y47.384
G0 X-15.117 Y46.526
G0 X-18.009 Y45.485
G0 X-20.829 Y44.265
G0 X-23.568 Y42.869
G0 X-26.213 Y41.305
G0 X-28.755 Y39.578
G0 X-30.122 Y38.517
G0 X-30.122 Y38.517
G0 X-31.183 Y37.694
G0 X-33.488 Y35.662
G0 X-34.377 Y34.773
G0 X-29.857 Y30.252
G0 X-29.512 Y30.610
G0 X-27.199 Y32.682
G0 X-25.404 Y34.068
G0 X-25.404 Y34.068
G0 X-24.740 Y34.580
G0 X-22.150 Y36.294
G0 X-19.441 Y37.815
G0 X-16.629 Y39.133
G0 X-13.729 Y40.242
G0 X-10.755 Y41.137
G0 X-7.723 Y41.812
G0 X-4.651 Y42.264
G0 X-1.553 Y42.491
G0 X1.553 Y42.491
G0 X4.650 Y42.264
G0 X7.723 Y41.812
G0 X10.754 Y41.137
G0 X13.729 Y40.242
G0 X16.630 Y39.133
G0 X19.441 Y37.815
G0 X22.150 Y36.295
G0 X24.740 Y34.581
G0 X21.859 Y35.817
G0 X19.186 Y37.317
G0 X16.411 Y38.618
G0 X13.548 Y39.713
G0 X10.613 Y40.596
G0 X7.622 Y41.262
G0 X4.589 Y41.709
G0 X1.533 Y41.932
G0 X-1.533 Y41.932
G0 X-4.589 Y41.709
G0 X-7.622 Y41.262
G0 X-10.613 Y40.596
G0 X-13.548 Y39.713
G0 X-16.411 Y38.618
G0 X-19.186 Y37.317
G0 X-21.859 Y35.817
G0 X-24.415 Y34.126
G0 X-24.992 Y33.680
G0 X-24.992 Y33.680
G0 X-26.841 Y32.253
G0 X-29.124 Y30.208
G0 X-29.462 Y29.857
G0 X-24.938 Y25.333
G0 X-22.857 Y27.240
G0 X-20.396 Y29.129
G0 X-20.258 Y29.216
G0 X-20.258 Y29.216
G0 X-17.780 Y30.795
G0 X-15.028 Y32.228
G0 X-12.162 Y33.415
G0 X-9.203 Y34.348
G0 X-6.175 Y35.019
G0 X-3.099 Y35.424
G0 X0.000 Y35.559
G0 X3.099 Y35.424
G0 X6.175 Y35.019
G0 X3.051 Y34.867
G0 X0.000 Y35.001
G0 X-3.051 Y34.867
G0 X-6.078 Y34.469
G0 X-9.059 Y33.808
G0 X-11.971 Y32.890
G0 X-14.792 Y31.721
G0 X-17.500 Y30.311
G0 X-19.839 Y28.821
G0 X-19.839 Y28.821
G0 X-20.076 Y28.671
G0 X-22.498 Y26.812
G0 X-24.543 Y24.938
G0 X-19.998 Y20.393
G0 X-18.515 Y21.797
G0 X-16.050 Y23.671
G0 X-15.029 Y24.285
G0 X-15.029 Y24.285
G0 X-14.608 Y23.888
G0 X-14.608 Y23.888
G0 X-15.736 Y23.209
G0 X-18.153 Y21.372
G0 X-19.603 Y19.998
G0 X-15.065 Y15.460
G0 X-14.171 Y16.354
G0 X-11.699 Y18.204
G0 X-9.724 Y19.282
G0 X-9.724 Y19.282
G0 X-9.298 Y18.881
G0 X-9.298 Y18.881
G0 X-11.397 Y17.734
G0 X-13.805 Y15.932
G0 X-14.671 Y15.066
G0 X-10.149 Y10.545
G0 X-9.822 Y10.908
G0 X-7.340 Y12.712
G0 X-4.536 Y13.960
G0 X-4.164 Y14.039
G0 X-4.164 Y14.039
G0 X-1.534 Y14.598
G0 X1.534 Y14.598
G0 X4.536 Y13.960
G0 X7.339 Y12.712
G0 X9.822 Y10.908
G0 X10.149 Y10.545
G0 X9.449 Y10.494
G0 X7.061 Y12.230
G0 X4.363 Y13.430
G0 X1.476 Y14.044
G0 X-1.476 Y14.044
G0 X-3.674 Y13.577
G0 X-3.674 Y13.577
G0 X-1.476 Y14.044
G0 X1.476 Y14.044
G0 X4.363 Y13.430
G0 X7.061 Y12.230
G0 X9.449 Y10.494
G0 X9.757 Y10.152
G0 X5.219 Y5.614
G0 X3.680 Y6.642
G0 X3.680 Y6.642
G0 X5.208 Y5.201
;segType:Loop
G0 X5.199 Y5.210
G1 X5.166 Y5.229 E454.3622 F1800
G1 X5.207 Y5.114 E454.3951
;segType:Perimeter
G0 X5.261 Y5.657 F4800
G1 X9.757 Y10.152 E456.3931 F900
G1 X9.449 Y10.494 E456.5377
G1 X7.061 Y12.230 E457.4654
G1 X4.363 Y13.430 E458.3932
G1 X1.476 Y14.044 E459.3209
G1 X-1.476 Y14.044 E460.2486
G1 X-4.364 Y13.430 E461.1764
G1 X-7.060 Y12.230 E462.1040
G1 X-9.449 Y10.494 E463.0318
G1 X-9.757 Y10.152 E463.1765
G1 X-5.219 Y5.614 E465.1933
G1 X-2.953 Y7.128 E466.0498
G1 X0.000 Y7.716 E466.9959
G1 X2.953 Y7.128 E467.9419
G1 X5.169 Y5.648 E468.7795
G0 X5.173 Y5.225 F4800
G0 X5.174 Y5.208
G0 X5.174 Y5.208
G0 X5.174 Y5.186
G0 X5.174 Y5.186
G0 X5.174 Y5.182
G0 X5.174 Y5.182
G0 X5.286 Y-5.161
G0 X5.286 Y-5.161
G0 X5.286 Y-5.161
G0 X5.286 Y-5.161
G0 X5.286 Y-5.161
G0 X5.286 Y-5.174
;segType:Loop
G0 X5.286 Y-5.161
G1 X5.269 Y-5.165 E468.7834 F1800
G0 X5.269 Y-5.165 F4800
G0 X5.181 Y-5.198
G0 X5.181 Y-5.198
G0 X-0.150 Y-7.196
;segType:Perimeter
G0 X-0.137 Y-7.192
G1 X0.059 Y-7.153 E468.8463 F900
G1 X2.742 Y-6.619 E469.7060
G1 X4.796 Y-5.246 E470.4823
G1 X4.801 Y-5.196 E470.4982
G1 X0.000 Y-0.395 E472.6317
G1 X-4.801 Y-5.196 E474.7653
G1 X-4.796 Y-5.246 E474.7812
G1 X-2.742 Y-6.619 E475.5576
G1 X-0.059 Y-7.153 E476.4171
G0 X-5.168 Y-5.258 F4800
G0 X-5.179 Y-5.253
G0 X-5.179 Y-5.253
G0 X-5.192 Y-5.249
;segType:Loop
G0 X-5.179 Y-5.253
G0 X-5.161 Y-5.286 F4800
G0 X-5.187 Y-5.171
G1 X-5.114 Y-5.207 E476.4391 F1800
G1 X-5.134 Y-5.200 E476.4447
;segType:Perimeter
G0 X-9.851 Y-10.048 F4800
G1 X-9.717 Y-10.197 E476.5075 F900
G1 X-9.449 Y-10.494 E476.6333
G1 X-7.061 Y-12.230 E477.5610
G1 X-4.364 Y-13.430 E478.4888
G1 X-1.476 Y-14.044 E479.4165
G1 X1.476 Y-14.044 E480.3443
G1 X4.363 Y-13.430 E481.2719
G1 X7.061 Y-12.229 E482.1998
G1 X9.174 Y-10.694 E483.0207
G1 X9.469 Y-10.473 E483.1364
G1 X9.757 Y-10.152 E483.2719
G1 X5.219 Y-5.614 E485.2887
G1 X2.953 Y-7.128 E486.1452
G1 X0.000 Y-7.716 E487.0912
G1 X-2.953 Y-7.128 E488.0373
G1 X-5.219 Y-5.614 E488.8939
G1 X-9.715 Y-10.110 E490.8919
G0 X-9.715 Y-10.110 F4800
G0 X-5.614 Y-5.219
G0 X-9.381 Y-8.986
G0 X-9.381 Y-8.986
G0 X-5.614 Y-5.219
G0 X-7.128 Y-2.953
G0 X-7.315 Y-2.016
G0 X-7.315 Y-2.016
G0 X-6.619 Y-2.742
G0 X-6.985 Y-0.903
G0 X-6.985 Y-0.903
G0 X-7.164 Y0.000
G0 X-6.619 Y2.742
G0 X-5.333 Y4.666
G0 X-5.333 Y4.666
G0 X-5.163 Y5.241
;segType:Loop
G0 X-5.166 Y5.229
G1 X-5.207 Y5.114 E490.9248 F1800
G1 X-5.185 Y5.137 E490.9313
;segType:Perimeter
G0 X-0.099 Y0.296 F4800
G1 X0.042 Y0.438 E490.9941 F900
G1 X4.801 Y5.196 E493.1089
G1 X4.796 Y5.246 E493.1247
G1 X2.742 Y6.619 E493.9011
G1 X0.000 Y7.164 E494.7795
G1 X-2.742 Y6.619 E495.6580
G1 X-4.796 Y5.246 E496.4343
G1 X-4.801 Y5.196 E496.4502
G1 X-0.042 Y0.438 E498.5649
G0 X0.099 Y0.296 F4800
G0 X0.008 Y0.403
G0 X0.000 Y0.395
G0 X-4.801 Y5.196
G0 X-4.796 Y5.246
G0 X-4.366 Y5.534
G0 X-4.366 Y5.534
G0 X-4.719 Y5.948
G0 X-4.719 Y5.948
G0 X-5.219 Y5.614
G0 X-9.757 Y10.152
G0 X-9.449 Y10.494
G0 X-8.922 Y10.877
G0 X-8.922 Y10.877
G0 X-7.060 Y12.230
G0 X-4.364 Y13.430
G0 X-1.476 Y14.044
G0 X1.476 Y14.044
G0 X4.363 Y13.430
G0 X7.061 Y12.230
G0 X9.449 Y10.494
G0 X10.149 Y10.545
G0 X9.822 Y10.908
G0 X7.339 Y12.712
G0 X4.536 Y13.960
G0 X1.534 Y14.598
G0 X-1.534 Y14.598
G0 X-4.536 Y13.960
G0 X-7.340 Y12.712
G0 X-9.283 Y11.300
G0 X-9.283 Y11.300
G0 X-9.822 Y10.908
G0 X-10.149 Y10.545
G0 X-14.671 Y15.066
G0 X-13.805 Y15.932
G0 X-13.455 Y16.194
G0 X-13.455 Y16.194
G0 X-13.805 Y15.932
G0 X-14.671 Y15.066
G0 X-14.171 Y16.354
G0 X-13.817 Y16.618
G0 X-13.817 Y16.618
G0 X-14.171 Y16.354
G0 X-15.065 Y15.460
G0 X-19.603 Y19.998
G0 X-18.153 Y21.372
G0 X-17.981 Y21.502
G0 X-17.981 Y21.502
G0 X-18.344 Y21.927
G0 X-18.344 Y21.927
G0 X-18.515 Y21.797
G0 X-19.998 Y20.393
G0 X-24.543 Y24.938
G0 X-22.504 Y26.807
G0 X-22.504 Y26.807
G0 X-22.498 Y26.812
G0 X-20.076 Y28.671
G0 X-17.500 Y30.311
G0 X-14.792 Y31.721
G0 X-11.971 Y32.890
G0 X-9.059 Y33.808
G0 X-6.078 Y34.469
G0 X-3.051 Y34.867
G0 X0.000 Y35.001
G0 X3.051 Y34.867
G0 X6.175 Y35.019
G0 X3.099 Y35.424
G0 X0.000 Y35.559
G0 X-3.099 Y35.424
G0 X-6.175 Y35.019
G0 X-9.203 Y34.348
G0 X-12.162 Y33.415
G0 X-15.028 Y32.228
G0 X-17.780 Y30.795
G0 X-20.396 Y29.129
G0 X-22.857 Y27.240
G0 X-22.866 Y27.232
G0 X-22.866 Y27.232
G0 X-27.014 Y32.097
G0 X-27.014 Y32.097
G0 X-26.841 Y32.253
G0 X-24.415 Y34.126
G0 X-21.859 Y35.817
G0 X-19.186 Y37.317
G0 X-16.411 Y38.618
G0 X-13.548 Y39.713
G0 X-10.613 Y40.596
G0 X-7.622 Y41.262
G0 X-4.589 Y41.709
G0 X-1.533 Y41.932
G0 X1.533 Y41.932
G0 X4.589 Y41.709
G0 X7.622 Y41.262
G0 X10.613 Y40.596
G0 X13.548 Y39.713
G0 X16.411 Y38.618
G0 X19.186 Y37.317
G0 X21.859 Y35.817
G0 X24.740 Y34.581
G0 X22.150 Y36.295
G0 X19.441 Y37.815
G0 X16.630 Y39.133
G0 X13.729 Y40.242
G0 X10.754 Y41.137
G0 X7.723 Y41.812
G0 X4.650 Y42.264
G0 X1.553 Y42.491
G0 X-1.553 Y42.491
G0 X-4.651 Y42.264
G0 X-7.723 Y41.812
G0 X-10.755 Y41.137
G0 X-13.729 Y40.242
G0 X-16.629 Y39.133
G0 X-19.441 Y37.815
G0 X-22.150 Y36.294
G0 X-24.740 Y34.580
G0 X-27.199 Y32.682
G0 X-27.377 Y32.523
G0 X-27.377 Y32.523
G0 X-29.512 Y30.610
G0 X-29.857 Y30.252
G0 X-34.377 Y34.773
G0 X-33.488 Y35.662
G0 X-31.527 Y37.390
G0 X-31.527 Y37.390
G0 X-31.183 Y37.694
G0 X-28.755 Y39.578
G0 X-26.213 Y41.305
G0 X-23.568 Y42.869
G0 X-20.829 Y44.265
G0 X-18.009 Y45.485
G0 X-15.117 Y46.526
G0 X-12.166 Y47.384
G0 X-9.167 Y48.054
G0 X-6.131 Y48.535
G0 X-3.072 Y48.824
G0 X0.000 Y48.921
G0 X3.072 Y48.824
G0 X6.131 Y48.535
G0 X9.167 Y48.054
G0 X12.166 Y47.384
G0 X15.117 Y46.526
G0 X18.009 Y45.485
G0 X21.068 Y44.770
G0 X18.214 Y46.005
G0 X15.290 Y47.058
G0 X12.305 Y47.925
G0 X9.271 Y48.603
G0 X6.202 Y49.089
G0 X3.107 Y49.382
G0 X0.000 Y49.480
G0 X-3.107 Y49.382
G0 X-6.202 Y49.089
G0 X-9.272 Y48.603
G0 X-12.305 Y47.925
G0 X-15.290 Y47.058
G0 X-18.215 Y46.005
G0 X-21.067 Y44.770
G0 X-23.836 Y43.359
G0 X-26.513 Y41.777
G0 X-29.083 Y40.030
G0 X-31.539 Y38.125
G0 X-31.890 Y37.816
G0 X-31.890 Y37.816
G0 X-33.871 Y36.069
G0 X-34.772 Y35.168
G0 X-39.302 Y39.697
G0 X-37.847 Y41.113
G0 X-36.041 Y42.685
G0 X-36.041 Y42.685
G0 X-35.525 Y43.135
G0 X-33.094 Y45.026
G0 X-30.564 Y46.781
G0 X-27.940 Y48.394
G0 X-25.232 Y49.859
G0 X-22.447 Y51.174
G0 X-19.594 Y52.333
G0 X-16.681 Y53.333
G0 X-13.718 Y54.170
G0 X-10.713 Y54.844
G0 X-7.676 Y55.351
G0 X-4.615 Y55.690
G0 X-1.540 Y55.859
G0 X1.540 Y55.859
G0 X4.614 Y55.690
G0 X7.675 Y55.351
G0 X10.713 Y54.844
G0 X13.718 Y54.170
G0 X16.681 Y53.333
G0 X19.594 Y52.333
G0 X22.447 Y51.174
G0 X25.232 Y49.859
G0 X27.940 Y48.394
G0 X30.563 Y46.782
G0 X33.094 Y45.026
G0 X35.524 Y43.135
G0 X37.846 Y41.113
G0 X39.697 Y40.092
G0 X38.225 Y41.525
G0 X35.880 Y43.567
G0 X33.425 Y45.478
G0 X30.870 Y47.249
G0 X28.220 Y48.878
G0 X25.484 Y50.359
G0 X22.672 Y51.686
G0 X19.790 Y52.856
G0 X16.848 Y53.866
G0 X13.855 Y54.713
G0 X10.820 Y55.393
G0 X7.752 Y55.905
G0 X4.661 Y56.247
G0 X1.555 Y56.418
G0 X-1.555 Y56.418
G0 X-4.661 Y56.247
G0 X-7.752 Y55.905
G0 X-10.820 Y55.393
G0 X-13.855 Y54.713
G0 X-16.848 Y53.866
G0 X-19.790 Y52.856
G0 X-22.672 Y51.686
G0 X-25.485 Y50.358
G0 X-28.220 Y48.878
G0 X-30.870 Y47.249
G0 X-33.425 Y45.477
G0 X-35.880 Y43.566
G0 X-36.404 Y43.110
G0 X-36.404 Y43.110
G0 X-38.226 Y41.524
G0 X-39.697 Y40.092
G0 X-44.232 Y44.628
G0 X-42.201 Y46.562
G0 X-40.556 Y47.980
G0 X-40.556 Y47.980
G0 X-39.866 Y48.576
G0 X-37.434 Y50.474
G0 X-34.912 Y52.250
G0 X-32.306 Y53.900
G0 X-29.886 Y55.913
G0 X-32.594 Y54.380
G0 X-35.223 Y52.715
G0 X-37.767 Y50.923
G0 X-40.220 Y49.009
G0 X-40.919 Y48.406
G0 X-40.919 Y48.406
G0 X-42.576 Y46.976
G0 X-44.628 Y45.023
G0 X-47.140 Y47.536
G0 X-46.595 Y48.209
G0 X-46.179 Y48.850
G0 X-45.832 Y49.531
G0 X-45.558 Y50.244
G0 X-45.360 Y50.982
G0 X-45.241 Y51.737
G0 X-45.201 Y52.500
G0 X-45.234 Y53.138
G0 X-45.072 Y53.276
G0 X-45.072 Y53.276
G0 X-45.302 Y53.546
;segType:Loop
G0 X-45.293 Y53.536
G1 X-45.456 Y53.537 E498.6222 F1800
G1 X-45.693 Y53.335 E498.7319
G1 X-45.649 Y52.500 E499.0260
G1 X-45.687 Y51.784 E499.2784
G1 X-45.799 Y51.076 E499.5308
G1 X-45.985 Y50.383 E499.7832
G1 X-46.242 Y49.714 E500.0355
G1 X-46.567 Y49.075 E500.2879
G1 X-46.958 Y48.473 E500.5404
G1 X-47.564 Y47.725 E500.8792
G1 X-47.725 Y47.564 E500.9596
G1 X-48.473 Y46.958 E501.2984
G1 X-49.075 Y46.567 E501.5509
G1 X-49.714 Y46.241 E501.8032
G1 X-50.383 Y45.985 E502.0556
G1 X-51.076 Y45.799 E502.3080
G1 X-51.784 Y45.687 E502.5604
G1 X-52.500 Y45.649 E502.8127
G1 X-53.357 Y45.694 E503.1147
G1 X-53.539 Y45.297 E503.1928
G1 X-53.531 Y45.343 E503.2028
G1 X-53.509 Y45.457 E503.2379
G1 X-53.800 Y45.766 E503.3871
G1 X-54.617 Y45.985 E503.6848
G1 X-55.287 Y46.242 E503.9373
G1 X-55.925 Y46.567 E504.1896
G1 X-56.527 Y46.958 E504.4420
G1 X-57.084 Y47.409 E504.6944
G1 X-58.027 Y48.352 E505.1638
G1 X-58.722 Y48.065 E505.4282
G1 X-58.729 Y39.352 E508.4947
G1 X-58.371 Y39.174 E508.6763
G1 X-58.257 Y39.214 E508.7176
G1 X-58.143 Y39.254 E508.7452
G0 X-58.158 Y39.248 F4800
G1 X-58.274 Y39.202 E508.7889 F1800
G1 X-58.728 Y38.533 E509.0736
G1 X-58.728 Y25.011 E513.8327
G1 X-58.257 Y24.912 E514.0023
G1 X-58.143 Y24.909 E514.0388
G1 X-58.029 Y24.967 E514.0634
G0 X-58.076 Y24.943 F4800
G0 X-58.183 Y24.888
G1 X-58.227 Y24.771 E514.1076 F1800
G1 X-58.471 Y24.220 E514.3197
G1 X-58.728 Y23.552 E514.5714
G1 X-58.728 Y-23.552 E531.1507
G1 X-58.471 Y-24.220 E531.4024
G1 X-58.020 Y-25.237 E531.7940
G1 X-58.057 Y-25.341 E531.8330
G1 X-58.728 Y-25.704 E532.1016
G1 X-58.728 Y-38.533 E536.6169
G1 X-58.263 Y-39.218 E536.9082
G1 X-58.139 Y-39.255 E536.9373
G1 X-58.143 Y-39.254 E536.9382
G1 X-58.257 Y-39.214 E536.9796
G1 X-58.371 Y-39.174 E537.0346
G1 X-58.728 Y-39.352 E537.1751
G1 X-58.728 Y-48.073 E540.2445
G1 X-58.033 Y-48.360 E540.5093
G1 X-57.084 Y-47.409 E540.9825
G1 X-56.556 Y-46.981 E541.2215
G1 X-55.955 Y-46.587 E541.4745
G1 X-55.321 Y-46.260 E541.7256
G1 X-54.546 Y-45.966 E542.0174
G1 X-53.553 Y-45.699 E542.3792
G1 X-53.535 Y-45.319 E542.4538
G1 X-53.533 Y-45.478 E542.5100
G1 X-53.357 Y-45.694 E542.6081
G1 X-52.500 Y-45.649 E542.9101
G1 X-51.784 Y-45.687 E543.1624
G1 X-51.076 Y-45.799 E543.4148
G1 X-50.383 Y-45.985 E543.6673
G1 X-49.713 Y-46.242 E543.9196
G1 X-49.075 Y-46.567 E544.1720
G1 X-48.473 Y-46.958 E544.4245
G1 X-47.711 Y-47.575 E544.7698
G1 X-47.552 Y-47.740 E544.8502
G1 X-46.958 Y-48.473 E545.1825
G1 X-46.567 Y-49.075 E545.4348
G1 X-46.241 Y-49.714 E545.6872
G1 X-45.985 Y-50.383 E545.9396
G1 X-45.799 Y-51.076 E546.1920
G1 X-45.687 Y-51.784 E546.4444
G1 X-45.649 Y-52.500 E546.6967
G1 X-45.693 Y-53.335 E546.9909
G1 X-45.442 Y-53.550 E547.1073
G1 X-45.343 Y-53.526 E547.1300
G1 X-45.457 Y-53.503 E547.1663
G1 X-45.750 Y-53.743 E547.2998
G1 X-45.966 Y-54.547 E547.5926
G1 X-46.259 Y-55.321 E547.8841
G1 X-46.587 Y-55.955 E548.1354
G1 X-46.980 Y-56.554 E548.3877
G1 X-47.435 Y-57.110 E548.6405
G1 X-48.360 Y-58.033 E549.1004
G1 X-48.073 Y-58.728 E549.3651
G1 X-39.380 Y-58.728 E552.4246
G1 X-39.214 Y-58.314 E552.6039
G1 X-39.255 Y-58.200 E552.6386
G1 X-39.192 Y-58.291 E552.6774
G1 X-38.517 Y-58.728 E552.9607
G1 X-25.011 Y-58.728 E557.7142
G1 X-24.924 Y-58.314 E557.8632
G1 X-24.879 Y-58.200 E557.9101
G1 X-24.938 Y-58.086 E557.9430
G1 X-24.864 Y-58.185 E557.9865
G1 X-24.220 Y-58.471 E558.2345
G1 X-23.552 Y-58.728 E558.4865
G1 X23.552 Y-58.728 E575.0657
G1 X24.219 Y-58.471 E575.3173
G1 X25.218 Y-58.028 E575.7019
G1 X25.334 Y-58.091 E575.7481
G1 X25.718 Y-58.728 E576.0102
G1 X38.517 Y-58.728 E580.5150
G1 X39.208 Y-58.280 E580.8050
G1 X39.264 Y-58.174 E580.8361
G1 X39.255 Y-58.200 E580.8439
G1 X39.214 Y-58.314 E580.8927
G1 X39.380 Y-58.728 E581.0497
G1 X48.073 Y-58.728 E584.1093
G1 X48.360 Y-58.033 E584.3740
G1 X47.409 Y-57.084 E584.8472
G1 X46.958 Y-56.527 E585.0995
G1 X46.567 Y-55.925 E585.3520
G1 X46.242 Y-55.287 E585.6042
G1 X45.985 Y-54.617 E585.8566
G1 X45.699 Y-53.550 E586.2453
G0 X45.400 Y-53.514 F4800
G0 X45.286 Y-53.538
G1 X45.293 Y-53.536 E586.2467 F1800
G1 X45.456 Y-53.537 E586.3040
G1 X45.693 Y-53.335 E586.4137
G1 X45.653 Y-52.560 E586.6866
G1 X45.693 Y-51.746 E586.9736
G1 X45.808 Y-51.041 E587.2249
G1 X45.998 Y-50.350 E587.4772
G1 X46.258 Y-49.681 E587.7297
G1 X46.586 Y-49.046 E587.9813
G1 X47.004 Y-48.416 E588.2475
G1 X47.564 Y-47.725 E588.5604
G1 X47.725 Y-47.564 E588.6408
G1 X48.473 Y-46.958 E588.9796
G1 X49.075 Y-46.567 E589.2321
G1 X49.714 Y-46.241 E589.4845
G1 X50.383 Y-45.985 E589.7368
G1 X51.076 Y-45.799 E589.9892
G1 X51.784 Y-45.687 E590.2416
G1 X52.500 Y-45.649 E590.4940
G1 X53.357 Y-45.694 E590.7959
G1 X53.545 Y-45.464 E590.9006
G1 X53.539 Y-45.297 E590.9304
G1 X53.553 Y-45.699 E591.0723
G1 X54.617 Y-45.985 E591.4600
G1 X55.287 Y-46.242 E591.7124
G1 X55.925 Y-46.567 E591.9646
G1 X56.527 Y-46.958 E592.2171
G1 X57.084 Y-47.409 E592.4694
G1 X58.033 Y-48.360 E592.9425
G1 X58.728 Y-48.073 E593.2073
G1 X58.728 Y-39.352 E596.2768
G0 X58.314 Y-39.194 F4800
G0 X58.200 Y-39.234
G1 X58.159 Y-39.248 E596.2875 F1800
G1 X58.273 Y-39.202 E596.3311
G1 X58.728 Y-38.533 E596.6159
G1 X58.728 Y-25.718 E601.1262
G1 X58.091 Y-25.334 E601.3883
G1 X58.028 Y-25.218 E601.4345
G1 X58.471 Y-24.220 E601.8189
G1 X58.728 Y-23.552 E602.0707
G1 X58.728 Y23.552 E618.6499
G1 X58.471 Y24.220 E618.9018
G1 X58.185 Y24.864 E619.1498
G1 X58.086 Y24.938 E619.1815
G1 X58.200 Y24.879 E619.2306
G1 X58.314 Y24.924 E619.2738
G1 X58.728 Y25.011 E619.4228
G1 X58.728 Y38.533 E624.1820
G1 X58.284 Y39.186 E624.4599
G1 X58.200 Y39.234 E624.4875
G1 X58.314 Y39.194 E624.5357
G1 X58.728 Y39.352 E624.6917
G1 X58.728 Y48.073 E627.7611
G1 X58.033 Y48.360 E628.0259
G1 X57.084 Y47.409 E628.4990
G1 X56.527 Y46.958 E628.7514
G1 X55.925 Y46.567 E629.0037
G1 X55.287 Y46.241 E629.2561
G1 X54.617 Y45.985 E629.5084
G1 X53.743 Y45.750 E629.8270
G1 X53.509 Y45.457 E629.9399
G1 X53.531 Y45.343 E629.9647
G1 X53.557 Y45.450 E630.0034
G1 X53.357 Y45.694 E630.1147
G1 X52.500 Y45.649 E630.4168
G1 X51.784 Y45.687 E630.6692
G1 X51.076 Y45.799 E630.9215
G1 X50.383 Y45.985 E631.1739
G1 X49.714 Y46.241 E631.4263
G1 X49.075 Y46.567 E631.6787
G1 X48.473 Y46.958 E631.9311
G1 X47.740 Y47.552 E632.2633
G1 X47.575 Y47.711 E632.3437
G1 X46.958 Y48.473 E632.6891
G1 X46.567 Y49.075 E632.9416
G1 X46.242 Y49.713 E633.1939
G1 X45.985 Y50.383 E633.4463
G1 X45.799 Y51.076 E633.6987
G1 X45.687 Y51.784 E633.9512
G1 X45.649 Y52.500 E634.2035
G1 X45.693 Y53.335 E634.4976
G1 X45.470 Y53.525 E634.6007
G1 X45.315 Y53.532 E634.6320
G1 X45.286 Y53.538 E634.6374
G1 X45.400 Y53.514 E634.6686
G1 X45.699 Y53.550 E634.7746
G1 X45.966 Y54.547 E635.1375
G1 X46.259 Y55.321 E635.4290
G1 X46.587 Y55.955 E635.6803
G1 X46.980 Y56.555 E635.9326
G1 X47.435 Y57.110 E636.1853
G1 X48.360 Y58.033 E636.6452
G1 X48.073 Y58.728 E636.9100
G1 X39.380 Y58.728 E639.9695
G1 X39.194 Y58.371 E640.1547
G1 X39.235 Y58.257 E640.1964
G1 X39.275 Y58.143 E640.2241
G0 X39.271 Y58.155 F4800
G1 X39.224 Y58.270 E640.2678 F1800
G1 X38.517 Y58.728 E640.5645
G1 X25.704 Y58.728 E645.0742
G1 X25.341 Y58.057 E645.3429
G1 X25.321 Y57.943 E645.3770
G1 X25.237 Y58.020 E645.4173
G1 X24.220 Y58.471 E645.8088
G1 X23.552 Y58.728 E646.0606
G1 X-23.552 Y58.728 E662.6398
G1 X-24.219 Y58.471 E662.8914
G1 X-24.771 Y58.227 E663.1035
G0 X-24.888 Y58.183 F4800
G0 X-24.943 Y58.076
G1 X-24.967 Y58.029 E663.1138 F1800
G1 X-24.909 Y58.143 E663.1548
G1 X-24.912 Y58.257 E663.1950
G1 X-25.011 Y58.728 E663.3646
G1 X-38.517 Y58.728 E668.1181
G1 X-39.208 Y58.280 E668.4081
G1 X-39.264 Y58.174 E668.4392
G1 X-39.275 Y58.143 E668.4469
G1 X-39.235 Y58.257 E668.4886
G1 X-39.194 Y58.371 E668.5444
G1 X-39.380 Y58.728 E668.6861
G1 X-48.073 Y58.728 E671.7457
G1 X-48.361 Y58.033 E672.0105
G1 X-47.409 Y57.084 E672.4837
G1 X-46.958 Y56.527 E672.7359
G1 X-46.567 Y55.925 E672.9884
G1 X-46.242 Y55.287 E673.2407
G1 X-45.985 Y54.617 E673.4931
G1 X-45.766 Y53.800 E673.7908
G1 X-45.457 Y53.503 E673.9243
G1 X-45.343 Y53.526 E673.9503
;segType:Perimeter
G0 X-45.339 Y53.784 F4800
G1 X-45.187 Y53.914 E674.0131 F900
G1 X-44.560 Y54.450 E674.2724
G1 X-42.108 Y56.368 E675.2506
G1 X-39.655 Y58.118 E676.1976
G1 X-39.707 Y58.280 E676.2513
G1 X-47.773 Y58.280 E678.7862
G1 X-47.832 Y58.139 E678.8344
G1 X-47.076 Y57.384 E679.1702
G1 X-46.595 Y56.790 E679.4102
G1 X-46.178 Y56.150 E679.6504
G1 X-45.832 Y55.469 E679.8904
G1 X-45.558 Y54.756 E680.1305
G1 X-45.330 Y53.905 E680.4072
G1 X-45.290 Y53.893 E680.4204
;segType:Loop
G0 X-50.359 Y50.655 F4800
G1 X-49.847 Y51.453 E680.7539 F1800
G1 X-49.639 Y52.500 E681.1295
G1 X-49.857 Y53.595 E681.5225
G1 X-50.477 Y54.523 E681.9154
G1 X-51.405 Y55.143 E682.3083
G1 X-52.500 Y55.361 E682.7012
G1 X-53.595 Y55.143 E683.0941
G1 X-54.523 Y54.523 E683.4870
G1 X-55.143 Y53.595 E683.8800
G1 X-55.361 Y52.500 E684.2729
G1 X-55.143 Y51.405 E684.6658
G1 X-54.523 Y50.477 E685.0586
G1 X-53.636 Y49.884 E685.4342
G1 X-52.555 Y49.647 E685.8238
G1 X-51.459 Y49.844 E686.2157
G1 X-50.571 Y50.412 E686.5868
G1 X-50.483 Y50.501 E686.6306
G0 X-51.597 Y50.287 F4800
G0 X-52.550 Y50.105
G0 X-52.550 Y50.105
G0 X-52.697 Y50.077
;segType:Perimeter
G0 X-52.684 Y50.079
G1 X-52.487 Y50.115 E686.6934 F900
G1 X-51.626 Y50.269 E686.9684
G1 X-50.854 Y50.764 E687.2565
G1 X-50.764 Y50.854 E687.2966
G1 X-50.270 Y51.624 E687.5840
G1 X-50.096 Y52.500 E687.8647
G1 X-50.279 Y53.420 E688.1596
G1 X-50.800 Y54.200 E688.4544
G1 X-51.580 Y54.721 E688.7491
G1 X-52.500 Y54.904 E689.0439
G1 X-53.420 Y54.721 E689.3387
G1 X-54.200 Y54.200 E689.6335
G1 X-54.721 Y53.420 E689.9283
G1 X-54.904 Y52.500 E690.2231
G1 X-54.721 Y51.580 E690.5179
G1 X-54.200 Y50.800 E690.8126
G1 X-53.457 Y50.304 E691.0934
G1 X-52.605 Y50.117 E691.3678
G0 X-52.409 Y50.074 F4800
G0 X-52.320 Y45.210
G0 X-51.737 Y45.241
G0 X-50.982 Y45.360
G0 X-50.244 Y45.558
G0 X-49.531 Y45.832
G0 X-48.850 Y46.179
G0 X-48.209 Y46.595
G0 X-47.536 Y47.140
G0 X-45.023 Y44.628
G0 X-46.976 Y42.577
G0 X-49.009 Y40.220
G0 X-50.923 Y37.767
G0 X-52.151 Y36.024
G0 X-52.151 Y36.024
G0 X-52.715 Y35.223
G0 X-54.380 Y32.594
G0 X-55.421 Y29.623
G0 X-53.900 Y32.307
G0 X-52.250 Y34.912
G0 X-52.133 Y35.078
G0 X-52.133 Y35.078
G0 X-50.474 Y37.434
G0 X-48.576 Y39.865
G0 X-46.561 Y42.201
G0 X-44.628 Y44.232
G0 X-40.098 Y39.702
G0 X-40.455 Y39.355
G0 X-42.561 Y37.067
G0 X-44.539 Y34.666
G0 X-46.381 Y32.159
G0 X-48.082 Y29.556
G0 X-49.637 Y26.862
G0 X-51.041 Y24.087
G0 X-51.895 Y22.141
G0 X-51.895 Y22.141
G0 X-51.041 Y24.087
G0 X-49.637 Y26.862
G0 X-48.082 Y29.556
G0 X-46.381 Y32.159
G0 X-44.539 Y34.666
G0 X-42.561 Y37.067
G0 X-40.455 Y39.355
G0 X-40.098 Y39.702
G0 X-40.054 Y38.965
G0 X-42.140 Y36.699
G0 X-44.098 Y34.323
G0 X-45.922 Y31.841
G0 X-47.606 Y29.263
G0 X-49.145 Y26.596
G0 X-50.536 Y23.849
G0 X-51.773 Y21.028
G0 X-51.870 Y20.769
G0 X-51.870 Y20.769
G0 X-52.853 Y18.144
G0 X-53.772 Y15.205
G0 X-54.528 Y12.220
G0 X-55.118 Y9.198
G0 X-55.541 Y6.147
G0 X-55.795 Y3.078
G0 X-55.880 Y0.000
G0 X-55.795 Y-3.078
G0 X-55.541 Y-6.147
G0 X-55.118 Y-9.198
G0 X-54.528 Y-12.220
G0 X-53.772 Y-15.205
G0 X-52.853 Y-18.144
G0 X-51.773 Y-21.028
G0 X-51.072 Y-22.627
G0 X-51.072 Y-22.627
G0 X-51.773 Y-21.028
G0 X-52.853 Y-18.144
G0 X-53.772 Y-15.205
G0 X-54.528 Y-12.220
G0 X-55.118 Y-9.198
G0 X-55.541 Y-6.147
G0 X-55.795 Y-3.078
G0 X-55.880 Y0.000
G0 X-55.795 Y3.078
G0 X-55.541 Y6.147
G0 X-55.118 Y9.198
G0 X-54.528 Y12.220
G0 X-53.772 Y15.205
G0 X-52.853 Y18.144
G0 X-51.773 Y21.028
G0 X-50.536 Y23.849
G0 X-49.145 Y26.596
G0 X-47.606 Y29.263
G0 X-45.922 Y31.841
G0 X-44.098 Y34.323
G0 X-42.140 Y36.699
G0 X-40.054 Y38.965
G0 X-40.098 Y39.702
G0 X-40.455 Y39.355
G0 X-42.561 Y37.067
G0 X-44.539 Y34.666
G0 X-46.381 Y32.159
G0 X-48.082 Y29.556
G0 X-49.637 Y26.862
G0 X-51.041 Y24.087
G0 X-52.291 Y21.239
G0 X-53.382 Y18.326
G0 X-54.310 Y15.357
G0 X-55.074 Y12.342
G0 X-55.670 Y9.290
G0 X-56.097 Y6.209
G0 X-56.354 Y3.109
G0 X-56.440 Y0.000
G0 X-56.354 Y-3.109
G0 X-56.097 Y-6.209
G0 X-55.670 Y-9.290
G0 X-55.074 Y-12.342
G0 X-54.310 Y-15.357
G0 X-53.382 Y-18.326
G0 X-52.291 Y-21.239
G0 X-51.045 Y-24.079
G0 X-51.045 Y-24.079
G0 X-51.041 Y-24.088
G0 X-49.637 Y-26.862
G0 X-48.082 Y-29.555
G0 X-46.381 Y-32.159
G0 X-44.539 Y-34.665
G0 X-42.561 Y-37.067
G0 X-40.455 Y-39.355
G0 X-40.098 Y-39.703
G0 X-44.628 Y-44.232
G0 X-46.562 Y-42.200
G0 X-48.576 Y-39.865
G0 X-50.474 Y-37.433
G0 X-50.808 Y-36.960
G0 X-50.808 Y-36.960
G0 X-52.249 Y-34.913
G0 X-53.899 Y-32.307
G0 X-55.913 Y-29.886
G0 X-54.380 Y-32.594
G0 X-52.715 Y-35.222
G0 X-50.923 Y-37.767
G0 X-50.790 Y-37.938
G0 X-50.790 Y-37.938
G0 X-50.652 Y-45.449
G0 X-50.652 Y-45.449
G0 X-50.560 Y-50.434
;segType:Loop
G0 X-50.560 Y-50.421
G1 X-51.405 Y-49.857 E691.7254 F1800
G1 X-52.500 Y-49.639 E692.1183
G1 X-53.595 Y-49.857 E692.5113
G1 X-54.523 Y-50.477 E692.9042
G1 X-55.143 Y-51.405 E693.2970
G1 X-55.361 Y-52.500 E693.6900
G1 X-55.143 Y-53.595 E694.0828
G1 X-54.523 Y-54.523 E694.4758
G1 X-53.636 Y-55.116 E694.8513
G1 X-52.555 Y-55.353 E695.2409
G1 X-51.459 Y-55.156 E695.6328
G1 X-50.571 Y-54.588 E696.0039
G1 X-50.412 Y-54.429 E696.0828
G1 X-49.847 Y-53.546 E696.4517
G1 X-49.639 Y-52.500 E696.8273
G1 X-49.857 Y-51.405 E697.2202
G1 X-50.421 Y-50.560 E697.5779
;segType:Perimeter
G0 X-47.635 Y-47.239 F4800
G1 X-47.493 Y-47.098 E697.6408 F900
G1 X-45.023 Y-44.628 E698.7386
G1 X-46.977 Y-42.576 E699.6288
G1 X-49.008 Y-40.221 E700.6062
G1 X-50.923 Y-37.767 E701.5844
G1 X-52.715 Y-35.222 E702.5624
G1 X-54.380 Y-32.594 E703.5402
G1 X-55.913 Y-29.886 E704.5180
G1 X-57.313 Y-27.107 E705.4960
G1 X-57.906 Y-25.769 E705.9558
G1 X-58.280 Y-25.971 E706.0897
G1 X-58.280 Y-38.395 E709.9940
G1 X-56.830 Y-40.528 E710.8045
G1 X-54.983 Y-43.000 E711.7743
G1 X-53.154 Y-45.235 E712.6819
G1 X-52.500 Y-45.201 E712.8876
G1 X-51.737 Y-45.241 E713.1276
G1 X-50.983 Y-45.360 E713.3677
G1 X-50.244 Y-45.558 E713.6079
G1 X-49.531 Y-45.832 E713.8479
G1 X-48.851 Y-46.178 E714.0879
G1 X-48.209 Y-46.595 E714.3281
G1 X-47.582 Y-47.103 E714.5816
G0 X-47.427 Y-47.228 F4800
G0 X-46.847 Y-47.243
G0 X-44.627 Y-45.023
G0 X-42.577 Y-46.976
G0 X-42.134 Y-47.357
G0 X-42.134 Y-47.357
G0 X-42.577 Y-46.976
G0 X-44.627 Y-45.023
G0 X-42.201 Y-46.562
G0 X-41.254 Y-47.379
G0 X-41.254 Y-47.379
G0 X-42.201 Y-46.562
G0 X-44.232 Y-44.628
G0 X-39.697 Y-40.092
G0 X-38.226 Y-41.524
G0 X-35.879 Y-43.567
G0 X-33.425 Y-45.477
G0 X-30.869 Y-47.250
G0 X-30.222 Y-47.647
G0 X-30.222 Y-47.647
G0 X-28.220 Y-48.878
G0 X-25.485 Y-50.358
G0 X-22.671 Y-51.686
G0 X-19.788 Y-52.857
G0 X-16.849 Y-53.866
G0 X-13.856 Y-54.712
G0 X-10.818 Y-55.393
G0 X-7.753 Y-55.905
G0 X-4.660 Y-56.247
G0 X-1.554 Y-56.418
G0 X1.555 Y-56.418
G0 X4.660 Y-56.247
G0 X7.752 Y-55.905
G0 X10.821 Y-55.392
G0 X13.853 Y-54.713
G0 X16.849 Y-53.866
G0 X19.791 Y-52.856
G0 X22.670 Y-51.686
G0 X25.485 Y-50.358
G0 X28.217 Y-48.880
G0 X30.871 Y-47.248
G0 X33.428 Y-45.475
G0 X35.883 Y-43.564
G0 X38.224 Y-41.526
G0 X39.302 Y-39.697
G0 X37.845 Y-41.114
G0 X35.524 Y-43.135
G0 X33.094 Y-45.026
G0 X30.566 Y-46.780
G0 X27.942 Y-48.393
G0 X25.233 Y-49.859
G0 X22.447 Y-51.174
G0 X19.594 Y-52.332
G0 X16.680 Y-53.333
G0 X13.718 Y-54.170
G0 X10.713 Y-54.844
G0 X7.677 Y-55.351
G0 X4.613 Y-55.690
G0 X1.540 Y-55.859
G0 X-1.538 Y-55.859
G0 X-4.616 Y-55.689
G0 X-7.676 Y-55.351
G0 X-10.713 Y-54.844
G0 X-13.717 Y-54.171
G0 X-16.682 Y-53.333
G0 X-19.594 Y-52.332
G0 X-22.447 Y-51.174
G0 X-25.232 Y-49.859
G0 X-27.940 Y-48.394
G0 X-29.111 Y-47.674
G0 X-29.111 Y-47.674
G0 X-11.510 Y-48.103
G0 X-11.510 Y-48.103
G0 X-9.271 Y-48.603
G0 X-6.203 Y-49.089
G0 X-3.105 Y-49.382
G0 X0.000 Y-49.480
G0 X3.107 Y-49.382
G0 X6.200 Y-49.090
G0 X9.273 Y-48.603
G0 X12.305 Y-47.925
G0 X15.290 Y-47.058
G0 X18.216 Y-46.004
G0 X20.829 Y-44.265
G0 X18.008 Y-45.485
G0 X15.116 Y-46.527
G0 X12.165 Y-47.384
G0 X9.166 Y-48.054
G0 X6.132 Y-48.535
G0 X3.071 Y-48.824
G0 X0.000 Y-48.921
G0 X-3.073 Y-48.824
G0 X-6.130 Y-48.535
G0 X-8.378 Y-48.179
G0 X-8.378 Y-48.179
G0 X-6.130 Y-48.535
G0 X-3.073 Y-48.824
G0 X0.000 Y-48.921
G0 X3.071 Y-48.824
G0 X6.132 Y-48.535
G0 X6.146 Y-48.532
G0 X6.146 Y-48.532
G0 X9.166 Y-48.054
G0 X12.165 Y-47.384
G0 X15.116 Y-46.527
G0 X18.008 Y-45.485
G0 X20.829 Y-44.265
G0 X18.216 Y-46.004
G0 X15.290 Y-47.058
G0 X12.305 Y-47.925
G0 X9.273 Y-48.603
G0 X9.241 Y-48.608
G0 X9.241 Y-48.608
G0 X9.273 Y-48.603
G0 X12.305 Y-47.925
G0 X15.290 Y-47.058
G0 X18.216 Y-46.004
G0 X21.068 Y-44.770
G0 X23.837 Y-43.359
G0 X26.512 Y-41.777
G0 X29.086 Y-40.028
G0 X31.542 Y-38.122
G0 X33.870 Y-36.070
G0 X34.772 Y-35.168
G0 X39.302 Y-39.697
G0 X37.845 Y-41.114
G0 X35.524 Y-43.135
G0 X33.094 Y-45.026
G0 X30.566 Y-46.780
G0 X27.942 Y-48.393
G0 X26.757 Y-49.034
G0 X26.757 Y-49.034
G0 X27.881 Y-49.062
G0 X27.881 Y-49.062
G0 X28.217 Y-48.880
G0 X30.871 Y-47.248
G0 X33.428 Y-45.475
G0 X35.883 Y-43.564
G0 X38.224 Y-41.526
G0 X39.697 Y-40.092
G0 X44.232 Y-44.628
G0 X42.204 Y-46.559
G0 X39.865 Y-48.576
G0 X38.900 Y-49.330
G0 X38.900 Y-49.330
G0 X37.435 Y-50.473
G0 X34.913 Y-52.249
G0 X32.597 Y-54.378
G0 X35.224 Y-52.714
G0 X37.766 Y-50.924
G0 X39.781 Y-49.351
G0 X39.781 Y-49.351
G0 X40.221 Y-49.008
G0 X42.579 Y-46.974
G0 X44.628 Y-45.023
G0 X47.140 Y-47.536
G0 X46.642 Y-48.151
G0 X46.199 Y-48.819
G0 X45.849 Y-49.497
G0 X45.849 Y-49.499
G0 X45.849 Y-49.499
G0 X52.415 Y-49.659
;segType:Loop
G0 X52.402 Y-49.658
G1 X51.405 Y-49.857 E714.9395 F1800
G1 X50.477 Y-50.477 E715.3322
G1 X49.857 Y-51.405 E715.7251
G1 X49.639 Y-52.500 E716.1181
G1 X49.857 Y-53.595 E716.5110
G1 X50.477 Y-54.523 E716.9040
G1 X51.364 Y-55.116 E717.2794
G1 X52.445 Y-55.353 E717.6689
G1 X53.541 Y-55.157 E718.0608
G1 X54.429 Y-54.588 E718.4319
G1 X54.588 Y-54.429 E718.5109
G1 X55.153 Y-53.546 E718.8799
G1 X55.361 Y-52.500 E719.2553
G1 X55.143 Y-51.405 E719.6482
G1 X54.523 Y-50.477 E720.0411
G1 X53.595 Y-49.857 E720.4340
G1 X52.598 Y-49.658 E720.7917
G0 X52.574 Y-50.110 F4800
G0 X52.500 Y-50.096
G0 X51.580 Y-50.279
G0 X50.800 Y-50.800
G0 X50.279 Y-51.580
G0 X50.096 Y-52.500
G0 X50.279 Y-53.420
G0 X50.800 Y-54.200
G0 X51.542 Y-54.696
G0 X52.319 Y-54.866
G0 X52.319 Y-54.866
G0 X52.315 Y-54.934
;segType:Perimeter
G0 X52.316 Y-54.921
G1 X52.513 Y-54.885 E720.8546 F900
G1 X53.374 Y-54.731 E721.1295
G1 X54.146 Y-54.237 E721.4177
G1 X54.237 Y-54.146 E721.4578
G1 X54.730 Y-53.376 E721.7454
G1 X54.904 Y-52.500 E722.0260
G1 X54.721 Y-51.580 E722.3208
G1 X54.200 Y-50.800 E722.6156
G1 X53.420 Y-50.279 E722.9104
G1 X52.500 Y-50.096 E723.2052
G1 X51.580 Y-50.279 E723.5001
G1 X50.800 Y-50.800 E723.7948
G1 X50.279 Y-51.580 E724.0895
G1 X50.096 Y-52.500 E724.3844
G1 X50.279 Y-53.420 E724.6792
G1 X50.800 Y-54.200 E724.9740
G1 X51.542 Y-54.696 E725.2546
G1 X52.395 Y-54.883 E725.5290
G0 X52.395 Y-54.883 F4800
G0 X51.542 Y-54.696
G0 X50.800 Y-54.200
G0 X50.279 Y-53.420
G0 X50.096 Y-52.500
G0 X50.279 Y-51.580
G0 X50.800 Y-50.800
G0 X51.580 Y-50.279
G0 X52.283 Y-50.139
G0 X52.283 Y-50.139
G0 X52.167 Y-45.218
G0 X52.167 Y-45.218
G0 X51.737 Y-45.241
G0 X50.982 Y-45.360
G0 X50.244 Y-45.558
G0 X49.531 Y-45.832
G0 X48.850 Y-46.178
G0 X48.209 Y-46.595
G0 X47.536 Y-47.140
G0 X45.023 Y-44.628
G0 X46.975 Y-42.578
G0 X49.007 Y-40.223
G0 X50.923 Y-37.768
G0 X51.957 Y-36.299
G0 X51.957 Y-36.299
G0 X50.923 Y-37.768
G0 X51.934 Y-35.360
G0 X51.934 Y-35.360
G0 X50.474 Y-37.434
G0 X48.574 Y-39.868
G0 X46.562 Y-42.201
G0 X44.628 Y-44.232
G0 X40.098 Y-39.702
G0 X40.455 Y-39.355
G0 X42.562 Y-37.065
G0 X44.540 Y-34.665
G0 X46.381 Y-32.159
G0 X48.081 Y-29.557
G0 X49.636 Y-26.865
G0 X51.040 Y-24.090
G0 X51.636 Y-22.731
G0 X51.636 Y-22.731
G0 X51.040 Y-24.090
G0 X49.636 Y-26.865
G0 X48.081 Y-29.557
G0 X46.381 Y-32.159
G0 X44.540 Y-34.665
G0 X42.562 Y-37.065
G0 X40.455 Y-39.355
G0 X40.098 Y-39.702
G0 X40.054 Y-38.966
G0 X42.138 Y-36.701
G0 X44.098 Y-34.322
G0 X45.922 Y-31.840
G0 X47.605 Y-29.265
G0 X49.145 Y-26.597
G0 X50.537 Y-23.847
G0 X51.605 Y-21.410
G0 X51.605 Y-21.410
G0 X51.772 Y-21.030
G0 X52.853 Y-18.143
G0 X53.772 Y-15.204
G0 X54.528 Y-12.220
G0 X55.118 Y-9.198
G0 X55.542 Y-6.146
G0 X55.796 Y-3.077
G0 X55.880 Y-0.001
G0 X55.796 Y3.077
G0 X55.541 Y6.148
G0 X55.118 Y9.197
G0 X54.528 Y12.219
G0 X53.772 Y15.204
G0 X52.852 Y18.145
G0 X51.773 Y21.029
G0 X50.537 Y23.846
G0 X50.537 Y23.846
G0 X50.506 Y25.144
G0 X50.506 Y25.144
G0 X49.637 Y26.861
G0 X48.082 Y29.556
G0 X46.381 Y32.159
G0 X44.538 Y34.666
G0 X42.561 Y37.067
G0 X40.455 Y39.355
G0 X40.098 Y39.702
G0 X44.628 Y44.232
G0 X46.562 Y42.201
G0 X48.577 Y39.865
G0 X50.208 Y37.774
G0 X50.208 Y37.774
G0 X48.577 Y39.865
G0 X46.562 Y42.201
G0 X44.628 Y44.232
G0 X46.976 Y42.577
G0 X49.009 Y40.219
G0 X50.186 Y38.711
G0 X50.186 Y38.711
G0 X50.023 Y45.643
G0 X50.023 Y45.643
G0 X49.837 Y53.510
;segType:Loop
G0 X49.837 Y53.497
G1 X49.639 Y52.500 E725.8867 F1800
G1 X49.857 Y51.405 E726.2796
G1 X50.477 Y50.477 E726.6724
G1 X51.364 Y49.884 E727.0479
G1 X52.445 Y49.647 E727.4375
G1 X53.541 Y49.844 E727.8293
G1 X54.429 Y50.412 E728.2005
G1 X54.588 Y50.571 E728.2795
G1 X55.153 Y51.453 E728.6483
G1 X55.361 Y52.500 E729.0239
G1 X55.143 Y53.595 E729.4168
G1 X54.523 Y54.523 E729.8097
G1 X53.595 Y55.143 E730.2027
G1 X52.500 Y55.361 E730.5955
G1 X51.405 Y55.143 E730.9884
G1 X50.477 Y54.523 E731.3813
G1 X49.912 Y53.678 E731.7390
G0 X50.241 Y53.228 F4800
G0 X50.096 Y52.500
G0 X50.279 Y51.580
G0 X50.800 Y50.800
G0 X51.542 Y50.304
G0 X52.454 Y50.104
G0 X52.513 Y50.115
G0 X52.513 Y50.115
G0 X52.521 Y50.104
;segType:Perimeter
G0 X52.513 Y50.115
G1 X53.374 Y50.269 E732.0140 F900
G1 X54.146 Y50.763 E732.3021
G1 X54.237 Y50.854 E732.3422
G1 X54.730 Y51.624 E732.6297
G1 X54.904 Y52.500 E732.9104
G1 X54.721 Y53.420 E733.2052
G1 X54.200 Y54.200 E733.5000
G1 X53.420 Y54.721 E733.7948
G1 X52.500 Y54.904 E734.0896
G1 X51.580 Y54.721 E734.3844
G1 X50.800 Y54.200 E734.6792
G1 X50.279 Y53.420 E734.9740
G1 X50.096 Y52.500 E735.2688
G1 X50.279 Y51.580 E735.5636
G1 X50.800 Y50.800 E735.8584
G1 X51.542 Y50.304 E736.1391
G1 X52.395 Y50.117 E736.4134
G0 X52.591 Y50.074 F4800
G0 X49.848 Y51.451
G0 X45.670 Y53.547
G0 X45.670 Y53.547
G0 X45.087 Y53.839
G0 X45.099 Y53.834
G1 X45.290 Y53.893 E736.4763 F900
G1 X45.330 Y53.905 E736.4895
G1 X45.539 Y54.684 E736.7429
G1 X45.850 Y55.504 E737.0183
G1 X46.199 Y56.182 E737.2581
G1 X46.619 Y56.820 E737.4981
G1 X47.103 Y57.411 E737.7382
G1 X47.832 Y58.139 E738.0619
G1 X47.773 Y58.280 E738.1100
G1 X39.707 Y58.280 E740.6448
G1 X39.655 Y58.118 E740.6985
G1 X42.107 Y56.369 E741.6450
G1 X44.559 Y54.451 E742.6233
G1 X45.187 Y53.914 E742.8830
G0 X45.187 Y53.914 F4800
G0 X44.559 Y54.451
G0 X41.773 Y55.921
G0 X44.207 Y54.017
G0 X45.146 Y53.213
G0 X45.146 Y53.213
G0 X45.234 Y53.138
G0 X45.201 Y52.500
G0 X45.241 Y51.737
G0 X45.360 Y50.982
G0 X45.558 Y50.244
G0 X45.832 Y49.531
G0 X46.178 Y48.851
G0 X46.595 Y48.209
G0 X47.140 Y47.536
G0 X44.670 Y45.066
G0 X44.670 Y45.066
G0 X44.669 Y45.053
G0 X44.670 Y45.066
G1 X47.140 Y47.536 E743.9807 F900
G1 X46.595 Y48.209 E744.2531
G1 X46.178 Y48.851 E744.4933
G1 X45.832 Y49.531 E744.7333
G1 X45.558 Y50.244 E744.9734
G1 X45.360 Y50.982 E745.2135
G1 X45.241 Y51.737 E745.4537
G1 X45.201 Y52.500 E745.6937
G1 X45.234 Y53.138 E745.8944
G1 X44.207 Y54.017 E746.3192
G1 X41.773 Y55.921 E747.2904
G1 X39.259 Y57.713 E748.2606
G1 X38.385 Y58.280 E748.5881
G1 X25.971 Y58.280 E752.4890
G1 X25.769 Y57.906 E752.6229
G1 X27.107 Y57.313 E753.0827
G1 X29.886 Y55.913 E754.0608
G1 X32.594 Y54.380 E755.0385
G1 X35.222 Y52.715 E756.0163
G1 X37.767 Y50.923 E756.9943
G1 X40.221 Y49.008 E757.9725
G1 X42.576 Y46.977 E758.9499
G1 X44.584 Y45.065 E759.8214
G0 X44.584 Y45.065 F4800
G0 X42.576 Y46.977
G0 X40.221 Y49.008
G0 X37.767 Y50.923
G0 X35.222 Y52.715
G0 X32.594 Y54.380
G0 X29.623 Y55.420
G0 X32.307 Y53.899
G0 X34.913 Y52.249
G0 X37.433 Y50.474
G0 X39.865 Y48.576
G0 X42.200 Y46.562
G0 X44.192 Y44.666
G0 X44.192 Y44.666
G0 X44.232 Y44.628
G0 X39.739 Y40.135
G0 X39.739 Y40.135
G0 X39.730 Y40.125
G0 X39.739 Y40.135
G1 X44.232 Y44.628 E761.8181 F900
G1 X42.200 Y46.562 E762.6998
G1 X39.865 Y48.576 E763.6688
G1 X37.433 Y50.474 E764.6383
G1 X34.913 Y52.249 E765.6070
G1 X32.307 Y53.899 E766.5762
G1 X29.623 Y55.420 E767.5456
G1 X26.868 Y56.807 E768.5150
G1 X24.048 Y58.057 E769.4843
G1 X23.469 Y58.280 E769.6794
G1 X-23.469 Y58.280 E784.4299
G1 X-24.048 Y58.057 E784.6248
G1 X-26.867 Y56.807 E785.5940
G1 X-29.623 Y55.420 E786.5635
G1 X-32.306 Y53.900 E787.5327
G1 X-34.912 Y52.250 E788.5020
G1 X-37.434 Y50.474 E789.4712
G1 X-39.866 Y48.576 E790.4406
G1 X-42.201 Y46.562 E791.4098
G1 X-44.232 Y44.628 E792.2913
G1 X-39.697 Y40.092 E794.3069
G1 X-38.226 Y41.524 E794.9521
G1 X-35.880 Y43.566 E795.9294
G1 X-33.425 Y45.477 E796.9070
G1 X-30.870 Y47.249 E797.8843
G1 X-28.220 Y48.878 E798.8618
G1 X-25.485 Y50.358 E799.8391
G1 X-22.672 Y51.686 E800.8166
G1 X-19.790 Y52.856 E801.7941
G1 X-16.848 Y53.866 E802.7715
G1 X-13.855 Y54.713 E803.7489
G1 X-10.820 Y55.393 E804.7264
G1 X-7.752 Y55.905 E805.7038
G1 X-4.661 Y56.247 E806.6812
G1 X-1.555 Y56.418 E807.6587
G1 X1.555 Y56.418 E808.6361
G1 X4.661 Y56.247 E809.6135
G1 X7.752 Y55.905 E810.5908
G1 X10.820 Y55.393 E811.5683
G1 X13.855 Y54.713 E812.5457
G1 X16.848 Y53.866 E813.5232
G1 X19.790 Y52.856 E814.5006
G1 X22.672 Y51.686 E815.4781
G1 X25.484 Y50.359 E816.4552
G1 X28.220 Y48.878 E817.4329
G1 X30.870 Y47.249 E818.4102
G1 X33.425 Y45.478 E819.3874
G1 X35.880 Y43.567 E820.3651
G1 X38.225 Y41.525 E821.3422
G1 X39.654 Y40.134 E821.9688
G0 X39.654 Y40.134 F4800
G0 X39.697 Y40.092
G0 X39.262 Y39.736
G0 X39.262 Y39.736
G0 X34.815 Y35.210
G0 X34.815 Y35.210
G0 X34.806 Y35.201
G0 X34.815 Y35.210
G1 X39.302 Y39.697 E823.9629 F900
G1 X37.846 Y41.113 E824.6011
G1 X35.524 Y43.135 E825.5688
G1 X33.094 Y45.026 E826.5363
G1 X30.563 Y46.782 E827.5042
G1 X27.940 Y48.394 E828.4718
G1 X25.232 Y49.859 E829.4394
G1 X22.447 Y51.174 E830.4074
G1 X19.594 Y52.333 E831.3751
G1 X16.681 Y53.333 E832.3427
G1 X13.718 Y54.170 E833.3105
G1 X10.713 Y54.844 E834.2782
G1 X7.675 Y55.351 E835.2460
G1 X4.614 Y55.690 E836.2138
G1 X1.540 Y55.859 E837.1815
G1 X-1.540 Y55.859 E838.1492
G1 X-4.615 Y55.690 E839.1169
G1 X-7.676 Y55.351 E840.0847
G1 X-10.713 Y54.844 E841.0524
G1 X-13.718 Y54.170 E842.0201
G1 X-16.681 Y53.333 E842.9879
G1 X-19.594 Y52.333 E843.9556
G1 X-22.447 Y51.174 E844.9235
G1 X-25.232 Y49.859 E845.8912
G1 X-27.940 Y48.394 E846.8588
G1 X-30.564 Y46.781 E847.8266
G1 X-33.094 Y45.026 E848.7944
G1 X-35.525 Y43.135 E849.7622
G1 X-37.847 Y41.113 E850.7299
G1 X-39.302 Y39.697 E851.3678
G1 X-34.772 Y35.168 E853.3808
G1 X-33.871 Y36.069 E853.7814
G1 X-31.539 Y38.125 E854.7584
G1 X-29.083 Y40.030 E855.7350
G1 X-26.513 Y41.777 E856.7118
G1 X-23.836 Y43.359 E857.6888
G1 X-21.067 Y44.770 E858.6655
G1 X-18.215 Y46.005 E859.6422
G1 X-15.290 Y47.058 E860.6191
G1 X-12.305 Y47.925 E861.5959
G1 X-9.272 Y48.603 E862.5727
G1 X-6.202 Y49.089 E863.5495
G1 X-3.107 Y49.382 E864.5264
G1 X0.000 Y49.480 E865.5032
G1 X3.107 Y49.382 E866.4801
G1 X6.202 Y49.089 E867.4569
G1 X9.271 Y48.603 E868.4337
G1 X12.305 Y47.925 E869.4106
G1 X15.290 Y47.058 E870.3873
G1 X18.214 Y46.005 E871.3641
G1 X21.068 Y44.770 E872.3412
G1 X23.837 Y43.359 E873.3179
G1 X26.512 Y41.777 E874.2945
G1 X29.084 Y40.030 E875.2715
G1 X31.539 Y38.125 E876.2482
G1 X33.871 Y36.069 E877.2249
G1 X34.730 Y35.210 E877.6069
G0 X34.730 Y35.210 F4800
G0 X34.834 Y35.230
G0 X34.834 Y35.230
G0 X35.168 Y34.772
G0 X35.808 Y35.413
G0 X35.808 Y35.413
G0 X39.703 Y39.307
G0 X40.054 Y38.965
G0 X42.139 Y36.700
G0 X42.206 Y36.619
G0 X42.206 Y36.619
G0 X44.097 Y34.323
G0 X45.921 Y31.841
G0 X47.606 Y29.263
G0 X49.146 Y26.596
G0 X50.536 Y23.848
G0 X51.773 Y21.029
G0 X52.852 Y18.145
G0 X53.772 Y15.204
G0 X54.528 Y12.219
G0 X55.118 Y9.197
G0 X55.541 Y6.148
G0 X55.796 Y3.077
G0 X55.880 Y-0.001
G0 X55.796 Y-3.077
G0 X55.542 Y-6.146
G0 X55.118 Y-9.198
G0 X54.528 Y-12.220
G0 X53.772 Y-15.204
G0 X52.853 Y-18.143
G0 X51.772 Y-21.030
G0 X50.537 Y-23.847
G0 X49.145 Y-26.597
G0 X47.605 Y-29.265
G0 X45.922 Y-31.840
G0 X44.098 Y-34.322
G0 X42.138 Y-36.701
G0 X40.054 Y-38.966
G0 X40.098 Y-39.702
G0 X40.455 Y-39.355
G0 X42.562 Y-37.065
G0 X44.540 Y-34.665
G0 X46.381 Y-32.159
G0 X48.081 Y-29.557
G0 X49.636 Y-26.865
G0 X51.040 Y-24.090
G0 X52.290 Y-21.240
G0 X53.382 Y-18.326
G0 X54.310 Y-15.356
G0 X55.073 Y-12.343
G0 X55.670 Y-9.289
G0 X56.097 Y-6.207
G0 X56.354 Y-3.111
G0 X56.440 Y0.001
G0 X56.354 Y3.107
G0 X56.097 Y6.207
G0 X55.669 Y9.291
G0 X55.074 Y12.341
G0 X54.310 Y15.357
G0 X53.381 Y18.327
G0 X52.291 Y21.239
G0 X51.042 Y24.087
G0 X49.637 Y26.861
G0 X48.082 Y29.556
G0 X46.381 Y32.159
G0 X44.538 Y34.666
G0 X42.833 Y36.737
G0 X42.833 Y36.737
G0 X42.561 Y37.067
G0 X40.455 Y39.355
G0 X40.098 Y39.702
G0 X44.628 Y44.232
G0 X46.562 Y42.201
G0 X48.577 Y39.865
G0 X49.969 Y38.081
G0 X49.969 Y38.081
G0 X50.587 Y38.198
G0 X50.587 Y38.198
G0 X49.009 Y40.219
G0 X46.976 Y42.577
G0 X45.023 Y44.628
G0 X47.536 Y47.140
G0 X48.209 Y46.595
G0 X48.850 Y46.179
G0 X49.531 Y45.832
G0 X50.244 Y45.558
G0 X50.982 Y45.360
G0 X51.737 Y45.241
G0 X52.500 Y45.201
G0 X53.154 Y45.235
G0 X54.982 Y43.001
G0 X56.831 Y40.526
G0 X57.525 Y39.505
G0 X57.525 Y39.505
G0 X57.994 Y39.593
G0 X57.981 Y39.591
G1 X58.172 Y39.650 E877.6697 F900
G1 X58.280 Y39.683 E877.7053
G1 X58.280 Y47.773 E880.2477
G1 X58.139 Y47.832 E880.2959
G1 X57.384 Y47.076 E880.6317
G1 X56.790 Y46.595 E880.8718
G1 X56.150 Y46.179 E881.1119
G1 X55.469 Y45.832 E881.3520
G1 X54.756 Y45.558 E881.5921
G1 X53.905 Y45.330 E881.8689
G1 X53.875 Y45.237 E881.8997
G1 X55.423 Y43.344 E882.6681
G1 X57.285 Y40.852 E883.6458
G1 X58.081 Y39.682 E884.0906
G0 X58.081 Y39.682 F4800
G0 X56.831 Y40.526
G0 X58.087 Y38.680
G0 X58.087 Y38.680
G0 X58.156 Y25.348
G0 X58.156 Y25.348
G0 X58.156 Y25.335
G0 X58.156 Y25.348
G1 X58.280 Y25.374 E884.1304 F900
G1 X58.280 Y38.395 E888.2223
G1 X56.831 Y40.526 E889.0320
G1 X54.982 Y43.001 E890.0029
G1 X53.154 Y45.235 E890.9101
G1 X52.500 Y45.201 E891.1159
G1 X51.737 Y45.241 E891.3560
G1 X50.982 Y45.360 E891.5961
G1 X50.244 Y45.558 E891.8362
G1 X49.531 Y45.832 E892.0762
G1 X48.850 Y46.179 E892.3163
G1 X48.209 Y46.595 E892.5565
G1 X47.536 Y47.140 E892.8289
G1 X45.023 Y44.628 E893.9456
G1 X46.976 Y42.577 E894.8354
G1 X49.009 Y40.219 E895.8138
G1 X50.923 Y37.768 E896.7911
G1 X52.715 Y35.222 E897.7695
G1 X54.380 Y32.594 E898.7472
G1 X55.914 Y29.886 E899.7253
G1 X57.312 Y27.108 E900.7026
G1 X58.073 Y25.391 E901.2928
G0 X58.073 Y25.391 F4800
G0 X57.536 Y25.224
G0 X57.536 Y25.224
G0 X56.807 Y26.868
G0 X55.421 Y29.622
G0 X53.900 Y32.307
G0 X52.250 Y34.911
G0 X50.474 Y37.434
G0 X48.577 Y39.865
G0 X46.562 Y42.201
G0 X44.628 Y44.232
G0 X40.098 Y39.702
G0 X40.455 Y39.355
G0 X42.561 Y37.067
G0 X44.538 Y34.666
G0 X46.381 Y32.159
G0 X48.082 Y29.556
G0 X49.637 Y26.861
G0 X51.042 Y24.087
G0 X51.378 Y23.321
G0 X51.378 Y23.321
G0 X52.291 Y21.239
G0 X53.381 Y18.327
G0 X54.310 Y15.357
G0 X55.074 Y12.341
G0 X55.669 Y9.291
G0 X56.097 Y6.207
G0 X56.354 Y3.107
G0 X56.440 Y0.001
G0 X56.354 Y-3.111
G0 X56.097 Y-6.207
G0 X55.670 Y-9.289
G0 X55.073 Y-12.343
G0 X54.310 Y-15.356
G0 X53.382 Y-18.326
G0 X52.290 Y-21.240
G0 X51.040 Y-24.090
G0 X49.636 Y-26.865
G0 X48.081 Y-29.557
G0 X46.381 Y-32.159
G0 X44.540 Y-34.665
G0 X42.562 Y-37.065
G0 X40.455 Y-39.355
G0 X40.098 Y-39.702
G0 X40.054 Y-38.966
G0 X42.138 Y-36.701
G0 X44.098 Y-34.322
G0 X45.922 Y-31.840
G0 X47.605 Y-29.265
G0 X49.145 Y-26.597
G0 X50.537 Y-23.847
G0 X51.772 Y-21.030
G0 X52.853 Y-18.143
G0 X53.772 Y-15.204
G0 X54.528 Y-12.220
G0 X55.118 Y-9.198
G0 X55.542 Y-6.146
G0 X55.796 Y-3.077
G0 X55.880 Y-0.001
G0 X55.796 Y3.077
G0 X55.541 Y6.148
G0 X55.118 Y9.197
G0 X54.528 Y12.219
G0 X53.772 Y15.204
G0 X52.852 Y18.145
G0 X51.773 Y21.029
G0 X50.840 Y23.154
G0 X50.840 Y23.154
G0 X44.678 Y21.249
G0 X44.678 Y21.249
G0 X44.770 Y21.067
G0 X46.005 Y18.215
G0 X47.057 Y15.291
G0 X47.925 Y12.305
G0 X48.603 Y9.271
G0 X49.089 Y6.203
G0 X49.382 Y3.105
G0 X49.480 Y0.001
G0 X49.382 Y-3.107
G0 X49.090 Y-6.200
G0 X48.603 Y-9.273
G0 X47.925 Y-12.305
G0 X47.058 Y-15.290
G0 X46.004 Y-18.216
G0 X44.770 Y-21.067
G0 X45.486 Y-18.007
G0 X46.527 Y-15.116
G0 X47.384 Y-12.165
G0 X48.054 Y-9.166
G0 X48.535 Y-6.132
G0 X48.824 Y-3.071
G0 X48.921 Y0.000
G0 X48.824 Y3.073
G0 X48.535 Y6.130
G0 X48.054 Y9.166
G0 X47.384 Y12.165
G0 X46.526 Y15.117
G0 X45.485 Y18.009
G0 X44.265 Y20.829
G0 X44.136 Y21.082
G0 X44.136 Y21.082
G0 X42.869 Y23.568
G0 X41.305 Y26.213
G0 X39.578 Y28.755
G0 X37.694 Y31.183
G0 X35.662 Y33.488
G0 X34.773 Y34.377
G0 X30.245 Y29.849
G0 X31.667 Y28.374
G0 X33.654 Y25.987
G0 X35.461 Y23.461
G0 X37.079 Y20.810
G0 X37.926 Y19.162
G0 X37.926 Y19.162
G0 X37.384 Y18.994
G0 X37.384 Y18.994
G0 X36.592 Y20.536
G0 X34.995 Y23.152
G0 X33.212 Y25.645
G0 X31.251 Y28.001
G0 X29.850 Y29.455
G0 X25.333 Y24.938
G0 X27.240 Y22.857
G0 X29.129 Y20.396
G0 X30.795 Y17.780
G0 X31.164 Y17.071
G0 X31.164 Y17.071
G0 X32.228 Y15.028
G0 X33.415 Y12.162
G0 X34.348 Y9.205
G0 X35.019 Y6.175
G0 X33.808 Y9.058
G0 X32.890 Y11.971
G0 X31.721 Y14.792
G0 X30.622 Y16.904
G0 X30.622 Y16.904
G0 X30.311 Y17.500
G0 X28.671 Y20.076
G0 X26.812 Y22.498
G0 X24.938 Y24.543
G0 X20.404 Y20.008
G0 X20.763 Y19.668
G0 X22.768 Y17.307
G0 X24.355 Y14.966
G0 X24.355 Y14.966
G0 X23.798 Y14.794
G0 X23.798 Y14.794
G0 X22.323 Y16.969
G0 X20.358 Y19.283
G0 X20.009 Y19.614
G0 X15.460 Y15.065
G0 X16.354 Y14.171
G0 X17.374 Y12.808
G0 X17.374 Y12.808
G0 X18.204 Y11.699
G0 X19.683 Y8.989
G0 X20.763 Y6.096
G0 X21.419 Y3.080
G0 X21.639 Y0.000
G0 X21.419 Y-3.080
G0 X20.762 Y-6.097
G0 X19.684 Y-8.989
G0 X18.204 Y-11.699
G0 X16.354 Y-14.171
G0 X15.460 Y-15.065
G0 X15.932 Y-13.805
G0 X17.734 Y-11.397
G0 X19.176 Y-8.757
G0 X20.227 Y-5.939
G0 X20.866 Y-3.000
G0 X21.081 Y0.000
G0 X20.866 Y3.000
G0 X20.227 Y5.939
G0 X19.176 Y8.758
G0 X17.734 Y11.397
G0 X16.809 Y12.633
G0 X16.809 Y12.633
G0 X11.336 Y10.941
G0 X11.336 Y10.941
G0 X14.671 Y15.066
G0 X10.191 Y10.587
G0 X10.191 Y10.587
G0 X10.179 Y10.583
G0 X10.191 Y10.587
G1 X14.671 Y15.066 E903.2836 F900
G1 X13.805 Y15.932 E903.6683
G1 X11.397 Y17.734 E904.6135
G1 X8.757 Y19.176 E905.5587
G1 X5.939 Y20.227 E906.5038
G1 X3.000 Y20.866 E907.4490
G1 X0.000 Y21.081 E908.3945
G1 X-3.000 Y20.866 E909.3397
G1 X-5.939 Y20.227 E910.2849
G1 X-8.757 Y19.176 E911.2300
G1 X-11.397 Y17.734 E912.1754
G1 X-13.805 Y15.932 E913.1205
G1 X-14.671 Y15.066 E913.5052
G1 X-10.149 Y10.545 E915.5148
G1 X-9.822 Y10.908 E915.6686
G1 X-7.340 Y12.712 E916.6328
G1 X-4.536 Y13.960 E917.5974
G1 X-1.534 Y14.598 E918.5616
G1 X1.534 Y14.598 E919.5259
G1 X4.536 Y13.960 E920.4903
G1 X7.339 Y12.712 E921.4545
G1 X9.822 Y10.908 E922.4189
G1 X10.109 Y10.589 E922.5538
G0 X10.109 Y10.589 F4800
G0 X10.149 Y10.545
G0 X9.729 Y10.183
G0 X9.729 Y10.183
G0 X8.882 Y9.277
G0 X8.882 Y9.277
G0 X0.288 Y0.089
G0 X0.296 Y0.099
G1 X0.438 Y-0.042 E922.6167 F900
G1 X5.196 Y-4.801 E924.7314
G1 X5.246 Y-4.796 E924.7473
G1 X6.619 Y-2.742 E925.5236
G1 X7.164 Y0.000 E926.4021
G1 X6.619 Y2.742 E927.2805
G1 X5.246 Y4.796 E928.0569
G1 X5.196 Y4.801 E928.0728
G1 X0.438 Y0.042 E930.1874
G0 X0.296 Y-0.099 F4800
G0 X-0.296 Y-0.099
G1 X-0.438 Y0.042 E930.2503 F900
G1 X-5.196 Y4.801 E932.3650
G1 X-5.246 Y4.796 E932.3809
G1 X-6.619 Y2.742 E933.1572
G1 X-7.164 Y0.000 E934.0357
G1 X-6.619 Y-2.742 E934.9141
G1 X-5.246 Y-4.796 E935.6906
G1 X-5.196 Y-4.801 E935.7064
G1 X-0.438 Y-0.042 E937.8211
G0 X-0.296 Y0.099 F4800
G0 X-10.231 Y-9.835
G1 X-10.089 Y-9.694 E937.8840 F900
G1 X-5.614 Y-5.219 E939.8728
G1 X-7.128 Y-2.953 E940.7293
G1 X-7.716 Y0.000 E941.6754
G1 X-7.128 Y2.953 E942.6215
G1 X-5.614 Y5.219 E943.4779
G1 X-10.132 Y9.736 E945.4855
G1 X-11.425 Y8.300 E946.0927
G1 X-12.901 Y5.744 E947.0204
G1 X-13.813 Y2.936 E947.9482
G1 X-14.121 Y0.000 E948.8759
G1 X-13.813 Y-2.936 E949.8036
G1 X-12.901 Y-5.744 E950.7313
G1 X-11.425 Y-8.300 E951.6591
G1 X-10.172 Y-9.692 E952.2474
G0 X-10.172 Y-9.692 F4800
G0 X-11.425 Y-8.300
G0 X-12.901 Y-5.744
G0 X-13.813 Y-2.936
G0 X-14.121 Y0.000
G0 X-13.813 Y2.936
G0 X-12.901 Y5.744
G0 X-11.425 Y8.300
G0 X-10.524 Y10.129
G0 X-11.875 Y8.628
G0 X-13.409 Y5.970
G0 X-14.358 Y3.052
G0 X-14.678 Y0.000
G0 X-14.358 Y-3.052
G0 X-13.409 Y-5.970
G0 X-11.875 Y-8.628
G0 X-10.561 Y-10.087
G0 X-10.561 Y-10.087
G0 X-10.524 Y-10.129
G0 X-15.066 Y-14.671
G0 X-15.067 Y-14.670
G0 X-15.067 Y-14.670
G0 X-15.174 Y-14.779
G0 X-15.165 Y-14.770
G1 X-15.024 Y-14.629 E952.3102 F900
G1 X-10.524 Y-10.129 E954.3101
G1 X-11.875 Y-8.628 E954.9446
G1 X-13.409 Y-5.970 E955.9090
G1 X-14.358 Y-3.052 E956.8734
G1 X-14.678 Y0.000 E957.8376
G1 X-14.358 Y3.052 E958.8021
G1 X-13.409 Y5.970 E959.7664
G1 X-11.875 Y8.628 E960.7307
G1 X-10.524 Y10.129 E961.3652
G1 X-15.066 Y14.671 E963.3839
G1 X-15.932 Y13.805 E963.7686
G1 X-17.734 Y11.397 E964.7140
G1 X-19.176 Y8.757 E965.6591
G1 X-20.227 Y5.939 E966.6043
G1 X-20.866 Y3.000 E967.5495
G1 X-21.081 Y0.000 E968.4947
G1 X-20.866 Y-3.000 E969.4401
G1 X-20.227 Y-5.939 E970.3853
G1 X-19.176 Y-8.757 E971.3304
G1 X-17.734 Y-11.397 E972.2757
G1 X-15.932 Y-13.805 E973.2208
G1 X-15.109 Y-14.629 E973.5868
G0 X-14.967 Y-14.770 F4800
G0 X-18.955 Y-18.560
G0 X-19.400 Y-19.005
G0 X-19.993 Y-19.546
G0 X-19.993 Y-19.546
G0 X-20.003 Y-19.555
G0 X-19.993 Y-19.546
G1 X-19.400 Y-19.005 E973.8392 F900
G1 X-15.460 Y-15.065 E975.5903
G1 X-16.354 Y-14.171 E975.9875
G1 X-18.204 Y-11.699 E976.9578
G1 X-19.683 Y-8.989 E977.9280
G1 X-20.763 Y-6.096 E978.8984
G1 X-21.419 Y-3.080 E979.8685
G1 X-21.639 Y0.000 E980.8387
G1 X-21.419 Y3.079 E981.8089
G1 X-20.763 Y6.096 E982.7792
G1 X-19.683 Y8.989 E983.7495
G1 X-18.204 Y11.699 E984.7197
G1 X-16.354 Y14.171 E985.6899
G1 X-15.460 Y15.065 E986.0872
G1 X-20.009 Y19.614 E988.1088
G1 X-20.357 Y19.284 E988.2595
G1 X-22.323 Y16.969 E989.2137
G1 X-24.027 Y14.456 E990.1680
G1 X-25.449 Y11.774 E991.1220
G1 X-26.573 Y8.954 E992.0760
G1 X-27.385 Y6.028 E993.0303
G1 X-27.876 Y3.032 E993.9844
G1 X-28.041 Y0.000 E994.9386
G1 X-27.876 Y-3.032 E995.8928
G1 X-27.385 Y-6.028 E996.8469
G1 X-26.573 Y-8.953 E997.8010
G1 X-25.449 Y-11.774 E998.7552
G1 X-24.027 Y-14.457 E999.7093
G1 X-22.323 Y-16.970 E1000.6634
G1 X-20.358 Y-19.283 E1001.6174
G1 X-20.081 Y-19.546 E1001.7372
G0 X-19.705 Y-19.902 F4800
G1 X-19.559 Y-20.039 E1001.8001 F900
G1 X-18.153 Y-21.372 E1002.4089
G1 X-15.736 Y-23.209 E1003.3630
G1 X-13.134 Y-24.774 E1004.3172
G1 X-10.379 Y-26.049 E1005.2713
G1 X-7.501 Y-27.019 E1006.2256
G1 X-4.536 Y-27.671 E1007.1797
G1 X-1.518 Y-28.000 E1008.1336
G1 X1.518 Y-28.000 E1009.0878
G1 X4.537 Y-27.671 E1010.0420
G1 X7.501 Y-27.019 E1010.9960
G1 X10.378 Y-26.050 E1011.9500
G1 X13.135 Y-24.774 E1012.9044
G1 X15.737 Y-23.209 E1013.8586
G1 X18.153 Y-21.371 E1014.8127
G1 X19.603 Y-19.998 E1015.4402
G1 X15.065 Y-15.460 E1017.4571
G1 X14.171 Y-16.354 E1017.8543
G1 X11.699 Y-18.204 E1018.8246
G1 X8.989 Y-19.684 E1019.7950
G1 X6.097 Y-20.762 E1020.7650
G1 X3.080 Y-21.419 E1021.7353
G1 X0.000 Y-21.639 E1022.7056
G1 X-3.080 Y-21.419 E1023.6760
G1 X-6.096 Y-20.763 E1024.6459
G1 X-8.989 Y-19.683 E1025.6163
G1 X-11.699 Y-18.204 E1026.5864
G1 X-14.171 Y-16.354 E1027.5568
G1 X-15.065 Y-15.460 E1027.9540
G1 X-19.561 Y-19.956 E1029.9520
G0 X-19.561 Y-19.956 F4800
G0 X-24.896 Y-24.500
G0 X-24.896 Y-24.500
G0 X-24.906 Y-24.509
G0 X-24.896 Y-24.500
G1 X-20.404 Y-20.008 E1031.9485 F900
G1 X-20.763 Y-19.668 E1032.1040
G1 X-22.768 Y-17.307 E1033.0771
G1 X-24.506 Y-14.744 E1034.0503
G1 X-25.956 Y-12.008 E1035.0236
G1 X-27.102 Y-9.132 E1035.9966
G1 X-27.931 Y-6.148 E1036.9697
G1 X-28.432 Y-3.092 E1037.9429
G1 X-28.599 Y0.000 E1038.9161
G1 X-28.432 Y3.092 E1039.8893
G1 X-27.931 Y6.148 E1040.8624
G1 X-27.102 Y9.131 E1041.8354
G1 X-25.956 Y12.009 E1042.8087
G1 X-24.506 Y14.744 E1043.7819
G1 X-22.768 Y17.307 E1044.7550
G1 X-20.763 Y19.667 E1045.7280
G1 X-20.429 Y19.985 E1045.8729
G1 X-24.938 Y24.544 E1047.8879
G1 X-26.812 Y22.498 E1048.7598
G1 X-28.671 Y20.075 E1049.7195
G1 X-30.311 Y17.500 E1050.6790
G1 X-31.721 Y14.792 E1051.6384
G1 X-32.890 Y11.971 E1052.5980
G1 X-33.808 Y9.059 E1053.5575
G1 X-34.469 Y6.078 E1054.5171
G1 X-34.867 Y3.051 E1055.4766
G1 X-35.001 Y0.000 E1056.4362
G1 X-34.867 Y-3.051 E1057.3958
G1 X-34.469 Y-6.078 E1058.3553
G1 X-33.808 Y-9.059 E1059.3148
G1 X-32.890 Y-11.971 E1060.2744
G1 X-31.721 Y-14.792 E1061.2339
G1 X-30.311 Y-17.500 E1062.1934
G1 X-28.671 Y-20.075 E1063.1528
G1 X-26.812 Y-22.498 E1064.1125
G1 X-24.979 Y-24.499 E1064.9652
G0 X-24.979 Y-24.499 F4800
G0 X-24.938 Y-24.543
G0 X-24.936 Y-24.541
G0 X-24.936 Y-24.541
G0 X-24.543 Y-24.938
G0 X-24.541 Y-24.936
G0 X-24.541 Y-24.936
G0 X-24.499 Y-24.979
G0 X-24.499 Y-24.979
G0 X-24.489 Y-24.988
G0 X-24.499 Y-24.979
G1 X-22.498 Y-26.812 E1065.8180 F900
G1 X-20.076 Y-28.671 E1066.7775
G1 X-17.500 Y-30.311 E1067.7372
G1 X-14.792 Y-31.721 E1068.6967
G1 X-11.971 Y-32.890 E1069.6564
G1 X-9.058 Y-33.808 E1070.6161
G1 X-6.078 Y-34.469 E1071.5752
G1 X-3.051 Y-34.867 E1072.5347
G1 X0.000 Y-35.001 E1073.4945
G1 X3.050 Y-34.867 E1074.4537
G1 X6.079 Y-34.469 E1075.4137
G1 X9.059 Y-33.808 E1076.3732
G1 X11.970 Y-32.890 E1077.3323
G1 X14.793 Y-31.721 E1078.2925
G1 X17.500 Y-30.311 E1079.2517
G1 X20.076 Y-28.670 E1080.2115
G1 X22.497 Y-26.812 E1081.1705
G1 X24.543 Y-24.938 E1082.0424
G1 X19.998 Y-20.393 E1084.0624
G1 X18.515 Y-21.798 E1084.7042
G1 X16.049 Y-23.671 E1085.6774
G1 X13.396 Y-25.268 E1086.6506
G1 X10.585 Y-26.568 E1087.6238
G1 X7.651 Y-27.557 E1088.5970
G1 X4.627 Y-28.223 E1089.5699
G1 X1.548 Y-28.557 E1090.5432
G1 X-1.549 Y-28.557 E1091.5164
G1 X-4.626 Y-28.223 E1092.4893
G1 X-7.651 Y-27.557 E1093.4625
G1 X-10.586 Y-26.568 E1094.4358
G1 X-13.396 Y-25.268 E1095.4089
G1 X-16.050 Y-23.671 E1096.3821
G1 X-18.515 Y-21.797 E1097.3551
G1 X-19.997 Y-20.393 E1097.9969
G1 X-24.500 Y-24.896 E1099.9982
G0 X-29.559 Y-29.756 F4800
G1 X-29.420 Y-29.900 E1100.0610 F900
G1 X-29.124 Y-30.208 E1100.1952
G1 X-26.841 Y-32.253 E1101.1584
G1 X-24.415 Y-34.126 E1102.1215
G1 X-21.859 Y-35.817 E1103.0848
G1 X-19.186 Y-37.317 E1104.0479
G1 X-16.411 Y-38.618 E1105.0111
G1 X-13.549 Y-39.713 E1105.9740
G1 X-10.612 Y-40.596 E1106.9377
G1 X-7.622 Y-41.262 E1107.9005
G1 X-4.591 Y-41.709 E1108.8634
G1 X-1.532 Y-41.932 E1109.8271
G1 X1.533 Y-41.932 E1110.7902
G1 X4.589 Y-41.709 E1111.7532
G1 X7.623 Y-41.262 E1112.7169
G1 X10.613 Y-40.596 E1113.6798
G1 X13.547 Y-39.713 E1114.6426
G1 X16.412 Y-38.618 E1115.6063
G1 X19.187 Y-37.317 E1116.5696
G1 X21.859 Y-35.817 E1117.5326
G1 X24.415 Y-34.126 E1118.4955
G1 X26.841 Y-32.253 E1119.4589
G1 X29.147 Y-30.184 E1120.4323
G1 X29.461 Y-29.857 E1120.5750
G1 X24.938 Y-25.333 E1122.5853
G1 X22.858 Y-27.239 E1123.4719
G1 X20.395 Y-29.129 E1124.4474
G1 X17.780 Y-30.795 E1125.4220
G1 X15.028 Y-32.228 E1126.3969
G1 X12.163 Y-33.414 E1127.3715
G1 X9.204 Y-34.348 E1128.3464
G1 X6.174 Y-35.019 E1129.3218
G1 X3.099 Y-35.424 E1130.2964
G1 X0.000 Y-35.559 E1131.2715
G1 X-3.099 Y-35.424 E1132.2461
G1 X-6.176 Y-35.019 E1133.2213
G1 X-9.205 Y-34.348 E1134.1963
G1 X-12.162 Y-33.415 E1135.1709
G1 X-15.028 Y-32.228 E1136.1456
G1 X-17.780 Y-30.795 E1137.1207
G1 X-20.396 Y-29.129 E1138.0955
G1 X-22.857 Y-27.240 E1139.0703
G1 X-24.938 Y-25.333 E1139.9573
G1 X-29.419 Y-29.815 E1141.9489
G0 X-29.949 Y-29.553 F4800
G1 X-29.808 Y-29.412 E1142.0117 F900
G1 X-25.333 Y-24.938 E1144.0001
G1 X-27.240 Y-22.857 E1144.8871
G1 X-29.128 Y-20.396 E1145.8618
G1 X-30.795 Y-17.780 E1146.8368
G1 X-32.228 Y-15.028 E1147.8116
G1 X-33.415 Y-12.162 E1148.7866
G1 X-34.348 Y-9.204 E1149.7614
G1 X-35.019 Y-6.175 E1150.7363
G1 X-35.424 Y-3.099 E1151.7112
G1 X-35.559 Y0.000 E1152.6862
G1 X-35.424 Y3.099 E1153.6609
G1 X-35.019 Y6.175 E1154.6359
G1 X-34.348 Y9.203 E1155.6106
G1 X-33.415 Y12.162 E1156.5856
G1 X-32.228 Y15.028 E1157.5604
G1 X-30.795 Y17.780 E1158.5353
G1 X-29.128 Y20.396 E1159.5104
G1 X-27.240 Y22.857 E1160.4851
G1 X-25.333 Y24.938 E1161.3721
G1 X-29.850 Y29.454 E1163.3793
G1 X-31.251 Y28.001 E1164.0134
G1 X-33.211 Y25.645 E1164.9768
G1 X-34.995 Y23.152 E1165.9401
G1 X-36.591 Y20.537 E1166.9031
G1 X-37.993 Y17.810 E1167.8666
G1 X-39.192 Y14.990 E1168.8296
G1 X-40.182 Y12.088 E1169.7930
G1 X-40.957 Y9.123 E1170.7560
G1 X-41.514 Y6.109 E1171.7192
G1 X-41.849 Y3.063 E1172.6824
G1 X-41.961 Y0.000 E1173.6454
G1 X-41.849 Y-3.063 E1174.6088
G1 X-41.514 Y-6.109 E1175.5718
G1 X-40.957 Y-9.123 E1176.5350
G1 X-40.181 Y-12.089 E1177.4983
G1 X-39.192 Y-14.989 E1178.4614
G1 X-37.993 Y-17.810 E1179.4246
G1 X-36.591 Y-20.537 E1180.3879
G1 X-34.995 Y-23.152 E1181.3510
G1 X-33.211 Y-25.645 E1182.3141
G1 X-31.251 Y-28.001 E1183.2775
G1 X-29.892 Y-29.411 E1183.8928
G0 X-29.753 Y-29.555 F4800
G0 X-34.872 Y-34.476
G1 X-34.730 Y-34.335 E1183.9557 F900
G1 X-30.245 Y-29.849 E1185.9491
G1 X-31.667 Y-28.375 E1186.5929
G1 X-33.654 Y-25.986 E1187.5692
G1 X-35.461 Y-23.461 E1188.5450
G1 X-37.079 Y-20.810 E1189.5211
G1 X-38.499 Y-18.048 E1190.4972
G1 X-39.714 Y-15.189 E1191.4733
G1 X-40.717 Y-12.250 E1192.4491
G1 X-41.502 Y-9.245 E1193.4252
G1 X-42.066 Y-6.191 E1194.4012
G1 X-42.406 Y-3.104 E1195.3771
G1 X-42.519 Y0.000 E1196.3533
G1 X-42.406 Y3.104 E1197.3292
G1 X-42.066 Y6.191 E1198.3052
G1 X-41.502 Y9.245 E1199.2812
G1 X-40.717 Y12.250 E1200.2572
G1 X-39.714 Y15.189 E1201.2332
G1 X-38.499 Y18.048 E1202.2092
G1 X-37.079 Y20.810 E1203.1854
G1 X-35.461 Y23.461 E1204.1615
G1 X-33.654 Y25.986 E1205.1372
G1 X-31.667 Y28.375 E1206.1135
G1 X-30.245 Y29.849 E1206.7573
G1 X-34.773 Y34.377 E1208.7695
G1 X-35.661 Y33.489 E1209.1644
G1 X-37.694 Y31.183 E1210.1304
G1 X-39.577 Y28.755 E1211.0959
G1 X-41.305 Y26.213 E1212.0618
G1 X-42.870 Y23.567 E1213.0278
G1 X-44.265 Y20.830 E1213.9933
G1 X-45.485 Y18.009 E1214.9592
G1 X-46.526 Y15.117 E1215.9250
G1 X-47.384 Y12.166 E1216.8909
G1 X-48.054 Y9.167 E1217.8566
G1 X-48.535 Y6.131 E1218.8224
G1 X-48.824 Y3.072 E1219.7882
G1 X-48.921 Y0.000 E1220.7539
G1 X-48.824 Y-3.072 E1221.7197
G1 X-48.535 Y-6.131 E1222.6854
G1 X-48.054 Y-9.167 E1223.6512
G1 X-47.384 Y-12.166 E1224.6171
G1 X-46.526 Y-15.117 E1225.5829
G1 X-45.485 Y-18.009 E1226.5487
G1 X-44.265 Y-20.830 E1227.5146
G1 X-42.870 Y-23.567 E1228.4801
G1 X-41.305 Y-26.213 E1229.4463
G1 X-39.577 Y-28.755 E1230.4121
G1 X-37.694 Y-31.183 E1231.3777
G1 X-35.662 Y-33.488 E1232.3435
G1 X-34.815 Y-34.335 E1232.7196
G0 X-34.674 Y-34.476 F4800
G0 X-38.609 Y-38.214
G0 X-39.688 Y-39.239
G0 X-39.688 Y-39.239
G0 X-39.697 Y-39.248
G0 X-39.688 Y-39.238
G1 X-39.093 Y-38.698 E1232.9720 F900
G1 X-35.168 Y-34.772 E1234.7168
G1 X-36.069 Y-33.871 E1235.1176
G1 X-38.125 Y-31.539 E1236.0942
G1 X-40.030 Y-29.084 E1237.0709
G1 X-41.777 Y-26.512 E1238.0480
G1 X-43.359 Y-23.837 E1239.0247
G1 X-44.770 Y-21.068 E1240.0013
G1 X-46.005 Y-18.214 E1240.9784
G1 X-47.058 Y-15.290 E1241.9552
G1 X-47.925 Y-12.305 E1242.9319
G1 X-48.603 Y-9.271 E1243.9088
G1 X-49.089 Y-6.202 E1244.8856
G1 X-49.382 Y-3.107 E1245.8624
G1 X-49.480 Y0.000 E1246.8394
G1 X-49.382 Y3.107 E1247.8162
G1 X-49.089 Y6.202 E1248.7931
G1 X-48.603 Y9.272 E1249.7699
G1 X-47.925 Y12.305 E1250.7466
G1 X-47.058 Y15.290 E1251.7234
G1 X-46.005 Y18.215 E1252.7002
G1 X-44.770 Y21.068 E1253.6771
G1 X-43.359 Y23.837 E1254.6538
G1 X-41.777 Y26.512 E1255.6305
G1 X-40.030 Y29.083 E1256.6075
G1 X-38.125 Y31.539 E1257.5842
G1 X-36.069 Y33.871 E1258.5609
G1 X-35.168 Y34.772 E1258.9617
G1 X-39.703 Y39.307 E1260.9772
G1 X-40.054 Y38.965 E1261.1312
G1 X-42.140 Y36.699 E1262.0990
G1 X-44.098 Y34.323 E1263.0667
G1 X-45.922 Y31.841 E1264.0345
G1 X-47.606 Y29.263 E1265.0021
G1 X-49.145 Y26.596 E1265.9700
G1 X-50.536 Y23.849 E1266.9374
G1 X-51.773 Y21.028 E1267.9054
G1 X-52.853 Y18.144 E1268.8732
G1 X-53.772 Y15.205 E1269.8409
G1 X-54.528 Y12.220 E1270.8086
G1 X-55.118 Y9.198 E1271.7764
G1 X-55.541 Y6.147 E1272.7441
G1 X-55.795 Y3.078 E1273.7118
G1 X-55.880 Y0.000 E1274.6796
G1 X-55.795 Y-3.078 E1275.6473
G1 X-55.541 Y-6.147 E1276.6151
G1 X-55.118 Y-9.198 E1277.5829
G1 X-54.528 Y-12.220 E1278.5507
G1 X-53.772 Y-15.205 E1279.5183
G1 X-52.853 Y-18.144 E1280.4861
G1 X-51.773 Y-21.028 E1281.4537
G1 X-50.536 Y-23.849 E1282.4219
G1 X-49.146 Y-26.596 E1283.3893
G1 X-47.606 Y-29.263 E1284.3571
G1 X-45.922 Y-31.841 E1285.3247
G1 X-44.097 Y-34.323 E1286.2927
G1 X-42.139 Y-36.700 E1287.2606
G1 X-40.054 Y-38.966 E1288.2284
G1 X-39.775 Y-39.237 E1288.3505
G0 X-39.632 Y-39.377 F4800
G0 X-44.334 Y-44.531
G1 X-44.189 Y-44.669 E1288.4133 F900
G1 X-42.201 Y-46.562 E1289.2759
G1 X-39.865 Y-48.577 E1290.2454
G1 X-37.434 Y-50.474 E1291.2144
G1 X-34.911 Y-52.250 E1292.1840
G1 X-32.307 Y-53.900 E1293.1527
G1 X-29.622 Y-55.421 E1294.1226
G1 X-26.868 Y-56.807 E1295.0914
G1 X-24.049 Y-58.057 E1296.0607
G1 X-23.469 Y-58.280 E1296.2560
G1 X23.469 Y-58.280 E1311.0065
G1 X24.048 Y-58.057 E1311.2014
G1 X26.868 Y-56.807 E1312.1709
G1 X29.620 Y-55.422 E1313.1392
G1 X32.304 Y-53.902 E1314.1084
G1 X34.913 Y-52.249 E1315.0789
G1 X37.435 Y-50.473 E1316.0483
G1 X39.865 Y-48.576 E1317.0171
G1 X42.204 Y-46.559 E1317.9874
G1 X44.232 Y-44.628 E1318.8677
G1 X39.697 Y-40.092 E1320.8834
G1 X38.224 Y-41.526 E1321.5293
G1 X35.883 Y-43.564 E1322.5048
G1 X33.428 Y-45.475 E1323.4825
G1 X30.871 Y-47.248 E1324.4602
G1 X28.217 Y-48.880 E1325.4393
G1 X25.485 Y-50.358 E1326.4154
G1 X22.670 Y-51.686 E1327.3934
G1 X19.791 Y-52.856 E1328.3701
G1 X16.849 Y-53.866 E1329.3475
G1 X13.853 Y-54.713 E1330.3259
G1 X10.821 Y-55.392 E1331.3025
G1 X7.752 Y-55.905 E1332.2803
G1 X4.660 Y-56.247 E1333.2578
G1 X1.555 Y-56.418 E1334.2350
G1 X-1.554 Y-56.418 E1335.2122
G1 X-4.660 Y-56.247 E1336.1898
G1 X-7.753 Y-55.905 E1337.1675
G1 X-10.818 Y-55.393 E1338.1442
G1 X-13.856 Y-54.712 E1339.1226
G1 X-16.849 Y-53.866 E1340.1000
G1 X-19.788 Y-52.857 E1341.0765
G1 X-22.671 Y-51.686 E1342.0542
G1 X-25.485 Y-50.358 E1343.0320
G1 X-28.220 Y-48.878 E1344.0093
G1 X-30.869 Y-47.250 E1344.9866
G1 X-33.425 Y-45.477 E1345.9641
G1 X-35.879 Y-43.567 E1346.9414
G1 X-38.226 Y-41.524 E1347.9191
G1 X-39.697 Y-40.092 E1348.5642
G1 X-44.190 Y-44.585 E1350.5610
G0 X-44.727 Y-44.331 F4800
G1 X-44.585 Y-44.190 E1350.6239 F900
G1 X-40.098 Y-39.703 E1352.6182
G1 X-40.455 Y-39.355 E1352.7747
G1 X-42.561 Y-37.067 E1353.7521
G1 X-44.539 Y-34.665 E1354.7299
G1 X-46.381 Y-32.159 E1355.7072
G1 X-48.082 Y-29.555 E1356.6847
G1 X-49.637 Y-26.862 E1357.6620
G1 X-51.041 Y-24.088 E1358.6392
G1 X-52.291 Y-21.239 E1359.6168
G1 X-53.382 Y-18.326 E1360.5942
G1 X-54.310 Y-15.357 E1361.5717
G1 X-55.074 Y-12.342 E1362.5491
G1 X-55.670 Y-9.290 E1363.5264
G1 X-56.097 Y-6.209 E1364.5039
G1 X-56.354 Y-3.109 E1365.4813
G1 X-56.440 Y0.000 E1366.4587
G1 X-56.354 Y3.109 E1367.4362
G1 X-56.097 Y6.209 E1368.4135
G1 X-55.670 Y9.290 E1369.3909
G1 X-55.074 Y12.342 E1370.3683
G1 X-54.310 Y15.357 E1371.3457
G1 X-53.382 Y18.326 E1372.3231
G1 X-52.291 Y21.239 E1373.3005
G1 X-51.041 Y24.087 E1374.2781
G1 X-49.637 Y26.862 E1375.2552
G1 X-48.082 Y29.556 E1376.2328
G1 X-46.381 Y32.159 E1377.2101
G1 X-44.539 Y34.666 E1378.1876
G1 X-42.561 Y37.067 E1379.1652
G1 X-40.455 Y39.355 E1380.1426
G1 X-40.098 Y39.702 E1380.2991
G1 X-44.628 Y44.232 E1382.3123
G1 X-46.561 Y42.201 E1383.1936
G1 X-48.576 Y39.865 E1384.1631
G1 X-50.474 Y37.434 E1385.1322
G1 X-52.250 Y34.912 E1386.1016
G1 X-53.900 Y32.307 E1387.0708
G1 X-55.421 Y29.623 E1388.0402
G1 X-56.807 Y26.867 E1389.0094
G1 X-58.057 Y24.048 E1389.9785
G1 X-58.280 Y23.469 E1390.1736
G1 X-58.280 Y-23.469 E1404.9241
G1 X-58.057 Y-24.048 E1405.1193
G1 X-56.807 Y-26.868 E1406.0885
G1 X-55.420 Y-29.623 E1407.0579
G1 X-53.899 Y-32.307 E1408.0272
G1 X-52.249 Y-34.913 E1408.9965
G1 X-50.474 Y-37.433 E1409.9652
G1 X-48.576 Y-39.865 E1410.9347
G1 X-46.562 Y-42.200 E1411.9038
G1 X-44.669 Y-44.189 E1412.7666
G0 X-44.669 Y-44.189 F4800
G0 X-44.628 Y-44.232
G0 X-47.047 Y-47.442
G0 X-47.047 Y-47.442
G0 X-47.140 Y-47.536
G0 X-47.127 Y-47.552
G0 X-47.127 Y-47.552
G0 X-46.595 Y-48.209
G0 X-46.179 Y-48.850
G0 X-45.832 Y-49.531
G0 X-45.558 Y-50.244
G0 X-45.360 Y-50.982
G0 X-45.241 Y-51.737
G0 X-45.201 Y-52.500
G0 X-50.234 Y-51.803
G0 X-50.234 Y-51.803
G0 X-52.487 Y-54.885
G0 X-52.487 Y-54.885
G0 X-52.495 Y-54.896
G0 X-52.487 Y-54.885
G1 X-51.626 Y-54.731 E1413.0416 F900
G1 X-50.854 Y-54.237 E1413.3297
G1 X-50.764 Y-54.146 E1413.3698
G1 X-50.270 Y-53.376 E1413.6572
G1 X-50.096 Y-52.500 E1413.9379
G1 X-50.279 Y-51.580 E1414.2327
G1 X-50.800 Y-50.800 E1414.5275
G1 X-51.580 Y-50.279 E1414.8223
G1 X-52.500 Y-50.096 E1415.1171
G1 X-53.420 Y-50.279 E1415.4120
G1 X-54.200 Y-50.800 E1415.7068
G1 X-54.721 Y-51.580 E1416.0015
G1 X-54.904 Y-52.500 E1416.2963
G1 X-54.721 Y-53.420 E1416.5911
G1 X-54.200 Y-54.200 E1416.8859
G1 X-53.457 Y-54.696 E1417.1666
G1 X-52.605 Y-54.883 E1417.4409
G0 X-52.605 Y-54.883 F4800
G0 X-54.811 Y-52.033
G0 X-54.811 Y-52.033
G0 X-54.721 Y-51.580
G0 X-54.200 Y-50.800
G0 X-55.504 Y-45.850
G0 X-56.182 Y-46.199
G0 X-56.820 Y-46.619
G0 X-57.384 Y-47.075
G0 X-58.096 Y-47.790
G0 X-58.096 Y-47.790
G0 X-58.105 Y-47.779
G0 X-58.096 Y-47.790
G1 X-57.384 Y-47.075 E1417.7579 F900
G1 X-56.820 Y-46.619 E1417.9858
G1 X-56.182 Y-46.199 E1418.2261
G1 X-55.504 Y-45.850 E1418.4657
G1 X-54.684 Y-45.539 E1418.7412
G1 X-53.905 Y-45.330 E1418.9948
G1 X-53.875 Y-45.237 E1419.0255
G1 X-55.422 Y-43.346 E1419.7933
G1 X-57.286 Y-40.850 E1420.7721
G1 X-58.115 Y-39.632 E1421.2352
G1 X-58.280 Y-39.683 E1421.2896
G1 X-58.280 Y-47.773 E1423.8320
G1 X-58.194 Y-47.809 E1423.8613
G0 X-58.009 Y-47.886 F4800
G0 X-57.724 Y-48.050
G0 X-54.056 Y-50.165
G0 X-54.056 Y-50.165
G0 X-53.595 Y-49.857
G0 X-52.500 Y-49.639
G0 X-51.405 Y-49.857
G0 X-50.477 Y-50.477
G0 X-49.857 Y-51.405
G0 X-49.639 Y-52.500
G0 X-49.677 Y-52.690
G0 X-49.677 Y-52.690
G0 X-46.054 Y-54.779
G0 X-46.054 Y-54.779
G0 X-39.739 Y-58.420
G0 X-39.750 Y-58.414
G1 X-39.689 Y-58.223 E1423.9242 F900
G1 X-39.655 Y-58.117 E1423.9591
G1 X-42.107 Y-56.369 E1424.9053
G1 X-44.561 Y-54.450 E1425.8843
G1 X-45.233 Y-53.875 E1426.1622
G1 X-45.330 Y-53.905 E1426.1943
G1 X-45.539 Y-54.684 E1426.4478
G1 X-45.850 Y-55.504 E1426.7231
G1 X-46.199 Y-56.182 E1426.9629
G1 X-46.619 Y-56.820 E1427.2029
G1 X-47.103 Y-57.411 E1427.4431
G1 X-47.832 Y-58.139 E1427.7666
G1 X-47.773 Y-58.280 E1427.8147
G1 X-39.767 Y-58.280 E1430.3306
G0 X-25.403 Y-58.417 F4800
G1 X-25.362 Y-58.222 E1430.3934 F900
G1 X-25.336 Y-58.098 E1430.4333
G1 X-27.108 Y-57.312 E1431.0425
G1 X-29.886 Y-55.914 E1432.0199
G1 X-32.594 Y-54.380 E1432.9979
G1 X-35.222 Y-52.715 E1433.9757
G1 X-37.768 Y-50.923 E1434.9540
G1 X-40.219 Y-49.009 E1435.9313
G1 X-42.577 Y-46.976 E1436.9097
G1 X-44.627 Y-45.023 E1437.7994
G1 X-47.140 Y-47.536 E1438.9161
G1 X-46.595 Y-48.209 E1439.1886
G1 X-46.179 Y-48.850 E1439.4287
G1 X-45.832 Y-49.531 E1439.6688
G1 X-45.558 Y-50.244 E1439.9089
G1 X-45.360 Y-50.982 E1440.1490
G1 X-45.241 Y-51.737 E1440.3892
G1 X-45.201 Y-52.500 E1440.6293
G1 X-45.234 Y-53.138 E1440.8300
G1 X-44.206 Y-54.018 E1441.2551
G1 X-41.774 Y-55.920 E1442.2252
G1 X-39.258 Y-57.714 E1443.1963
G1 X-38.385 Y-58.280 E1443.5236
G1 X-25.434 Y-58.280 E1447.5933
G0 X-25.234 Y-58.280 F4800
G0 X-24.911 Y-58.280
G0 X-24.650 Y-58.280
G0 X-24.650 Y-58.280
G0 X-24.220 Y-58.471
G0 X-23.552 Y-58.728
G0 X23.552 Y-58.728
G0 X24.219 Y-58.471
G0 X24.650 Y-58.280
G0 X24.650 Y-58.280
G0 X25.448 Y-58.280
G0 X25.448 Y-58.280
G0 X26.045 Y-58.280
G0 X26.031 Y-58.280
G1 X38.385 Y-58.280 E1451.4753 F900
G1 X39.260 Y-57.713 E1451.8032
G1 X41.773 Y-55.921 E1452.7731
G1 X44.204 Y-54.020 E1453.7430
G1 X45.234 Y-53.138 E1454.1692
G1 X45.204 Y-52.561 E1454.3508
G1 X45.247 Y-51.698 E1454.6221
G1 X45.370 Y-50.946 E1454.8618
G1 X45.572 Y-50.209 E1455.1018
G1 X45.849 Y-49.497 E1455.3419
G1 X46.199 Y-48.819 E1455.5817
G1 X46.642 Y-48.151 E1455.8337
G1 X47.140 Y-47.536 E1456.0823
G1 X44.628 Y-45.023 E1457.1990
G1 X42.579 Y-46.974 E1458.0879
G1 X40.221 Y-49.008 E1459.0667
G1 X37.766 Y-50.924 E1460.0450
G1 X35.224 Y-52.714 E1461.0221
G1 X32.597 Y-54.378 E1461.9995
G1 X29.884 Y-55.915 E1462.9795
G1 X27.108 Y-57.312 E1463.9559
G1 X25.751 Y-57.914 E1464.4226
G1 X25.940 Y-58.229 E1464.5383
G0 X26.044 Y-58.400 F4800
G0 X39.567 Y-58.280
G1 X39.767 Y-58.280 E1464.6012 F900
G1 X47.773 Y-58.280 E1467.1172
G1 X47.832 Y-58.139 E1467.1653
G1 X47.076 Y-57.384 E1467.5011
G1 X46.595 Y-56.790 E1467.7411
G1 X46.178 Y-56.150 E1467.9812
G1 X45.832 Y-55.469 E1468.2212
G1 X45.558 Y-54.756 E1468.4613
G1 X45.330 Y-53.905 E1468.7380
G1 X45.233 Y-53.875 E1468.7700
G1 X44.559 Y-54.451 E1469.0487
G1 X42.110 Y-56.366 E1470.0255
G1 X39.655 Y-58.118 E1470.9733
G1 X39.689 Y-58.223 E1471.0082
G0 X39.750 Y-58.414 F4800
G0 X39.841 Y-58.280
G0 X39.707 Y-58.280
G0 X39.655 Y-58.118
G0 X40.239 Y-57.701
G0 X40.239 Y-57.701
G0 X41.773 Y-55.921
G0 X41.162 Y-56.357
G0 X41.162 Y-56.357
G0 X45.822 Y-49.567
G0 X45.822 Y-49.567
G0 X47.434 Y-47.218
G0 X47.427 Y-47.228
G1 X47.582 Y-47.103 E1471.0710 F900
G1 X48.209 Y-46.595 E1471.3246
G1 X48.850 Y-46.178 E1471.5648
G1 X49.531 Y-45.832 E1471.8049
G1 X50.244 Y-45.558 E1472.0449
G1 X50.982 Y-45.360 E1472.2850
G1 X51.737 Y-45.241 E1472.5251
G1 X52.500 Y-45.201 E1472.7653
G1 X53.154 Y-45.235 E1472.9709
G1 X54.985 Y-42.997 E1473.8795
G1 X56.828 Y-40.530 E1474.8474
G1 X58.280 Y-38.395 E1475.6588
G1 X58.280 Y-25.971 E1479.5630
G1 X57.914 Y-25.751 E1479.6975
G1 X57.314 Y-27.104 E1480.1627
G1 X55.912 Y-29.889 E1481.1426
G1 X54.379 Y-32.596 E1482.1202
G1 X52.715 Y-35.222 E1483.0972
G1 X50.923 Y-37.768 E1484.0756
G1 X49.007 Y-40.223 E1485.0543
G1 X46.975 Y-42.578 E1486.0319
G1 X45.023 Y-44.628 E1486.9213
G1 X47.493 Y-47.098 E1488.0190
G0 X47.635 Y-47.239 F4800
G0 X47.537 Y-47.139
G0 X47.536 Y-47.140
G0 X45.023 Y-44.628
G0 X45.059 Y-44.590
G0 X45.059 Y-44.590
G0 X46.975 Y-42.578
G0 X49.007 Y-40.223
G0 X50.474 Y-37.434
G0 X48.574 Y-39.868
G0 X46.562 Y-42.201
G0 X44.669 Y-44.189
G0 X44.669 Y-44.189
G0 X44.660 Y-44.179
G0 X44.669 Y-44.189
G1 X46.562 Y-42.201 E1488.8816 F900
G1 X48.574 Y-39.868 E1489.8499
G1 X50.474 Y-37.434 E1490.8202
G1 X52.249 Y-34.914 E1491.7889
G1 X53.900 Y-32.307 E1492.7587
G1 X55.422 Y-29.620 E1493.7290
G1 X56.808 Y-26.865 E1494.6984
G1 X58.057 Y-24.048 E1495.6666
G1 X58.280 Y-23.469 E1495.8618
G1 X58.280 Y23.469 E1510.6123
G1 X58.057 Y24.049 E1510.8076
G1 X56.807 Y26.868 E1511.7769
G1 X55.421 Y29.622 E1512.7457
G1 X53.900 Y32.307 E1513.7156
G1 X52.250 Y34.911 E1514.6843
G1 X50.474 Y37.434 E1515.6539
G1 X48.577 Y39.865 E1516.6229
G1 X46.562 Y42.201 E1517.5924
G1 X44.628 Y44.232 E1518.4738
G1 X40.098 Y39.702 E1520.4869
G1 X40.455 Y39.355 E1520.6434
G1 X42.561 Y37.067 E1521.6208
G1 X44.538 Y34.666 E1522.5981
G1 X46.381 Y32.159 E1523.5759
G1 X48.082 Y29.556 E1524.5532
G1 X49.637 Y26.861 E1525.5309
G1 X51.042 Y24.087 E1526.5082
G1 X52.291 Y21.239 E1527.4855
G1 X53.381 Y18.327 E1528.4625
G1 X54.310 Y15.357 E1529.4404
G1 X55.074 Y12.341 E1530.4182
G1 X55.669 Y9.291 E1531.3947
G1 X56.097 Y6.207 E1532.3730
G1 X56.354 Y3.107 E1533.3506
G1 X56.440 Y0.001 E1534.3270
G1 X56.354 Y-3.111 E1535.3053
G1 X56.097 Y-6.207 E1536.2817
G1 X55.670 Y-9.289 E1537.2596
G1 X55.073 Y-12.343 E1538.2375
G1 X54.310 Y-15.356 E1539.2144
G1 X53.382 Y-18.326 E1540.1921
G1 X52.290 Y-21.240 E1541.1700
G1 X51.040 Y-24.090 E1542.1479
G1 X49.636 Y-26.865 E1543.1254
G1 X48.081 Y-29.557 E1544.1024
G1 X46.381 Y-32.159 E1545.0792
G1 X44.540 Y-34.665 E1546.0563
G1 X42.562 Y-37.065 E1547.0337
G1 X40.455 Y-39.355 E1548.0115
G1 X40.098 Y-39.702 E1548.1681
G1 X44.585 Y-44.190 E1550.1625
G0 X44.727 Y-44.331 F4800
G0 X39.401 Y-39.796
G1 X39.259 Y-39.655 E1550.2253 F900
G1 X34.772 Y-35.168 E1552.2195
G1 X33.870 Y-36.070 E1552.6204
G1 X31.542 Y-38.122 E1553.5958
G1 X29.086 Y-40.028 E1554.5729
G1 X26.512 Y-41.777 E1555.5507
G1 X23.837 Y-43.359 E1556.5273
G1 X21.068 Y-44.770 E1557.5042
G1 X18.216 Y-46.004 E1558.4806
G1 X15.290 Y-47.058 E1559.4578
G1 X12.305 Y-47.925 E1560.4348
G1 X9.273 Y-48.603 E1561.4111
G1 X6.200 Y-49.090 E1562.3888
G1 X3.107 Y-49.382 E1563.3650
G1 X0.000 Y-49.480 E1564.3422
G1 X-3.105 Y-49.382 E1565.3184
G1 X-6.203 Y-49.089 E1566.2960
G1 X-9.271 Y-48.603 E1567.2723
G1 X-12.305 Y-47.925 E1568.2493
G1 X-15.291 Y-47.057 E1569.2264
G1 X-18.215 Y-46.005 E1570.2029
G1 X-21.067 Y-44.770 E1571.1796
G1 X-23.836 Y-43.359 E1572.1562
G1 X-26.513 Y-41.777 E1573.1333
G1 X-29.083 Y-40.030 E1574.1101
G1 X-31.539 Y-38.125 E1575.0867
G1 X-33.871 Y-36.069 E1576.0637
G1 X-34.772 Y-35.168 E1576.4644
G1 X-39.302 Y-39.697 E1578.4774
G1 X-37.847 Y-41.113 E1579.1154
G1 X-35.524 Y-43.135 E1580.0833
G1 X-33.094 Y-45.027 E1581.0510
G1 X-30.564 Y-46.781 E1582.0186
G1 X-27.940 Y-48.394 E1582.9863
G1 X-25.232 Y-49.859 E1583.9539
G1 X-22.447 Y-51.174 E1584.9218
G1 X-19.594 Y-52.332 E1585.8893
G1 X-16.682 Y-53.333 E1586.8571
G1 X-13.717 Y-54.171 E1587.8253
G1 X-10.713 Y-54.844 E1588.7925
G1 X-7.676 Y-55.351 E1589.7603
G1 X-4.616 Y-55.689 E1590.7278
G1 X-1.538 Y-55.859 E1591.6964
G1 X1.540 Y-55.859 E1592.6636
G1 X4.613 Y-55.690 E1593.6309
G1 X7.677 Y-55.351 E1594.5996
G1 X10.713 Y-54.844 E1595.5671
G1 X13.718 Y-54.170 E1596.5349
G1 X16.680 Y-53.333 E1597.5021
G1 X19.594 Y-52.332 E1598.4703
G1 X22.447 Y-51.174 E1599.4381
G1 X25.233 Y-49.859 E1600.4064
G1 X27.942 Y-48.393 E1601.3741
G1 X30.566 Y-46.780 E1602.3423
G1 X33.094 Y-45.026 E1603.3091
G1 X35.524 Y-43.135 E1604.2767
G1 X37.845 Y-41.114 E1605.2439
G1 X39.259 Y-39.739 E1605.8636
G0 X39.292 Y-39.707 F4800
G0 X39.302 Y-39.697
G0 X34.772 Y-35.168
G0 X39.703 Y-39.307
G0 X39.703 Y-39.307
G0 X39.703 Y-39.307
G0 X39.745 Y-39.266
G0 X39.745 Y-39.266
G0 X39.755 Y-39.256
G0 X39.746 Y-39.265
G1 X40.054 Y-38.966 E1605.9988 F900
G1 X42.138 Y-36.701 E1606.9659
G1 X44.098 Y-34.322 E1607.9347
G1 X45.922 Y-31.840 E1608.9027
G1 X47.605 Y-29.265 E1609.8693
G1 X49.145 Y-26.597 E1610.8373
G1 X50.537 Y-23.847 E1611.8058
G1 X51.772 Y-21.030 E1612.7725
G1 X52.853 Y-18.143 E1613.7412
G1 X53.772 Y-15.204 E1614.7087
G1 X54.528 Y-12.220 E1615.6761
G1 X55.118 Y-9.198 E1616.6437
G1 X55.542 Y-6.146 E1617.6122
G1 X55.796 Y-3.077 E1618.5797
G1 X55.880 Y-0.001 E1619.5469
G1 X55.796 Y3.077 E1620.5145
G1 X55.541 Y6.148 E1621.4829
G1 X55.118 Y9.197 E1622.4503
G1 X54.528 Y12.219 E1623.4180
G1 X53.772 Y15.204 E1624.3854
G1 X52.852 Y18.145 E1625.3540
G1 X51.773 Y21.029 E1626.3217
G1 X50.536 Y23.848 E1627.2889
G1 X49.146 Y26.596 E1628.2568
G1 X47.606 Y29.263 E1629.2246
G1 X45.921 Y31.841 E1630.1924
G1 X44.097 Y34.323 E1631.1604
G1 X42.139 Y36.700 E1632.1282
G1 X40.054 Y38.965 E1633.0956
G1 X39.703 Y39.307 E1633.2498
G1 X35.168 Y34.772 E1635.2653
G1 X36.069 Y33.871 E1635.6659
G1 X38.125 Y31.539 E1636.6429
G1 X40.030 Y29.083 E1637.6195
G1 X41.777 Y26.513 E1638.5963
G1 X43.359 Y23.836 E1639.5734
G1 X44.770 Y21.067 E1640.5500
G1 X46.005 Y18.215 E1641.5267
G1 X47.057 Y15.291 E1642.5032
G1 X47.925 Y12.305 E1643.4803
G1 X48.603 Y9.271 E1644.4573
G1 X49.089 Y6.203 E1645.4336
G1 X49.382 Y3.105 E1646.4114
G1 X49.480 Y0.001 E1647.3876
G1 X49.382 Y-3.107 E1648.3647
G1 X49.090 Y-6.200 E1649.3409
G1 X48.603 Y-9.273 E1650.3187
G1 X47.925 Y-12.305 E1651.2949
G1 X47.058 Y-15.290 E1652.2720
G1 X46.004 Y-18.216 E1653.2493
G1 X44.770 Y-21.067 E1654.2255
G1 X43.359 Y-23.836 E1655.2021
G1 X41.775 Y-26.515 E1656.1801
G1 X40.028 Y-29.086 E1657.1569
G1 X38.125 Y-31.539 E1658.1326
G1 X36.069 Y-33.871 E1659.1095
G1 X35.168 Y-34.772 E1659.5101
G1 X39.660 Y-39.265 E1661.5067
G0 X39.802 Y-39.406 F4800
G0 X34.476 Y-34.872
G1 X34.335 Y-34.730 E1661.5696 F900
G1 X29.857 Y-30.252 E1663.5597
G1 X29.512 Y-30.610 E1663.7159
G1 X27.198 Y-32.683 E1664.6924
G1 X24.740 Y-34.581 E1665.6680
G1 X22.150 Y-36.295 E1666.6442
G1 X19.442 Y-37.815 E1667.6200
G1 X16.629 Y-39.133 E1668.5959
G1 X13.728 Y-40.242 E1669.5721
G1 X10.754 Y-41.137 E1670.5482
G1 X7.724 Y-41.812 E1671.5236
G1 X4.649 Y-42.264 E1672.5004
G1 X1.553 Y-42.491 E1673.4760
G1 X-1.551 Y-42.491 E1674.4514
G1 X-4.652 Y-42.264 E1675.4282
G1 X-7.722 Y-41.812 E1676.4037
G1 X-10.754 Y-41.137 E1677.3798
G1 X-13.729 Y-40.242 E1678.3560
G1 X-16.629 Y-39.133 E1679.3320
G1 X-19.442 Y-37.814 E1680.3082
G1 X-22.150 Y-36.294 E1681.2840
G1 X-24.740 Y-34.580 E1682.2602
G1 X-27.199 Y-32.682 E1683.2360
G1 X-29.512 Y-30.610 E1684.2122
G1 X-29.857 Y-30.252 E1684.3684
G1 X-34.377 Y-34.773 E1686.3774
G1 X-33.488 Y-35.662 E1686.7724
G1 X-31.183 Y-37.694 E1687.7382
G1 X-28.755 Y-39.578 E1688.7042
G1 X-26.213 Y-41.305 E1689.6696
G1 X-23.568 Y-42.869 E1690.6354
G1 X-20.829 Y-44.265 E1691.6014
G1 X-18.009 Y-45.485 E1692.5670
G1 X-15.117 Y-46.526 E1693.5330
G1 X-12.165 Y-47.384 E1694.4990
G1 X-9.166 Y-48.054 E1695.4648
G1 X-6.130 Y-48.535 E1696.4306
G1 X-3.073 Y-48.824 E1697.3958
G1 X0.000 Y-48.921 E1698.3620
G1 X3.071 Y-48.824 E1699.3276
G1 X6.132 Y-48.535 E1700.2938
G1 X9.166 Y-48.054 E1701.2590
G1 X12.165 Y-47.384 E1702.2248
G1 X15.116 Y-46.527 E1703.1904
G1 X18.008 Y-45.485 E1704.1564
G1 X20.829 Y-44.265 E1705.1220
G1 X23.567 Y-42.870 E1706.0880
G1 X26.212 Y-41.305 E1707.0538
G1 X28.755 Y-39.577 E1708.0198
G1 X31.183 Y-37.694 E1708.9856
G1 X33.232 Y-35.887 E1709.8438
G1 X33.572 Y-35.578 E1709.9882
G1 X34.335 Y-34.815 E1710.3274
G0 X34.476 Y-34.674 F4800
G0 X34.674 Y-34.476
G1 X34.815 Y-34.335 E1710.3902 F900
G1 X35.662 Y-33.488 E1710.7666
G1 X37.693 Y-31.185 E1711.7316
G1 X39.577 Y-28.755 E1712.6980
G1 X41.305 Y-26.213 E1713.6636
G1 X42.870 Y-23.567 E1714.6300
G1 X44.265 Y-20.829 E1715.5958
G1 X45.486 Y-18.007 E1716.5618
G1 X46.527 Y-15.116 E1717.5274
G1 X47.384 Y-12.165 E1718.4932
G1 X48.054 Y-9.166 E1719.4590
G1 X48.535 Y-6.132 E1720.4242
G1 X48.824 Y-3.071 E1721.3904
G1 X48.921 Y0.000 E1722.3560
G1 X48.824 Y3.073 E1723.3222
G1 X48.535 Y6.130 E1724.2874
G1 X48.054 Y9.166 E1725.2530
G1 X47.384 Y12.165 E1726.2188
G1 X46.526 Y15.117 E1727.1848
G1 X45.485 Y18.009 E1728.1510
G1 X44.265 Y20.829 E1729.1166
G1 X42.869 Y23.568 E1730.0826
G1 X41.305 Y26.213 E1731.0484
G1 X39.578 Y28.755 E1732.0140
G1 X37.694 Y31.183 E1732.9798
G1 X35.662 Y33.488 E1733.9456
G1 X34.773 Y34.377 E1734.3406
G1 X30.245 Y29.849 E1736.3528
G1 X31.667 Y28.374 E1736.9968
G1 X33.654 Y25.987 E1737.9726
G1 X35.461 Y23.461 E1738.9488
G1 X37.079 Y20.810 E1739.9246
G1 X38.499 Y18.048 E1740.9008
G1 X39.714 Y15.190 E1741.8768
G1 X40.717 Y12.249 E1742.8530
G1 X41.502 Y9.246 E1743.8284
G1 X42.066 Y6.190 E1744.8050
G1 X42.406 Y3.103 E1745.7810
G1 X42.519 Y0.001 E1746.7564
G1 X42.406 Y-3.105 E1747.7332
G1 X42.066 Y-6.190 E1748.7084
G1 X41.502 Y-9.244 E1749.6846
G1 X40.716 Y-12.251 E1750.6612
G1 X39.715 Y-15.188 E1751.6362
G1 X38.499 Y-18.048 E1752.6128
G1 X37.079 Y-20.810 E1753.5890
G1 X35.461 Y-23.462 E1754.5652
G1 X33.654 Y-25.986 E1755.5406
G1 X31.668 Y-28.374 E1756.5168
G1 X30.245 Y-29.849 E1757.1608
G1 X34.730 Y-34.335 E1759.1542
G0 X34.872 Y-34.476 F4800
G0 X34.773 Y-34.376
G0 X34.773 Y-34.377
G0 X30.245 Y-29.849
G0 X30.283 Y-29.810
G0 X30.283 Y-29.810
G0 X31.668 Y-28.374
G0 X33.654 Y-25.986
G0 X35.461 Y-23.462
G0 X37.079 Y-20.810
G0 X38.499 Y-18.048
G0 X39.715 Y-15.188
G0 X40.716 Y-12.251
G0 X41.502 Y-9.244
G0 X42.066 Y-6.190
G0 X42.406 Y-3.105
G0 X42.519 Y0.001
G0 X42.406 Y3.103
G0 X42.066 Y6.190
G0 X41.502 Y9.246
G0 X40.717 Y12.249
G0 X39.714 Y15.190
G0 X38.499 Y18.048
G0 X37.079 Y20.810
G0 X35.461 Y23.461
G0 X33.654 Y25.987
G0 X31.667 Y28.374
G0 X25.333 Y24.938
G0 X27.240 Y22.857
G0 X29.129 Y20.396
G0 X30.795 Y17.780
G0 X32.228 Y15.028
G0 X33.415 Y12.162
G0 X34.348 Y9.205
G0 X35.019 Y6.175
G0 X35.424 Y3.099
G0 X35.559 Y0.000
G0 X35.424 Y-3.099
G0 X35.019 Y-6.174
G0 X34.348 Y-9.204
G0 X33.414 Y-12.163
G0 X32.228 Y-15.028
G0 X30.796 Y-17.779
G0 X29.128 Y-20.397
G0 X27.240 Y-22.857
G0 X25.333 Y-24.938
G0 X29.850 Y-29.454
G0 X29.892 Y-29.411
G0 X29.892 Y-29.411
G0 X29.882 Y-29.402
G0 X29.892 Y-29.411
G1 X31.251 Y-28.001 E1759.7698 F900
G1 X33.211 Y-25.646 E1760.7328
G1 X34.994 Y-23.154 E1761.6956
G1 X36.592 Y-20.536 E1762.6594
G1 X37.993 Y-17.811 E1763.6224
G1 X39.192 Y-14.989 E1764.5860
G1 X40.181 Y-12.089 E1765.5490
G1 X40.957 Y-9.123 E1766.5120
G1 X41.513 Y-6.110 E1767.4750
G1 X41.849 Y-3.064 E1768.4382
G1 X41.961 Y0.001 E1769.4018
G1 X41.849 Y3.063 E1770.3648
G1 X41.514 Y6.109 E1771.3278
G1 X40.957 Y9.123 E1772.2912
G1 X40.182 Y12.088 E1773.2542
G1 X39.192 Y14.989 E1774.2176
G1 X37.993 Y17.811 E1775.1810
G1 X36.592 Y20.536 E1776.1438
G1 X34.995 Y23.152 E1777.1072
G1 X33.212 Y25.645 E1778.0702
G1 X31.251 Y28.001 E1779.0334
G1 X29.850 Y29.455 E1779.6680
G1 X25.333 Y24.938 E1781.6752
G1 X27.240 Y22.857 E1782.5622
G1 X29.129 Y20.396 E1783.5372
G1 X30.795 Y17.780 E1784.5118
G1 X32.228 Y15.028 E1785.4868
G1 X33.415 Y12.162 E1786.4616
G1 X34.348 Y9.205 E1787.4362
G1 X35.019 Y6.175 E1788.4112
G1 X35.424 Y3.099 E1789.3864
G1 X35.559 Y0.000 E1790.3610
G1 X35.424 Y-3.099 E1791.3360
G1 X35.019 Y-6.174 E1792.3106
G1 X34.348 Y-9.204 E1793.2858
G1 X33.414 Y-12.163 E1794.2608
G1 X32.228 Y-15.028 E1795.2354
G1 X30.796 Y-17.779 E1796.2100
G1 X29.128 Y-20.397 E1797.1854
G1 X27.240 Y-22.857 E1798.1598
G1 X25.333 Y-24.938 E1799.0468
G1 X29.807 Y-29.412 E1801.0352
G0 X29.949 Y-29.553 F4800
G0 X29.851 Y-29.454
G0 X29.850 Y-29.454
G0 X25.333 Y-24.938
G0 X25.371 Y-24.897
G0 X25.371 Y-24.897
G0 X24.979 Y-24.499
G0 X24.979 Y-24.499
G0 X24.970 Y-24.489
G0 X24.979 Y-24.499
G1 X26.812 Y-22.498 E1801.8880 F900
G1 X28.671 Y-20.075 E1802.8476
G1 X30.311 Y-17.501 E1803.8066
G1 X31.721 Y-14.792 E1804.7664
G1 X32.890 Y-11.971 E1805.7260
G1 X33.808 Y-9.059 E1806.6854
G1 X34.469 Y-6.079 E1807.6448
G1 X34.867 Y-3.050 E1808.6048
G1 X35.001 Y0.000 E1809.5640
G1 X34.867 Y3.051 E1810.5240
G1 X34.469 Y6.078 E1811.4834
G1 X33.808 Y9.058 E1812.4426
G1 X32.890 Y11.971 E1813.4024
G1 X31.721 Y14.792 E1814.3620
G1 X30.311 Y17.500 E1815.3216
G1 X28.671 Y20.076 E1816.2812
G1 X26.812 Y22.498 E1817.2408
G1 X24.938 Y24.543 E1818.1124
G1 X20.404 Y20.008 E1820.1276
G1 X20.763 Y19.668 E1820.2830
G1 X22.768 Y17.307 E1821.2562
G1 X24.506 Y14.744 E1822.2294
G1 X25.956 Y12.009 E1823.2024
G1 X27.102 Y9.132 E1824.1754
G1 X27.931 Y6.147 E1825.1490
G1 X28.432 Y3.092 E1826.1220
G1 X28.599 Y0.001 E1827.0948
G1 X28.432 Y-3.093 E1828.0682
G1 X27.931 Y-6.148 E1829.0410
G1 X27.103 Y-9.131 E1830.0140
G1 X25.956 Y-12.009 E1830.9874
G1 X24.505 Y-14.745 E1831.9606
G1 X22.768 Y-17.307 E1832.9334
G1 X20.763 Y-19.668 E1833.9068
G1 X20.404 Y-20.008 E1834.0622
G1 X24.896 Y-24.500 E1836.0588
G0 X25.037 Y-24.642 F4800
G0 X19.907 Y-19.710
G1 X20.053 Y-19.572 E1836.1216 F900
G1 X20.358 Y-19.283 E1836.2536
G1 X22.323 Y-16.970 E1837.2074
G1 X24.026 Y-14.457 E1838.1616
G1 X25.449 Y-11.774 E1839.1160
G1 X26.573 Y-8.954 E1840.0700
G1 X27.385 Y-6.028 E1841.0240
G1 X27.877 Y-3.031 E1841.9786
G1 X28.041 Y-0.001 E1842.9322
G1 X27.876 Y3.032 E1843.8868
G1 X27.385 Y6.028 E1844.8406
G1 X26.573 Y8.954 E1845.7948
G1 X25.449 Y11.774 E1846.7488
G1 X24.027 Y14.457 E1847.7030
G1 X22.323 Y16.969 E1848.6570
G1 X20.358 Y19.283 E1849.6110
G1 X20.009 Y19.614 E1849.7620
G1 X15.460 Y15.065 E1851.7836
G1 X16.354 Y14.171 E1852.1810
G1 X18.204 Y11.699 E1853.1514
G1 X19.683 Y8.989 E1854.1214
G1 X20.763 Y6.096 E1855.0920
G1 X21.419 Y3.080 E1856.0618
G1 X21.639 Y0.000 E1857.0322
G1 X21.419 Y-3.080 E1858.0026
G1 X20.762 Y-6.097 E1858.9730
G1 X19.684 Y-8.989 E1859.9430
G1 X18.204 Y-11.699 E1860.9134
G1 X16.354 Y-14.171 E1861.8836
G1 X15.460 Y-15.065 E1862.2808
G1 X19.967 Y-19.571 E1864.2836
G0 X20.108 Y-19.712 F4800
G0 X20.010 Y-19.613
G0 X20.009 Y-19.613
G0 X15.460 Y-15.065
G0 X15.499 Y-15.025
G0 X15.499 Y-15.025
G0 X15.460 Y-15.065
G0 X15.109 Y-14.629
G0 X15.109 Y-14.629
G0 X15.099 Y-14.619
G0 X15.109 Y-14.629
G1 X15.932 Y-13.805 E1864.6496 F900
G1 X17.734 Y-11.397 E1865.5950
G1 X19.176 Y-8.757 E1866.5400
G1 X20.227 Y-5.939 E1867.4854
G1 X20.866 Y-3.000 E1868.4302
G1 X21.081 Y0.000 E1869.3756
G1 X20.866 Y3.000 E1870.3206
G1 X20.227 Y5.939 E1871.2658
G1 X19.176 Y8.758 E1872.2112
G1 X17.734 Y11.397 E1873.1564
G1 X15.932 Y13.805 E1874.1016
G1 X15.066 Y14.671 E1874.4864
G1 X10.524 Y10.129 E1876.5050
G1 X11.875 Y8.628 E1877.1396
G1 X13.409 Y5.970 E1878.1038
G1 X14.358 Y3.052 E1879.0682
G1 X14.679 Y0.000 E1880.0324
G1 X14.358 Y-3.052 E1880.9970
G1 X13.410 Y-5.970 E1881.9610
G1 X11.875 Y-8.628 E1882.9256
G1 X10.524 Y-10.129 E1883.5600
G1 X15.024 Y-14.629 E1885.5600
G0 X14.629 Y-15.024 F4800
G1 X10.149 Y-10.545 E1887.5506 F900
G1 X9.822 Y-10.908 E1887.7042
G1 X7.339 Y-12.712 E1888.6688
G1 X4.536 Y-13.960 E1889.6332
G1 X1.534 Y-14.598 E1890.5974
G1 X-1.534 Y-14.598 E1891.5616
G1 X-4.536 Y-13.960 E1892.5260
G1 X-7.339 Y-12.712 E1893.4904
G1 X-9.822 Y-10.908 E1894.4548
G1 X-10.149 Y-10.544 E1894.6086
G1 X-14.671 Y-15.066 E1896.6182
G1 X-13.805 Y-15.932 E1897.0030
G1 X-11.397 Y-17.734 E1897.9482
G1 X-8.758 Y-19.176 E1898.8934
G1 X-5.939 Y-20.227 E1899.8388
G1 X-3.000 Y-20.866 E1900.7840
G1 X0.000 Y-21.081 E1901.7288
G1 X3.000 Y-20.866 E1902.6744
G1 X5.939 Y-20.227 E1903.6192
G1 X8.757 Y-19.176 E1904.5644
G1 X11.398 Y-17.734 E1905.5100
G1 X13.805 Y-15.932 E1906.4550
G1 X14.629 Y-15.109 E1906.8210
G0 X14.629 Y-15.109 F4800
G0 X14.671 Y-15.066
G0 X14.235 Y-14.630
G0 X14.235 Y-14.630
G0 X15.066 Y-14.671
G0 X10.565 Y-10.170
G0 X10.565 Y-10.170
G0 X10.528 Y-10.124
G0 X10.528 Y-10.124
G0 X11.875 Y-8.628
G0 X13.410 Y-5.970
G0 X14.358 Y-3.052
G0 X14.679 Y0.000
G0 X14.358 Y3.052
G0 X13.409 Y5.970
G0 X11.875 Y8.628
G0 X5.614 Y5.219
G0 X7.128 Y2.953
G0 X7.716 Y0.000
G0 X7.128 Y-2.952
G0 X5.614 Y-5.219
G0 X10.132 Y-9.736
G0 X10.172 Y-9.692
G0 X10.172 Y-9.692
G0 X10.164 Y-9.682
G0 X10.172 Y-9.692
G1 X11.425 Y-8.300 E1907.4092 F900
G1 X12.901 Y-5.743 E1908.3370
G1 X13.813 Y-2.936 E1909.2648
G1 X14.121 Y0.000 E1910.1924
G1 X13.813 Y2.936 E1911.1200
G1 X12.901 Y5.744 E1912.0478
G1 X11.425 Y8.300 E1912.9756
G1 X10.132 Y9.736 E1913.5828
G1 X5.614 Y5.219 E1915.5904
G1 X7.128 Y2.953 E1916.4468
G1 X7.716 Y0.000 E1917.3930
G1 X7.128 Y-2.952 E1918.3388
G1 X5.614 Y-5.219 E1919.1954
G1 X10.089 Y-9.694 E1921.1842
G0 X10.231 Y-9.835 F4800
G0 X-15.164 Y15.361
G1 X-15.022 Y15.502 E1921.2470 F900
G1 X-14.171 Y16.354 E1921.6254
G1 X-11.699 Y18.204 E1922.5958
G1 X-8.989 Y19.683 E1923.5660
G1 X-6.096 Y20.763 E1924.5362
G1 X-3.079 Y21.419 E1925.5066
G1 X0.000 Y21.639 E1926.4766
G1 X3.080 Y21.419 E1927.4470
G1 X6.096 Y20.763 E1928.4172
G1 X8.989 Y19.683 E1929.3876
G1 X11.699 Y18.204 E1930.3578
G1 X14.171 Y16.354 E1931.3282
G1 X15.065 Y15.460 E1931.7254
G1 X19.603 Y19.998 E1933.7424
G1 X18.153 Y21.372 E1934.3698
G1 X15.736 Y23.209 E1935.3240
G1 X13.135 Y24.774 E1936.2780
G1 X10.379 Y26.049 E1937.2322
G1 X7.502 Y27.018 E1938.1862
G1 X4.536 Y27.671 E1939.1406
G1 X1.518 Y28.000 E1940.0948
G1 X-1.518 Y28.000 E1941.0488
G1 X-4.537 Y27.671 E1942.0030
G1 X-7.502 Y27.018 E1942.9572
G1 X-10.379 Y26.049 E1943.9112
G1 X-13.134 Y24.774 E1944.8654
G1 X-15.736 Y23.209 E1945.8196
G1 X-18.153 Y21.372 E1946.7736
G1 X-19.603 Y19.998 E1947.4012
G1 X-15.107 Y15.502 E1949.3992
G0 X-14.966 Y15.361 F4800
G0 X-20.099 Y20.297
G1 X-19.954 Y20.434 E1949.4620 F900
G1 X-18.515 Y21.797 E1950.0850
G1 X-16.050 Y23.671 E1951.0582
G1 X-13.396 Y25.268 E1952.0314
G1 X-10.585 Y26.568 E1953.0046
G1 X-7.651 Y27.557 E1953.9776
G1 X-4.627 Y28.223 E1954.9508
G1 X-1.548 Y28.557 E1955.9240
G1 X1.548 Y28.557 E1956.8970
G1 X4.627 Y28.223 E1957.8702
G1 X7.651 Y27.557 E1958.8432
G1 X10.585 Y26.568 E1959.8164
G1 X13.396 Y25.268 E1960.7896
G1 X16.050 Y23.671 E1961.7628
G1 X18.515 Y21.797 E1962.7358
G1 X19.998 Y20.393 E1963.3776
G1 X24.543 Y24.938 E1965.3978
G1 X22.498 Y26.812 E1966.2692
G1 X20.075 Y28.671 E1967.2290
G1 X17.500 Y30.311 E1968.1884
G1 X14.792 Y31.721 E1969.1480
G1 X11.971 Y32.890 E1970.1074
G1 X9.059 Y33.808 E1971.0670
G1 X6.078 Y34.469 E1972.0264
G1 X3.051 Y34.867 E1972.9860
G1 X0.000 Y35.001 E1973.9456
G1 X-3.051 Y34.867 E1974.9052
G1 X-6.078 Y34.469 E1975.8648
G1 X-9.059 Y33.808 E1976.8244
G1 X-11.971 Y32.890 E1977.7838
G1 X-14.792 Y31.721 E1978.7434
G1 X-17.500 Y30.311 E1979.7028
G1 X-20.076 Y28.671 E1980.6626
G1 X-22.498 Y26.812 E1981.6220
G1 X-24.543 Y24.938 E1982.4936
G1 X-20.040 Y20.435 E1984.4948
G0 X-19.899 Y20.294 F4800
G0 X-19.997 Y20.394
G0 X-19.998 Y20.393
G0 X-24.543 Y24.938
G0 X-24.502 Y24.976
G0 X-24.502 Y24.976
G0 X-22.498 Y26.812
G0 X-20.076 Y28.671
G0 X-17.500 Y30.311
G0 X-14.792 Y31.721
G0 X-11.971 Y32.890
G0 X-9.059 Y33.808
G0 X-6.078 Y34.469
G0 X-3.051 Y34.867
G0 X0.000 Y35.001
G0 X3.051 Y34.867
G0 X6.175 Y35.019
G0 X3.099 Y35.424
G0 X0.000 Y35.559
G0 X-3.099 Y35.424
G0 X-6.175 Y35.019
G0 X-9.203 Y34.348
G0 X-12.162 Y33.415
G0 X-15.028 Y32.228
G0 X-17.780 Y30.795
G0 X-20.396 Y29.129
G0 X-22.857 Y27.240
G0 X-24.894 Y25.374
G0 X-24.894 Y25.374
G0 X-24.903 Y25.383
G0 X-24.894 Y25.374
G1 X-22.857 Y27.240 E1985.3630 F900
G1 X-20.396 Y29.129 E1986.3378
G1 X-17.780 Y30.795 E1987.3124
G1 X-15.028 Y32.228 E1988.2874
G1 X-12.162 Y33.415 E1989.2622
G1 X-9.203 Y34.348 E1990.2372
G1 X-6.175 Y35.019 E1991.2120
G1 X-3.099 Y35.424 E1992.1868
G1 X0.000 Y35.559 E1993.1616
G1 X3.099 Y35.424 E1994.1366
G1 X6.175 Y35.019 E1995.1114
G1 X9.204 Y34.348 E1996.0864
G1 X12.162 Y33.415 E1997.0610
G1 X15.028 Y32.228 E1998.0360
G1 X17.780 Y30.795 E1999.0108
G1 X20.396 Y29.128 E1999.9858
G1 X22.857 Y27.240 E2000.9606
G1 X24.938 Y25.333 E2001.8476
G1 X29.462 Y29.857 E2003.8580
G1 X29.124 Y30.208 E2004.0110
G1 X26.841 Y32.253 E2004.9742
G1 X24.415 Y34.126 E2005.9374
G1 X21.859 Y35.817 E2006.9004
G1 X19.186 Y37.317 E2007.8636
G1 X16.411 Y38.618 E2008.8266
G1 X13.548 Y39.713 E2009.7900
G1 X10.613 Y40.596 E2010.7530
G1 X7.622 Y41.262 E2011.7164
G1 X4.589 Y41.709 E2012.6794
G1 X1.533 Y41.932 E2013.6426
G1 X-1.533 Y41.932 E2014.6058
G1 X-4.589 Y41.709 E2015.5690
G1 X-7.622 Y41.262 E2016.5322
G1 X-10.613 Y40.596 E2017.4954
G1 X-13.548 Y39.713 E2018.4584
G1 X-16.411 Y38.618 E2019.4216
G1 X-19.186 Y37.317 E2020.3848
G1 X-21.859 Y35.817 E2021.3478
G1 X-24.415 Y34.126 E2022.3112
G1 X-26.841 Y32.253 E2023.2742
G1 X-29.124 Y30.208 E2024.2376
G1 X-29.462 Y29.857 E2024.3906
G1 X-24.980 Y25.376 E2026.3820
G0 X-24.839 Y25.234 F4800
G0 X-24.937 Y25.334
G0 X-24.938 Y25.333
G0 X-29.462 Y29.857
G0 X-29.423 Y29.897
G0 X-29.423 Y29.897
G0 X-29.815 Y30.295
G0 X-29.815 Y30.295
G0 X-29.824 Y30.305
G0 X-29.815 Y30.295
G1 X-29.512 Y30.610 E2026.5194 F900
G1 X-27.199 Y32.682 E2027.4954
G1 X-24.740 Y34.580 E2028.4714
G1 X-22.150 Y36.294 E2029.4474
G1 X-19.441 Y37.815 E2030.4236
G1 X-16.629 Y39.133 E2031.3996
G1 X-13.729 Y40.242 E2032.3754
G1 X-10.755 Y41.137 E2033.3514
G1 X-7.723 Y41.812 E2034.3276
G1 X-4.651 Y42.264 E2035.3034
G1 X-1.553 Y42.491 E2036.2796
G1 X1.553 Y42.491 E2037.2554
G1 X4.650 Y42.264 E2038.2316
G1 X7.723 Y41.812 E2039.2076
G1 X10.754 Y41.137 E2040.1834
G1 X13.729 Y40.242 E2041.1596
G1 X16.630 Y39.133 E2042.1356
G1 X19.441 Y37.815 E2043.1114
G1 X22.150 Y36.295 E2044.0874
G1 X24.740 Y34.581 E2045.0636
G1 X27.199 Y32.682 E2046.0396
G1 X29.512 Y30.610 E2047.0156
G1 X29.857 Y30.252 E2047.1718
G1 X34.377 Y34.772 E2049.1810
G1 X33.488 Y35.662 E2049.5760
G1 X31.183 Y37.694 E2050.5418
G1 X28.755 Y39.577 E2051.5074
G1 X26.213 Y41.305 E2052.4732
G1 X23.567 Y42.870 E2053.4392
G1 X20.830 Y44.265 E2054.4048
G1 X18.009 Y45.485 E2055.3706
G1 X15.117 Y46.526 E2056.3364
G1 X12.166 Y47.384 E2057.3022
G1 X9.167 Y48.054 E2058.2680
G1 X6.131 Y48.535 E2059.2338
G1 X3.072 Y48.824 E2060.1998
G1 X0.000 Y48.921 E2061.1656
G1 X-3.072 Y48.824 E2062.1314
G1 X-6.131 Y48.535 E2063.0972
G1 X-9.167 Y48.054 E2064.0630
G1 X-12.166 Y47.384 E2065.0288
G1 X-15.117 Y46.526 E2065.9946
G1 X-18.009 Y45.485 E2066.9604
G1 X-20.829 Y44.265 E2067.9260
G1 X-23.568 Y42.869 E2068.8920
G1 X-26.213 Y41.305 E2069.8580
G1 X-28.755 Y39.578 E2070.8234
G1 X-31.183 Y37.694 E2071.7896
G1 X-33.488 Y35.662 E2072.7552
G1 X-34.377 Y34.773 E2073.1502
G1 X-29.899 Y30.294 E2075.1404
G0 X-29.899 Y30.295 F4800
G0 X-34.377 Y34.773
G0 X-34.364 Y34.785
G0 X-34.364 Y34.785
G0 X-33.488 Y35.662
G0 X-31.183 Y37.694
G0 X-28.755 Y39.578
G0 X-26.213 Y41.305
G0 X-23.568 Y42.869
G0 X-20.829 Y44.265
G0 X-18.009 Y45.485
G0 X-15.117 Y46.526
G0 X-12.166 Y47.384
G0 X-9.167 Y48.054
G0 X-6.131 Y48.535
G0 X-3.072 Y48.824
G0 X0.000 Y48.921
G0 X3.072 Y48.824
G0 X6.131 Y48.535
G0 X9.167 Y48.054
G0 X12.166 Y47.384
G0 X15.117 Y46.526
G0 X18.009 Y45.485
G0 X21.068 Y44.770
G0 X18.214 Y46.005
G0 X15.290 Y47.058
G0 X12.305 Y47.925
G0 X9.271 Y48.603
G0 X6.202 Y49.089
G0 X3.107 Y49.382
G0 X0.000 Y49.480
G0 X-3.107 Y49.382
G0 X-6.202 Y49.089
G0 X-9.272 Y48.603
G0 X-12.305 Y47.925
G0 X-15.290 Y47.058
G0 X-18.215 Y46.005
G0 X-21.067 Y44.770
G0 X-23.836 Y43.359
G0 X-26.513 Y41.777
G0 X-29.083 Y40.030
G0 X-31.539 Y38.125
G0 X-33.871 Y36.069
G0 X-34.758 Y35.182
G0 X-34.758 Y35.182
G0 X-34.772 Y35.168
G0 X-39.302 Y39.697
G0 X-39.274 Y39.724
G0 X-39.274 Y39.724
G0 X-37.847 Y41.113
G0 X-35.525 Y43.135
G0 X-33.094 Y45.026
G0 X-30.564 Y46.781
G0 X-27.940 Y48.394
G0 X-25.232 Y49.859
G0 X-22.447 Y51.174
G0 X-19.594 Y52.333
G0 X-16.681 Y53.333
G0 X-13.718 Y54.170
G0 X-10.713 Y54.844
G0 X-7.676 Y55.351
G0 X-4.615 Y55.690
G0 X-1.540 Y55.859
G0 X1.540 Y55.859
G0 X4.614 Y55.690
G0 X7.675 Y55.351
G0 X10.713 Y54.844
G0 X13.718 Y54.170
G0 X16.681 Y53.333
G0 X19.594 Y52.333
G0 X22.447 Y51.174
G0 X25.232 Y49.859
G0 X27.940 Y48.394
G0 X30.563 Y46.782
G0 X33.094 Y45.026
G0 X35.524 Y43.135
G0 X37.846 Y41.113
G0 X39.697 Y40.092
G0 X38.225 Y41.525
G0 X35.880 Y43.567
G0 X33.425 Y45.478
G0 X30.870 Y47.249
G0 X28.220 Y48.878
G0 X25.484 Y50.359
G0 X22.672 Y51.686
G0 X19.790 Y52.856
G0 X16.848 Y53.866
G0 X13.855 Y54.713
G0 X10.820 Y55.393
