; generated by Slic3r 1.2.9 on 2018-04-16 at 10:41:12

; external perimeters extrusion width = 0.40mm
; perimeters extrusion width = 0.67mm
; infill extrusion width = 0.67mm
; solid infill extrusion width = 0.67mm
; top infill extrusion width = 0.67mm

M107
M190 S65 ; set bed temperature
M104 S210 ; set temperature
G28 ; home all axes


M109 S210 ; wait for temperature to be reached
G21 ; set units to millimeters
G90 ; use absolute coordinates
M82 ; use absolute distances for extrusion
G92 E0
G1 E-7.00000 F4200.00000
G92 E0
G1 Z0.600 F6000.000
G1 X66.536 Y0.000 F6000.000
G1 E7.00000 F4200.00000
G1 X66.536 Y52.500 E10.50728 F1800.000
G1 X66.486 Y53.627 E10.58263
G1 X66.414 Y54.306 E10.62829
G1 X66.291 Y55.082 E10.68078
G1 X66.149 Y55.751 E10.72643
G1 X65.946 Y56.509 E10.77888
G1 X65.735 Y57.160 E10.82456
G1 X65.453 Y57.893 E10.87707
G1 X65.175 Y58.517 E10.92271
G1 X64.818 Y59.218 E10.97520
G1 X64.476 Y59.810 E11.02088
G1 X64.049 Y60.468 E11.07333
G1 X63.647 Y61.021 E11.11899
G1 X63.153 Y61.632 E11.17146
G1 X62.695 Y62.140 E11.21716
G1 X62.140 Y62.695 E11.26960
G1 X61.632 Y63.153 E11.31530
G1 X61.021 Y63.647 E11.36777
G1 X60.468 Y64.049 E11.41344
G1 X59.810 Y64.476 E11.46588
G1 X59.218 Y64.818 E11.51156
G1 X58.517 Y65.175 E11.56406
G1 X57.893 Y65.453 E11.60969
G1 X57.160 Y65.735 E11.66221
G1 X56.509 Y65.946 E11.70789
G1 X55.751 Y66.149 E11.76033
G1 X55.082 Y66.291 E11.80599
G1 X54.306 Y66.414 E11.85847
G1 X53.627 Y66.486 E11.90413
G1 X52.500 Y66.536 E11.97948
G1 X-52.500 Y66.536 E18.99405
G1 X-53.626 Y66.486 E19.06935
G1 X-54.307 Y66.414 E19.11506
G1 X-55.082 Y66.291 E19.16750
G1 X-55.750 Y66.149 E19.21313
G1 X-56.509 Y65.946 E19.26565
G1 X-57.160 Y65.735 E19.31132
G1 X-57.892 Y65.453 E19.36377
G1 X-58.518 Y65.175 E19.40948
G1 X-59.217 Y64.819 E19.46192
G1 X-59.809 Y64.477 E19.50761
G1 X-60.468 Y64.049 E19.56009
G1 X-61.021 Y63.647 E19.60576
G1 X-61.631 Y63.153 E19.65820
G1 X-62.140 Y62.695 E19.70393
G1 X-62.674 Y62.161 E19.75440
G1 X-63.153 Y61.631 E19.80209
G1 X-63.647 Y61.021 E19.85455
G1 X-64.049 Y60.468 E19.90020
G1 X-64.476 Y59.810 E19.95265
G1 X-64.819 Y59.217 E19.99837
G1 X-65.175 Y58.518 E20.05082
G1 X-65.453 Y57.892 E20.09653
G1 X-65.735 Y57.160 E20.14897
G1 X-65.946 Y56.509 E20.19465
G1 X-66.149 Y55.751 E20.24712
G1 X-66.291 Y55.082 E20.29280
G1 X-66.414 Y54.306 E20.34524
G1 X-66.486 Y53.626 E20.39094
G1 X-66.536 Y52.500 E20.46624
G1 X-66.536 Y-52.500 E27.48081
G1 X-66.486 Y-53.626 E27.55612
G1 X-66.414 Y-54.306 E27.60182
G1 X-66.291 Y-55.082 E27.65426
G1 X-66.149 Y-55.751 E27.69996
G1 X-65.946 Y-56.509 E27.75241
G1 X-65.735 Y-57.160 E27.79808
G1 X-65.453 Y-57.893 E27.85055
G1 X-65.175 Y-58.518 E27.89624
G1 X-64.832 Y-59.191 E27.94672
G1 X-64.476 Y-59.810 E27.99441
G1 X-64.049 Y-60.468 E28.04686
G1 X-63.647 Y-61.021 E28.09252
G1 X-63.153 Y-61.631 E28.14497
G1 X-62.695 Y-62.140 E28.19069
G1 X-62.140 Y-62.695 E28.24313
G1 X-61.631 Y-63.153 E28.28885
G1 X-61.021 Y-63.647 E28.34130
G1 X-60.468 Y-64.049 E28.38696
G1 X-59.810 Y-64.476 E28.43941
G1 X-59.217 Y-64.819 E28.48513
G1 X-58.518 Y-65.175 E28.53758
G1 X-57.893 Y-65.453 E28.58327
G1 X-57.160 Y-65.735 E28.63573
G1 X-56.509 Y-65.946 E28.68141
G1 X-55.751 Y-66.149 E28.73386
G1 X-55.082 Y-66.291 E28.77955
G1 X-54.306 Y-66.414 E28.83200
G1 X-53.626 Y-66.486 E28.87770
G1 X-52.842 Y-66.527 E28.93015
G1 X52.842 Y-66.527 E35.99043
G1 X53.626 Y-66.486 E36.04287 F1800.000
G1 X54.306 Y-66.414 E36.08858
G1 X55.082 Y-66.291 E36.14102
G1 X55.751 Y-66.149 E36.18669
G1 X56.509 Y-65.946 E36.23917
G1 X57.160 Y-65.735 E36.28484
G1 X57.892 Y-65.453 E36.33729
G1 X58.518 Y-65.175 E36.38300
G1 X59.217 Y-64.819 E36.43544
G1 X59.810 Y-64.476 E36.48117
G1 X60.468 Y-64.049 E36.53361
G1 X61.021 Y-63.647 E36.57927
G1 X61.631 Y-63.153 E36.63172
G1 X62.140 Y-62.695 E36.67745
G1 X62.695 Y-62.140 E36.72989
G1 X63.153 Y-61.631 E36.77561
G1 X63.647 Y-61.021 E36.82806
G1 X64.049 Y-60.468 E36.87372
G1 X64.477 Y-59.809 E36.92620
G1 X64.819 Y-59.217 E36.97189
G1 X65.175 Y-58.518 E37.02434
G1 X65.453 Y-57.892 E37.07005
G1 X65.735 Y-57.160 E37.12249
G1 X65.946 Y-56.509 E37.16817
G1 X66.149 Y-55.750 E37.22068
G1 X66.291 Y-55.082 E37.26632
G1 X66.414 Y-54.307 E37.31876
G1 X66.486 Y-53.626 E37.36447
G1 X66.536 Y-52.500 E37.43977
G1 X66.536 Y-0.060 E40.94304
G1 E33.94304 F4200.00000
G92 E0
G1 X45.361 Y53.634 F6000.000
G1 E7.00000 F4200.00000
G1 X45.653 Y54.725 E7.07543 F1800.000
G1 X45.923 Y55.428 E7.12577
G1 X46.265 Y56.100 E7.17612
G1 X46.675 Y56.732 E7.22646
G1 X47.150 Y57.317 E7.27681
G1 X48.212 Y58.380 E7.37719
G1 X39.953 Y58.380 E7.92892
G1 X39.798 Y57.894 E7.96305
G1 X42.049 Y56.288 E8.14775
G1 X44.497 Y54.373 E8.35542
G1 X45.315 Y53.673 E8.42733
G1 X45.727 Y53.475 F6000.000
G1 E1.42733 F4200.00000
G92 E0
G1 X39.392 Y58.384 F6000.000
G1 E7.00000 F4200.00000
G1 X39.642 Y59.164 E7.05473 F1800.000
G1 X38.612 Y59.164 E7.12355
G1 X38.544 Y58.934 E7.13959
G1 X39.342 Y58.417 E7.20313
G1 E0.20313 F4200.00000
G92 E0
G1 X25.441 Y59.164 F6000.000
G1 E7.00000 F4200.00000
G1 X23.672 Y59.164 E7.11817 F1800.000
G1 X23.623 Y58.902 E7.13601
G1 X24.291 Y58.644 E7.18386
G1 X25.241 Y58.223 E7.25328
G1 X25.428 Y59.106 E7.31357
G1 X25.822 Y58.380 F6000.000
G1 X25.705 Y57.825 E7.35146 F1800.000
G1 X27.064 Y57.222 E7.45081
G1 X29.839 Y55.826 E7.65837
G1 X32.543 Y54.294 E7.86593
G1 X35.168 Y52.632 E8.07349
G1 X37.708 Y50.843 E8.28105
G1 X40.157 Y48.932 E8.48860
G1 X42.510 Y46.902 E8.69616
G1 X44.629 Y44.884 E8.89169
G1 X47.274 Y47.529 E9.14156
G1 X46.675 Y48.268 E9.20512
G1 X46.265 Y48.900 E9.25547
G1 X45.923 Y49.572 E9.30581
G1 X45.653 Y50.275 E9.35615
G1 X45.458 Y51.003 E9.40650
G1 X45.340 Y51.747 E9.45684
G1 X45.300 Y52.500 E9.50719
G1 X45.336 Y53.182 E9.55279
G1 X44.269 Y54.095 E9.64659
G1 X41.833 Y56.000 E9.85320
G1 X39.315 Y57.796 E10.05981
G1 X38.414 Y58.380 E10.13157
G1 X25.882 Y58.380 E10.96877
G1 X25.426 Y58.435 F6000.000
G1 E3.96877 F4200.00000
G92 E0
G1 X39.698 Y39.953 F6000.000
G1 E7.00000 F4200.00000
G1 X44.375 Y44.629 E7.44187 F1800.000
G1 X42.268 Y46.636 E7.63622
G1 X39.929 Y48.653 E7.84260
G1 X37.493 Y50.554 E8.04898
G1 X34.968 Y52.333 E8.25536
G1 X32.358 Y53.986 E8.46173
G1 X29.670 Y55.508 E8.66811
G1 X26.910 Y56.897 E8.87450
G1 X24.086 Y58.149 E9.08087
G1 X23.487 Y58.380 E9.12374
G1 X-23.487 Y58.380 E12.26192
G1 X-24.086 Y58.149 E12.30479
G1 X-26.910 Y56.897 E12.51116
G1 X-29.670 Y55.508 E12.71754
G1 X-32.358 Y53.986 E12.92392
G1 X-34.968 Y52.333 E13.13030
G1 X-37.493 Y50.554 E13.33668
G1 X-39.929 Y48.653 E13.54306
G1 X-42.268 Y46.636 E13.74944
G1 X-44.375 Y44.629 E13.94379
G1 X-39.698 Y39.953 E14.38565
G1 X-38.158 Y41.451 E14.52918
G1 X-35.817 Y43.490 E14.73659
G1 X-33.366 Y45.397 E14.94401
G1 X-30.815 Y47.166 E15.15144
G1 X-28.170 Y48.792 E15.35885
G1 X-25.439 Y50.270 E15.56627
G1 X-22.631 Y51.595 E15.77369
G1 X-19.755 Y52.763 E15.98111
G1 X-16.818 Y53.771 E16.18852
G1 X-13.831 Y54.616 E16.39594
G1 X-10.801 Y55.295 E16.60336
G1 X-7.738 Y55.806 E16.81078
G1 X-4.653 Y56.147 E17.01820
G1 X-1.552 Y56.318 E17.22562
G1 X1.552 Y56.318 E17.43304
G1 X4.653 Y56.147 E17.64046
G1 X7.738 Y55.806 E17.84787
G1 X10.801 Y55.295 E18.05529
G1 X13.831 Y54.616 E18.26271
G1 X16.818 Y53.771 E18.47013
G1 X19.755 Y52.763 E18.67755
G1 X22.631 Y51.595 E18.88497
G1 X25.439 Y50.270 E19.09238
G1 X28.170 Y48.792 E19.29980
G1 X30.815 Y47.166 E19.50722
G1 X33.366 Y45.397 E19.71464
G1 X35.817 Y43.490 E19.92206
G1 X38.158 Y41.451 E20.12948
G1 X39.655 Y39.994 E20.26899
G1 X39.982 Y39.671 F6000.000
G1 E13.26899 F4200.00000
G92 E0
G1 X34.518 Y34.773 F6000.000
G1 E7.00000 F4200.00000
G1 X33.557 Y35.734 E7.09084 F1800.000
G1 X31.247 Y37.771 E7.29657
G1 X28.813 Y39.658 E7.50230
G1 X26.266 Y41.389 E7.70803
G1 X23.616 Y42.957 E7.91375
G1 X20.872 Y44.355 E8.11948
G1 X18.045 Y45.578 E8.32521
G1 X15.148 Y46.621 E8.53094
G1 X12.191 Y47.480 E8.73667
G1 X9.185 Y48.152 E8.94240
G1 X6.144 Y48.634 E9.14813
G1 X3.078 Y48.923 E9.35386
G1 X-0.000 Y49.020 E9.55958
G1 X-3.078 Y48.923 E9.76531
G1 X-6.144 Y48.634 E9.97104
G1 X-9.185 Y48.152 E10.17677
G1 X-12.191 Y47.480 E10.38250
G1 X-15.148 Y46.621 E10.58823
G1 X-18.045 Y45.578 E10.79395
G1 X-20.872 Y44.355 E10.99969
G1 X-23.616 Y42.957 E11.20541
G1 X-26.266 Y41.389 E11.41114
G1 X-28.813 Y39.658 E11.61687
G1 X-31.247 Y37.771 E11.82260
G1 X-33.557 Y35.734 E12.02832
G1 X-34.518 Y34.773 E12.11917
G1 X-29.855 Y30.110 E12.55968
G1 X-29.442 Y30.538 E12.59942
G1 X-27.135 Y32.606 E12.80642
G1 X-24.682 Y34.500 E13.01341
G1 X-22.098 Y36.209 E13.22041
G1 X-19.396 Y37.726 E13.42741
G1 X-16.591 Y39.041 E13.63441
G1 X-13.696 Y40.148 E13.84141
G1 X-10.729 Y41.040 E14.04840
G1 X-7.705 Y41.714 E14.25540
G1 X-4.639 Y42.165 E14.46240
G1 X-1.549 Y42.391 E14.66939
G1 X1.549 Y42.391 E14.87639
G1 X4.639 Y42.165 E15.08339
G1 X7.705 Y41.714 E15.29039
G1 X10.729 Y41.040 E15.49738
G1 X13.696 Y40.148 E15.70438
G1 X16.591 Y39.041 E15.91138
G1 X19.396 Y37.726 E16.11838
G1 X22.098 Y36.209 E16.32537
G1 X24.682 Y34.500 E16.53237
G1 X27.135 Y32.606 E16.73937
G1 X29.442 Y30.538 E16.94636
G1 X29.855 Y30.110 E16.98611
G1 X34.476 Y34.730 E17.42261
G1 X34.801 Y35.055 F6000.000
G1 E10.42261 F4200.00000
G92 E0
G1 X29.601 Y29.856 F6000.000
G1 E7.00000 F4200.00000
G1 X29.193 Y30.279 E7.03931 F1800.000
G1 X26.905 Y32.329 E7.24455
G1 X24.473 Y34.207 E7.44979
G1 X21.911 Y35.902 E7.65503
G1 X19.232 Y37.406 E7.86027
G1 X16.450 Y38.710 E8.06552
G1 X13.580 Y39.807 E8.27076
G1 X10.638 Y40.693 E8.47600
G1 X7.640 Y41.361 E8.68124
G1 X4.600 Y41.808 E8.88649
G1 X1.536 Y42.032 E9.09173
G1 X-1.536 Y42.032 E9.29697
G1 X-4.600 Y41.808 E9.50221
G1 X-7.640 Y41.361 E9.70746
G1 X-10.638 Y40.693 E9.91270
G1 X-13.580 Y39.807 E10.11794
G1 X-16.450 Y38.710 E10.32318
G1 X-19.232 Y37.406 E10.52843
G1 X-21.911 Y35.902 E10.73367
G1 X-24.473 Y34.207 E10.93891
G1 X-26.905 Y32.329 E11.14415
G1 X-29.193 Y30.279 E11.34939
G1 X-29.601 Y29.856 E11.38870
G1 X-24.941 Y25.195 E11.82899
G1 X-22.793 Y27.164 E12.02361
G1 X-20.339 Y29.047 E12.23027
G1 X-17.730 Y30.709 E12.43693
G1 X-14.986 Y32.137 E12.64359
G1 X-12.128 Y33.321 E12.85025
G1 X-9.178 Y34.251 E13.05691
G1 X-6.158 Y34.921 E13.26357
G1 X-3.091 Y35.325 E13.47023
G1 X-0.000 Y35.460 E13.67689
G1 X3.091 Y35.325 E13.88355
G1 X6.158 Y34.921 E14.09021
G1 X9.178 Y34.251 E14.29687
G1 X12.128 Y33.321 E14.50353
G1 X14.986 Y32.137 E14.71019
G1 X17.730 Y30.709 E14.91685
G1 X20.339 Y29.047 E15.12351
G1 X22.793 Y27.164 E15.33017
G1 X24.941 Y25.195 E15.52480
G1 X29.559 Y29.813 E15.96108
G1 X29.887 Y30.135 F6000.000
G1 E8.96108 F4200.00000
G92 E0
G1 X19.746 Y20.000 F6000.000
G1 E7.00000 F4200.00000
G1 X18.218 Y21.448 E7.14060 F1800.000
G1 X15.792 Y23.291 E7.34416
G1 X13.181 Y24.862 E7.54771
G1 X10.416 Y26.142 E7.75127
G1 X7.528 Y27.115 E7.95482
G1 X4.553 Y27.770 E8.15838
G1 X1.523 Y28.099 E8.36193
G1 X-1.523 Y28.099 E8.56549
G1 X-4.553 Y27.770 E8.76904
G1 X-7.528 Y27.115 E8.97260
G1 X-10.416 Y26.142 E9.17615
G1 X-13.181 Y24.862 E9.37971
G1 X-15.792 Y23.291 E9.58326
G1 X-18.218 Y21.448 E9.78681
G1 X-19.746 Y20.000 E9.92742
G1 X-15.065 Y15.319 E10.36968
G1 X-14.105 Y16.278 E10.46031
G1 X-11.645 Y18.120 E10.66561
G1 X-8.948 Y19.593 E10.87092
G1 X-6.068 Y20.667 E11.07622
G1 X-3.065 Y21.320 E11.28153
G1 X-0.000 Y21.539 E11.48683
G1 X3.065 Y21.320 E11.69214
G1 X6.068 Y20.667 E11.89745
G1 X8.948 Y19.593 E12.10275
G1 X11.645 Y18.120 E12.30805
G1 X14.105 Y16.278 E12.51336
G1 X15.064 Y15.319 E12.60399
G1 X19.703 Y19.958 E13.04225
G1 X20.023 Y20.288 F6000.000
G1 E6.04225 F4200.00000
G92 E0
G1 X9.894 Y10.149 F6000.000
G1 E7.00000 F4200.00000
G1 X9.516 Y10.569 E7.03775 F1800.000
G1 X7.111 Y12.316 E7.23637
G1 X4.395 Y13.526 E7.43500
G1 X1.487 Y14.144 E7.63362
G1 X-1.487 Y14.144 E7.83224
G1 X-4.395 Y13.526 E8.03086
G1 X-7.111 Y12.316 E8.22948
G1 X-9.516 Y10.569 E8.42810
G1 X-9.894 Y10.149 E8.46585
G1 X-5.231 Y5.486 E8.90638
G1 X-2.914 Y7.035 E9.09259
G1 X-0.000 Y7.614 E9.29106
G1 X2.914 Y7.035 E9.48953
G1 X5.231 Y5.486 E9.67574
G1 X9.852 Y10.106 E10.11226
G1 X10.187 Y10.421 F6000.000
G1 E3.11226 F4200.00000
G92 E0
G1 X5.240 Y4.985 F6000.000
G1 E7.00000 F4200.00000
G1 X0.255 Y0.000 E7.47098 F1800.000
G1 X5.240 Y-4.985 E7.94197
G1 X6.713 Y-2.781 E8.11910
G1 X7.266 Y0.000 E8.30849
G1 X6.713 Y2.781 E8.49789
G1 X5.273 Y4.935 E8.67101
G1 X4.976 Y5.286 F6000.000
G1 E1.67101 F4200.00000
G92 E0
G1 X0.000 Y-0.255 F6000.000
G1 E7.00000 F4200.00000
G1 X-4.985 Y-5.240 E7.47098 F1800.000
G1 X-2.781 Y-6.713 E7.64812
G1 X-0.000 Y-7.266 E7.83751
G1 X2.781 Y-6.713 E8.02690
G1 X4.985 Y-5.240 E8.20404
G1 X0.042 Y-0.297 E8.67101
G1 X-0.283 Y0.028 F6000.000
G1 E1.67101 F4200.00000
G92 E0
G1 X5.486 Y-5.231 F6000.000
G1 E7.00000 F4200.00000
G1 X10.136 Y-9.881 E7.43928 F1800.000
G1 X11.506 Y-8.359 E7.57606
G1 X12.992 Y-5.784 E7.77468
G1 X13.911 Y-2.957 E7.97331
G1 X14.222 Y0.000 E8.17193
G1 X13.911 Y2.957 E8.37055
G1 X12.992 Y5.784 E8.56917
G1 X11.506 Y8.359 E8.76779
G1 X10.136 Y9.881 E8.90458
G1 X5.486 Y5.231 E9.34385
G1 X7.035 Y2.914 E9.53006
G1 X7.614 Y-0.000 E9.72853
G1 X7.035 Y-2.914 E9.92700
G1 X5.519 Y-5.182 E10.10921
G1 X5.222 Y-5.532 F6000.000
G1 E3.10921 F4200.00000
G92 E0
G1 X10.387 Y-10.132 F6000.000
G1 E7.00000 F4200.00000
G1 X15.066 Y-14.812 E7.44211 F1800.000
G1 X16.007 Y-13.870 E7.53103
G1 X17.818 Y-11.451 E7.73292
G1 X19.267 Y-8.799 E7.93481
G1 X20.323 Y-5.967 E8.13670
G1 X20.965 Y-3.014 E8.33858
G1 X21.181 Y0.000 E8.54047
G1 X20.965 Y3.014 E8.74236
G1 X20.323 Y5.967 E8.94425
G1 X19.267 Y8.799 E9.14614
G1 X17.818 Y11.451 E9.34803
G1 X16.007 Y13.870 E9.54992
G1 X15.066 Y14.812 E9.63883
G1 X10.387 Y10.132 E10.08095
G1 X11.794 Y8.569 E10.22147
G1 X13.318 Y5.930 E10.42507
G1 X14.260 Y3.031 E10.62867
G1 X14.578 Y-0.000 E10.83228
G1 X14.260 Y-3.031 E11.03588
G1 X13.318 Y-5.930 E11.23948
G1 X11.794 Y-8.569 E11.44308
G1 X10.427 Y-10.088 E11.57960
G1 X10.109 Y-10.420 F6000.000
G1 E4.57960 F4200.00000
G92 E0
G1 X15.319 Y-15.065 F6000.000
G1 E7.00000 F4200.00000
G1 X20.007 Y-19.753 E7.44292 F1800.000
G1 X20.430 Y-19.352 E7.48182
G1 X22.402 Y-17.030 E7.68538
G1 X24.112 Y-14.508 E7.88893
G1 X25.540 Y-11.816 E8.09248
G1 X26.667 Y-8.985 E8.29604
G1 X27.483 Y-6.049 E8.49959
G1 X27.975 Y-3.043 E8.70315
G1 X28.140 Y0.000 E8.90670
G1 X27.975 Y3.043 E9.11026
G1 X27.483 Y6.049 E9.31381
G1 X26.667 Y8.985 E9.51737
G1 X25.540 Y11.816 E9.72092
G1 X24.112 Y14.508 E9.92448
G1 X22.402 Y17.030 E10.12803
G1 X20.430 Y19.352 E10.33159
G1 X20.007 Y19.753 E10.37049
G1 X15.319 Y15.064 E10.81341
G1 X16.278 Y14.105 E10.90404
G1 X18.120 Y11.645 E11.10934
G1 X19.593 Y8.948 E11.31465
G1 X20.667 Y6.068 E11.51995
G1 X21.320 Y3.065 E11.72526
G1 X21.337 Y2.828 E11.74117
G1 X21.539 Y-0.000 E11.93056
G1 X21.320 Y-3.065 E12.13587
G1 X20.667 Y-6.068 E12.34117
G1 X19.593 Y-8.948 E12.54648
G1 X18.120 Y-11.645 E12.75178
G1 X16.278 Y-14.105 E12.95709
G1 X15.361 Y-15.022 E13.04371
G1 X15.036 Y-15.347 F6000.000
G1 E6.04371 F4200.00000
G92 E0
G1 X20.261 Y-20.006 F6000.000
G1 E7.00000 F4200.00000
G1 X24.941 Y-24.687 E7.44220 F1800.000
G1 X26.888 Y-22.562 E7.63473
G1 X28.752 Y-20.133 E7.83930
G1 X30.398 Y-17.550 E8.04386
G1 X31.812 Y-14.834 E8.24843
G1 X32.983 Y-12.005 E8.45299
G1 X33.904 Y-9.085 E8.65756
G1 X34.567 Y-6.095 E8.86212
G1 X34.967 Y-3.059 E9.06669
G1 X35.100 Y-0.000 E9.27125
G1 X34.967 Y3.059 E9.47582
G1 X34.567 Y6.095 E9.68038
G1 X33.904 Y9.085 E9.88495
G1 X32.983 Y12.005 E10.08951
G1 X31.812 Y14.834 E10.29408
G1 X30.398 Y17.550 E10.49864
G1 X28.752 Y20.133 E10.70320
G1 X26.888 Y22.562 E10.90777
G1 X24.941 Y24.687 E11.10030
G1 X20.261 Y20.006 E11.54250
G1 X20.691 Y19.599 E11.58205
G1 X22.688 Y17.247 E11.78820
G1 X24.420 Y14.693 E11.99436
G1 X25.866 Y11.967 E12.20051
G1 X27.008 Y9.100 E12.40666
G1 X27.833 Y6.127 E12.61281
G1 X28.333 Y3.081 E12.81897
G1 X28.500 Y-0.000 E13.02512
G1 X28.333 Y-3.081 E13.23127
G1 X27.833 Y-6.127 E13.43743
G1 X27.008 Y-9.100 E13.64358
G1 X25.866 Y-11.967 E13.84973
G1 X24.420 Y-14.693 E14.05588
G1 X22.688 Y-17.247 E14.26204
G1 X20.691 Y-19.599 E14.46819
G1 X20.304 Y-19.965 E14.50373
G1 X19.976 Y-20.287 F6000.000
G1 E7.50373 F4200.00000
G92 E0
G1 X25.195 Y-24.941 F6000.000
G1 E7.00000 F4200.00000
G1 X29.851 Y-29.597 E7.43985 F1800.000
