; GCode generated by CraftWare

G28 X0 Y0
G28 Z0

M104 S210 ;set head temp (no wait)
M190 S60 ;set bed temp (wait)
M109 S210 ;set head temp (wait); startup extrude
G21
G90
G92E0
G1E5F100
G92E0


; ------------------------------------
; Layer #0
; ------------------------------------
M106 S0 ;turn off fan
G21 ; mm
G90 ; abs
G92 E0 ;reset extr
G0 F4800 Z0.550
;segType:Skirt
G0 F4200 E-5.0000
G0 F4800 Z1.550
G0 X-101.921 Y26.706
G0 Z0.550
G0 F4200 E0.0000
G1 X101.789 Y26.706 E7.6851 F1800
G1 X107.839 Y20.656 E8.0078
G1 X107.904 Y20.196 E8.0254
G1 X107.904 Y-7.684 E9.0772
G1 X107.839 Y-8.144 E9.0947
G1 X101.921 Y-14.062 E9.4104
G1 X7.496 Y-14.062 E12.9726
G1 X7.430 Y-14.523 E12.9902
G1 X7.430 Y-20.572 E13.2184
G1 X1.381 Y-26.622 E13.5412
G1 X0.921 Y-26.687 E13.5587
G1 X-15.387 Y-26.687 E14.1739
G1 X-21.173 Y-20.901 E14.4826
G1 X-21.370 Y-20.572 E14.4971
G1 X-21.370 Y-14.260 E14.7352
G1 X-21.436 Y-14.062 E14.7431
G1 X-101.921 Y-14.062 E17.7794
G1 X-102.249 Y-13.865 E17.7938
G1 X-108.036 Y-8.079 E18.1026
G1 X-108.036 Y20.591 E19.1841
G1 X-101.921 Y26.706 E19.5104
G0 F4200 E14.5104
G0 F4800 Z1.550
G0 X-54.932 Y19.434
G0 X-52.322 Y19.030
G0 X-49.712 Y18.626
G0 X-47.101 Y18.222
G0 X-15.776 Y13.374
G0 X59.927 Y1.658
G0 X62.538 Y1.254
G0 X65.148 Y0.850
G0 Z0.550
G0 F4200 E19.5104
;segType:Loop
G1 X65.148 Y-5.512 E19.8115 F1800
G1 X65.171 Y-5.601 E19.8158
G1 X99.352 Y-5.574 E21.4333
G1 X99.352 Y8.102 E22.0805
G1 X59.352 Y8.102 E23.9734
G1 X59.352 Y11.898 E24.1531
G1 X99.352 Y11.898 E26.0460
G1 X99.352 Y18.102 E26.3396
G1 X-99.352 Y18.102 E35.7428
G1 X-99.352 Y-5.602 E36.8645
G1 X-10.764 Y-5.602 E41.0568
G1 X-10.764 Y-15.879 E41.5431
G1 X-12.764 Y-15.967 E41.6379
G1 X-12.764 Y-18.102 E41.7389
G1 X-1.061 Y-18.102 E42.2927
G1 X-1.061 Y-15.898 E42.3970
G1 X-3.061 Y-15.898 E42.4916
G1 X-3.061 Y-5.602 E42.9789
G1 X61.286 Y-5.602 E46.0240
G1 X61.352 Y-5.512 E46.0292
G1 X61.352 Y2.398 E46.4036
G1 X65.148 Y2.398 E46.5832
G1 X65.148 Y1.050 E46.6407
;segType:Perimeter
G0 X64.700 Y2.090 F4800
G1 X64.700 Y1.890 E46.6491 F900
G1 X64.700 Y-6.046 E46.9844
G1 X64.772 Y-6.050 E46.9875
G1 X99.800 Y-6.022 E48.4675
G1 X99.800 Y8.550 E49.0832
G1 X59.800 Y8.550 E50.7733
G1 X59.800 Y11.450 E50.8959
G1 X99.800 Y11.450 E52.5860
G1 X99.800 Y18.550 E52.8859
G1 X-99.800 Y18.550 E61.3195
G1 X-99.800 Y-6.050 E62.3589
G1 X-11.212 Y-6.050 E66.1020
G1 X-11.212 Y-15.450 E66.4992
G1 X-13.114 Y-15.450 E66.5796
G1 X-13.212 Y-15.455 E66.5837
G1 X-13.212 Y-18.550 E66.7145
G1 X-0.613 Y-18.550 E67.2468
G1 X-0.613 Y-15.450 E67.3778
G1 X-2.613 Y-15.450 E67.4623
G1 X-2.613 Y-6.050 E67.8595
G1 X61.743 Y-6.050 E70.5787
G1 X61.800 Y-5.969 E70.5828
G1 X61.800 Y1.950 E70.9175
G1 X64.640 Y1.950 E71.0375
G0 X64.840 Y1.950 F4800
;segType:Loop
G0 X-15.312 Y4.898
G1 X-30.061 Y4.898 E71.7355 F1800
G1 X-30.061 Y-1.899 E72.0571
G1 X-13.764 Y-1.899 E72.8283
G1 X-13.764 Y4.898 E73.1500
G1 X-15.112 Y4.898 E73.2074
;segType:Perimeter
G0 X-14.272 Y4.450 F4800
G1 X-29.613 Y4.450 E73.8556 F900
G1 X-29.613 Y-1.451 E74.1049
G1 X-14.212 Y-1.451 E74.7557
G1 X-14.212 Y4.390 E75.0025
G0 X-14.212 Y4.590 F4800
G0 X-14.246 Y4.898
G0 X-14.550 Y7.602
G0 X-14.550 Y7.602
G0 X-30.061 Y7.602
G0 X-30.061 Y14.398
G0 X-15.312 Y14.398
G0 X-15.312 Y14.398
G0 X-15.313 Y14.411
;segType:Loop
G0 X-15.312 Y14.398
G1 X-30.061 Y14.398 E75.7004 F1800
G1 X-30.061 Y7.602 E76.0221
G1 X-14.491 Y7.602 E76.7589
G1 X-13.764 Y7.789 E76.7944
G1 X-13.764 Y14.398 E77.1072
G1 X-15.112 Y14.398 E77.1646
;segType:Perimeter
G0 X-14.272 Y13.950 F4800
G1 X-29.613 Y13.950 E77.8128 F900
G1 X-29.613 Y8.050 E78.0622
G1 X-14.548 Y8.050 E78.6987
G1 X-14.212 Y8.136 E78.7134
G1 X-14.212 Y13.890 E78.9565
G0 X-14.212 Y14.090 F4800
G0 X-28.170 Y7.602
G0 X-39.474 Y2.347
G0 X-39.474 Y2.347
G0 X-40.793 Y1.733
G0 X-40.793 Y1.733
G0 X-40.805 Y1.728
;segType:Loop
G0 X-40.793 Y1.733
G1 X-39.824 Y1.740 E79.0024 F1800
G1 X-38.664 Y3.750 E79.1122
G1 X-39.832 Y5.773 E79.2228
G1 X-42.168 Y5.773 E79.3333
G1 X-43.330 Y3.760 E79.4433
G1 X-42.154 Y1.724 E79.5546
G1 X-40.993 Y1.732 E79.6096
;segType:Perimeter
G0 X-41.836 Y2.174 F4800
G1 X-40.084 Y2.186 E79.6836 F900
G1 X-39.181 Y3.750 E79.7599
G1 X-40.091 Y5.325 E79.8368
G1 X-41.910 Y5.325 E79.9136
G1 X-42.813 Y3.760 E79.9900
G1 X-41.926 Y2.226 E80.0649
G0 X-41.826 Y2.052 F4800
;segType:Loop
G0 X-47.652 Y1.983
G1 X-46.967 Y1.988 E80.0973 F1800
G1 X-45.958 Y3.761 E80.1938
G1 X-46.976 Y5.524 E80.2901
G1 X-49.024 Y5.524 E80.3870
G1 X-50.043 Y3.758 E80.4835
G1 X-49.012 Y1.974 E80.5810
G1 X-47.852 Y1.982 E80.6359
;segType:Perimeter
G0 X-48.895 Y2.423 F4800
G1 X-48.695 Y2.424 E80.6444 F900
G1 X-47.228 Y2.434 E80.7063
G1 X-46.475 Y3.759 E80.7707
G1 X-47.235 Y5.076 E80.8350
G1 X-48.765 Y5.076 E80.8996
G1 X-49.525 Y3.758 E80.9639
G1 X-48.785 Y2.476 E81.0265
G0 X-48.685 Y2.303 F4800
G0 X-49.376 Y2.604
G0 X-53.659 Y4.469
G0 X-53.659 Y4.469
G0 X-54.132 Y5.276
G0 X-55.491 Y5.267
G0 X-55.491 Y5.267
G0 X-55.503 Y5.272
;segType:Loop
G0 X-55.491 Y5.267
G1 X-55.888 Y5.264 E81.0453 F1800
G1 X-56.755 Y3.738 E81.1283
G1 X-55.867 Y2.224 E81.2114
G1 X-54.112 Y2.236 E81.2944
G1 X-53.245 Y3.761 E81.3775
G1 X-54.132 Y5.276 E81.4605
G1 X-55.291 Y5.268 E81.5154
;segType:Perimeter
G0 X-54.248 Y4.827 F4800
G1 X-54.448 Y4.826 E81.5238 F900
G1 X-55.626 Y4.818 E81.5736
G1 X-56.238 Y3.742 E81.6259
G1 X-55.611 Y2.674 E81.6782
G1 X-54.374 Y2.682 E81.7305
G1 X-53.762 Y3.758 E81.7828
G1 X-54.358 Y4.774 E81.8326
G0 X-56.225 Y4.671 F4800
G0 X-87.219 Y2.962
G0 X-87.219 Y2.962
G0 X-87.232 Y2.961
;segType:Loop
G0 X-87.219 Y2.962
G1 X-87.164 Y3.142 E81.8415 F1800
G1 X-87.102 Y3.627 E81.8646
G1 X-87.123 Y4.118 E81.8879
G1 X-87.226 Y4.599 E81.9112
G1 X-87.402 Y5.037 E81.9335
G1 X-87.606 Y5.376 E81.9522
G1 X-87.987 Y5.839 E81.9806
G1 X-88.379 Y6.155 E82.0044
G1 X-88.809 Y6.394 E82.0277
G1 X-89.273 Y6.558 E82.0510
G1 X-89.758 Y6.640 E82.0743
G1 X-90.250 Y6.640 E82.0976
G1 X-90.734 Y6.556 E82.1208
G1 X-91.198 Y6.391 E82.1441
G1 X-91.627 Y6.151 E82.1674
G1 X-92.018 Y5.834 E82.1912
G1 X-92.392 Y5.378 E82.2191
G1 X-92.590 Y5.055 E82.2370
G1 X-92.775 Y4.596 E82.2605
G1 X-92.878 Y4.115 E82.2838
G1 X-92.898 Y3.623 E82.3070
G1 X-92.835 Y3.135 E82.3303
G1 X-92.690 Y2.665 E82.3536
G1 X-92.468 Y2.226 E82.3769
G1 X-92.168 Y1.821 E82.4007
G1 X-91.721 Y1.425 E82.4290
G1 X-91.415 Y1.218 E82.4465
G1 X-90.966 Y1.015 E82.4698
G1 X-90.490 Y0.891 E82.4931
G1 X-90.000 Y0.849 E82.5164
G1 X-89.510 Y0.891 E82.5396
G1 X-89.034 Y1.015 E82.5629
G1 X-88.585 Y1.218 E82.5862
G1 X-88.278 Y1.425 E82.6037
G1 X-87.828 Y1.826 E82.6323
G1 X-87.528 Y2.232 E82.6562
G1 X-87.307 Y2.672 E82.6794
G1 X-87.277 Y2.770 E82.6840
;segType:Perimeter
G0 X-88.235 Y2.011 F4800
G1 X-88.125 Y2.178 E82.6925 F900
G1 X-87.911 Y2.468 E82.7077
G1 X-87.725 Y2.839 E82.7253
G1 X-87.604 Y3.237 E82.7428
G1 X-87.551 Y3.646 E82.7603
G1 X-87.569 Y4.061 E82.7778
G1 X-87.656 Y4.468 E82.7954
G1 X-87.805 Y4.837 E82.8122
G1 X-87.973 Y5.117 E82.8260
G1 X-88.304 Y5.519 E82.8480
G1 X-88.630 Y5.782 E82.8657
G1 X-88.993 Y5.984 E82.8833
G1 X-89.385 Y6.123 E82.9009
G1 X-89.795 Y6.192 E82.9184
G1 X-90.211 Y6.192 E82.9360
G1 X-90.621 Y6.121 E82.9535
G1 X-91.012 Y5.982 E82.9711
G1 X-91.375 Y5.779 E82.9887
G1 X-91.701 Y5.515 E83.0064
G1 X-92.026 Y5.117 E83.0281
G1 X-92.189 Y4.853 E83.0412
G1 X-92.344 Y4.465 E83.0589
G1 X-92.431 Y4.058 E83.0765
G1 X-92.449 Y3.643 E83.0940
G1 X-92.395 Y3.231 E83.1116
G1 X-92.273 Y2.833 E83.1291
G1 X-92.085 Y2.462 E83.1467
G1 X-91.836 Y2.126 E83.1644
G1 X-91.446 Y1.779 E83.1865
G1 X-91.196 Y1.610 E83.1992
G1 X-90.817 Y1.439 E83.2168
G1 X-90.414 Y1.334 E83.2344
G1 X-90.000 Y1.299 E83.2519
G1 X-89.586 Y1.334 E83.2695
G1 X-89.183 Y1.439 E83.2871
G1 X-88.804 Y1.610 E83.3046
G1 X-88.554 Y1.779 E83.3174
G1 X-88.205 Y2.090 E83.3371
G0 X-88.049 Y2.215 F4800
;segType:HShell
G0 X-94.620 Y-5.314
G1 X-88.128 Y1.179 E83.7597 F1350
G0 X-89.198 Y0.674 F4800
G1 X-95.186 Y-5.314 E84.1495 F1350
G0 X-95.752 Y-5.314 F4800
G1 X-89.867 Y0.571 E84.5325 F1350
G0 X-90.409 Y0.595 F4800
G1 X-96.318 Y-5.314 E84.9171 F1350
G0 X-96.883 Y-5.314 F4800
G1 X-90.876 Y0.694 E85.3081 F1350
G0 X-91.290 Y0.845 F4800
G1 X-97.449 Y-5.314 E85.7090 F1350
G0 X-98.015 Y-5.314 F4800
G1 X-91.663 Y1.038 E86.1224 F1350
G0 X-91.989 Y1.277 F4800
G1 X-98.580 Y-5.314 E86.5514 F1350
G0 X-99.064 Y-5.231 F4800
G1 X-92.289 Y1.544 E86.9923 F1350
G0 X-92.548 Y1.850 F4800
G1 X-99.064 Y-4.665 E87.4164 F1350
G0 X-99.064 Y-4.100 F4800
G1 X-92.773 Y2.191 E87.8259 F1350
G0 X-92.962 Y2.568 F4800
G1 X-99.064 Y-3.534 E88.2231 F1350
G0 X-99.064 Y-2.968 F4800
G1 X-93.095 Y3.001 E88.6116 F1350
G0 X-93.171 Y3.490 F4800
G1 X-99.064 Y-2.403 E88.9951 F1350
G0 X-99.064 Y-1.837 F4800
G1 X-93.168 Y4.058 E89.3789 F1350
G0 X-93.010 Y4.782 F4800
G1 X-99.064 Y-1.271 E89.7728 F1350
G0 X-99.064 Y17.396 F4800
G1 X-98.646 Y17.813 E89.8000 F1350
G0 X-98.081 Y17.813 F4800
G1 X-99.064 Y16.831 E89.8640 F1350
G0 X-99.064 Y16.265 F4800
G1 X-97.515 Y17.813 E89.9648 F1350
G0 X-96.949 Y17.813 F4800
G1 X-99.064 Y15.699 E90.1024 F1350
G0 X-99.064 Y15.134 F4800
G1 X-96.384 Y17.813 E90.2768 F1350
G0 X-95.818 Y17.813 F4800
G1 X-99.064 Y14.568 E90.4881 F1350
G0 X-99.064 Y14.002 F4800
G1 X-95.252 Y17.813 E90.7361 F1350
G0 X-94.687 Y17.813 F4800
G1 X-99.064 Y13.436 E91.0210 F1350
G0 X-99.064 Y12.871 F4800
G1 X-94.121 Y17.813 E91.3428 F1350
G0 X-93.555 Y17.813 F4800
G1 X-99.064 Y12.305 E91.7013 F1350
G0 X-99.064 Y11.739 F4800
G1 X-92.989 Y17.813 E92.0967 F1350
G0 X-92.424 Y17.813 F4800
G1 X-99.064 Y11.174 E92.5288 F1350
G0 X-99.064 Y10.608 F4800
G1 X-91.858 Y17.813 E92.9978 F1350
G0 X-91.292 Y17.813 F4800
G1 X-99.064 Y10.042 E93.5036 F1350
G0 X-99.064 Y9.477 F4800
G1 X-90.727 Y17.813 E94.0463 F1350
G0 X-90.161 Y17.813 F4800
G1 X-99.064 Y8.911 E94.6257 F1350
G0 X-99.064 Y8.345 F4800
G1 X-89.595 Y17.813 E95.2420 F1350
G0 X-89.030 Y17.813 F4800
G1 X-99.064 Y7.780 E95.8951 F1350
G0 X-99.064 Y7.214 F4800
G1 X-88.464 Y17.813 E96.5850 F1350
G0 X-87.898 Y17.813 F4800
G1 X-99.064 Y6.648 E97.3118 F1350
G0 X-99.064 Y6.083 F4800
G1 X-87.333 Y17.813 E98.0753 F1350
G0 X-86.767 Y17.813 F4800
G1 X-99.064 Y5.517 E98.8757 F1350
G0 X-99.064 Y4.951 F4800
G1 X-86.201 Y17.813 E99.7129 F1350
G0 X-85.636 Y17.813 F4800
G1 X-99.064 Y4.386 E100.5869 F1350
G0 X-99.064 Y3.820 F4800
G1 X-85.070 Y17.813 E101.4977 F1350
G0 X-84.504 Y17.813 F4800
G1 X-99.064 Y3.254 E102.4454 F1350
G0 X-99.064 Y2.688 F4800
G1 X-83.939 Y17.813 E103.4299 F1350
G0 X-83.373 Y17.813 F4800
G1 X-99.064 Y2.123 E104.4512 F1350
G0 X-99.064 Y1.557 F4800
G1 X-82.807 Y17.813 E105.5093 F1350
G0 X-82.241 Y17.813 F4800
G1 X-99.064 Y0.991 E106.6043 F1350
G0 X-99.064 Y0.426 F4800
G1 X-81.676 Y17.813 E107.7360 F1350
G0 X-81.110 Y17.813 F4800
G1 X-99.064 Y-0.140 E108.9046 F1350
G0 X-99.064 Y-0.706 F4800
G1 X-80.544 Y17.813 E110.1100 F1350
G0 X-79.979 Y17.813 F4800
G1 X-91.038 Y6.754 E110.8299 F1350
G0 X-90.304 Y6.923 F4800
G1 X-79.413 Y17.813 E111.5387 F1350
G0 X-78.847 Y17.813 F4800
G1 X-89.732 Y6.928 E112.2472 F1350
G0 X-89.249 Y6.846 F4800
G1 X-78.282 Y17.813 E112.9611 F1350
G0 X-77.716 Y17.813 F4800
G1 X-88.824 Y6.705 E113.6841 F1350
G0 X-88.443 Y6.521 F4800
G1 X-77.150 Y17.813 E114.4191 F1350
G0 X-76.585 Y17.813 F4800
G1 X-88.099 Y6.299 E115.1686 F1350
G0 X-87.785 Y6.047 F4800
G1 X-76.019 Y17.813 E115.9345 F1350
G0 X-75.453 Y17.813 F4800
G1 X-87.530 Y5.737 E116.7205 F1350
G0 X-87.291 Y5.410 F4800
G1 X-74.888 Y17.813 E117.5278 F1350
G0 X-74.322 Y17.813 F4800
G1 X-87.094 Y5.042 E118.3591 F1350
G0 X-86.939 Y4.631 F4800
G1 X-73.756 Y17.813 E119.2172 F1350
G0 X-73.190 Y17.813 F4800
G1 X-86.838 Y4.166 E120.1055 F1350
G0 X-86.813 Y3.625 F4800
G1 X-72.625 Y17.813 E121.0290 F1350
G0 X-72.059 Y17.813 F4800
G1 X-86.921 Y2.952 E121.9964 F1350
G0 X-87.439 Y1.868 F4800
G1 X-71.493 Y17.813 E123.0342 F1350
G0 X-70.928 Y17.813 F4800
G1 X-94.055 Y-5.314 E124.5396 F1350
G0 X-93.489 Y-5.314 F4800
G1 X-70.362 Y17.813 E126.0449 F1350
G0 X-69.796 Y17.813 F4800
G1 X-92.923 Y-5.314 E127.5502 F1350
G0 X-92.358 Y-5.314 F4800
G1 X-69.231 Y17.813 E129.0555 F1350
G0 X-68.665 Y17.813 F4800
G1 X-91.792 Y-5.314 E130.5609 F1350
G0 X-91.226 Y-5.314 F4800
G1 X-68.099 Y17.813 E132.0662 F1350
G0 X-67.534 Y17.813 F4800
G1 X-90.661 Y-5.314 E133.5715 F1350
G0 X-90.095 Y-5.314 F4800
G1 X-66.968 Y17.813 E135.0768 F1350
G0 X-66.402 Y17.813 F4800
G1 X-89.529 Y-5.314 E136.5822 F1350
G0 X-88.964 Y-5.314 F4800
G1 X-65.837 Y17.813 E138.0875 F1350
G0 X-65.271 Y17.813 F4800
G1 X-88.398 Y-5.314 E139.5928 F1350
G0 X-87.832 Y-5.314 F4800
G1 X-64.705 Y17.813 E141.0981 F1350
G0 X-64.140 Y17.813 F4800
G1 X-87.267 Y-5.314 E142.6035 F1350
G0 X-86.701 Y-5.314 F4800
G1 X-63.574 Y17.813 E144.1088 F1350
G0 X-63.008 Y17.813 F4800
G1 X-86.135 Y-5.314 E145.6141 F1350
G0 X-85.569 Y-5.314 F4800
G1 X-62.442 Y17.813 E147.1194 F1350
G0 X-61.877 Y17.813 F4800
G1 X-85.004 Y-5.314 E148.6248 F1350
G0 X-84.438 Y-5.314 F4800
G1 X-61.311 Y17.813 E150.1301 F1350
G0 X-60.745 Y17.813 F4800
G1 X-83.872 Y-5.314 E151.6354 F1350
G0 X-83.307 Y-5.314 F4800
G1 X-60.180 Y17.813 E153.1407 F1350
G0 X-59.614 Y17.813 F4800
G1 X-82.741 Y-5.314 E154.6461 F1350
G0 X-82.175 Y-5.314 F4800
G1 X-59.048 Y17.813 E156.1514 F1350
G0 X-58.483 Y17.813 F4800
G1 X-81.610 Y-5.314 E157.6567 F1350
G0 X-81.044 Y-5.314 F4800
G1 X-57.917 Y17.813 E159.1620 F1350
G0 X-57.351 Y17.813 F4800
G1 X-80.478 Y-5.314 E160.6674 F1350
G0 X-79.913 Y-5.314 F4800
G1 X-56.786 Y17.813 E162.1727 F1350
G0 X-56.220 Y17.813 F4800
G1 X-79.347 Y-5.314 E163.6780 F1350
G0 X-78.781 Y-5.314 F4800
G1 X-55.654 Y17.813 E165.1833 F1350
G0 X-55.089 Y17.813 F4800
G1 X-78.216 Y-5.314 E166.6887 F1350
G0 X-77.650 Y-5.314 F4800
G1 X-54.523 Y17.813 E168.1940 F1350
G0 X-53.957 Y17.813 F4800
G1 X-77.084 Y-5.314 E169.6993 F1350
G0 X-76.519 Y-5.314 F4800
G1 X-53.392 Y17.813 E171.2046 F1350
G0 X-52.826 Y17.813 F4800
G1 X-75.953 Y-5.314 E172.7100 F1350
G0 X-75.387 Y-5.314 F4800
G1 X-52.260 Y17.813 E174.2153 F1350
G0 X-51.694 Y17.813 F4800
G1 X-74.821 Y-5.314 E175.7206 F1350
G0 X-74.256 Y-5.314 F4800
G1 X-51.129 Y17.813 E177.2259 F1350
G0 X-50.563 Y17.813 F4800
G1 X-73.690 Y-5.314 E178.7313 F1350
G0 X-73.124 Y-5.314 F4800
G1 X-49.997 Y17.813 E180.2366 F1350
G0 X-49.432 Y17.813 F4800
G1 X-72.559 Y-5.314 E181.7419 F1350
G0 X-71.993 Y-5.314 F4800
G1 X-48.866 Y17.813 E183.2472 F1350
G0 X-48.300 Y17.813 F4800
G1 X-71.427 Y-5.314 E184.7526 F1350
G0 X-70.862 Y-5.314 F4800
G1 X-47.735 Y17.813 E186.2579 F1350
G0 X-47.169 Y17.813 F4800
G1 X-70.296 Y-5.314 E187.7632 F1350
G0 X-69.730 Y-5.314 F4800
G1 X-46.603 Y17.813 E189.2685 F1350
G0 X-46.038 Y17.813 F4800
G1 X-69.165 Y-5.314 E190.7739 F1350
G0 X-68.599 Y-5.314 F4800
G1 X-45.472 Y17.813 E192.2792 F1350
G0 X-44.906 Y17.813 F4800
G1 X-68.033 Y-5.314 E193.7845 F1350
G0 X-67.468 Y-5.314 F4800
G1 X-44.341 Y17.813 E195.2898 F1350
G0 X-43.775 Y17.813 F4800
G1 X-56.037 Y5.551 E196.0880 F1350
G0 X-55.468 Y5.555 F4800
G1 X-43.209 Y17.813 E196.8859 F1350
G0 X-42.643 Y17.813 F4800
G1 X-54.898 Y5.559 E197.6836 F1350
G0 X-54.329 Y5.563 F4800
G1 X-42.078 Y17.813 E198.4810 F1350
G0 X-41.512 Y17.813 F4800
G1 X-53.891 Y5.434 E199.2867 F1350
G0 X-53.682 Y5.078 F4800
G1 X-40.946 Y17.813 E200.1157 F1350
G0 X-40.381 Y17.813 F4800
G1 X-53.473 Y4.721 E200.9679 F1350
G0 X-53.264 Y4.364 F4800
G1 X-39.815 Y17.813 E201.8433 F1350
G0 X-39.249 Y17.813 F4800
G1 X-53.055 Y4.008 E202.7419 F1350
G0 X-53.148 Y3.350 F4800
G1 X-38.684 Y17.813 E203.6833 F1350
G0 X-38.118 Y17.813 F4800
G1 X-53.893 Y2.038 E204.7101 F1350
G0 X-49.466 Y5.334 F4800
G1 X-60.114 Y-5.314 E205.4032 F1350
G0 X-59.548 Y-5.314 F4800
G1 X-50.238 Y3.996 E206.0091 F1350
G0 X-50.205 Y3.463 F4800
G1 X-58.982 Y-5.314 E206.5804 F1350
G0 X-58.417 Y-5.314 F4800
G1 X-49.998 Y3.105 E207.1284 F1350
G0 X-49.791 Y2.746 F4800
G1 X-57.851 Y-5.314 E207.6530 F1350
G0 X-57.285 Y-5.314 F4800
G1 X-49.584 Y2.388 E208.1543 F1350
G0 X-49.377 Y2.029 F4800
G1 X-56.720 Y-5.314 E208.6322 F1350
G0 X-56.154 Y-5.314 F4800
G1 X-49.155 Y1.685 E209.0878 F1350
G0 X-48.586 Y1.689 F4800
G1 X-55.588 Y-5.314 E209.5435 F1350
G0 X-55.022 Y-5.314 F4800
G1 X-48.016 Y1.693 E209.9996 F1350
G0 X-47.447 Y1.697 F4800
G1 X-54.457 Y-5.314 E210.4559 F1350
G0 X-53.891 Y-5.314 F4800
G1 X-46.877 Y1.700 E210.9124 F1350
G0 X-46.695 Y1.882 F4800
G1 X-30.764 Y17.813 E211.9494 F1350
G0 X-30.198 Y17.813 F4800
G1 X-41.950 Y6.062 E212.7143 F1350
G0 X-41.385 Y6.062 F4800
G1 X-29.633 Y17.813 E213.4792 F1350
G0 X-29.067 Y17.813 F4800
G1 X-40.819 Y6.062 E214.2441 F1350
G0 X-40.253 Y6.062 F4800
G1 X-28.501 Y17.813 E215.0090 F1350
G0 X-27.936 Y17.813 F4800
G1 X-39.688 Y6.062 E215.7740 F1350
G0 X-39.467 Y5.717 F4800
G1 X-27.370 Y17.813 E216.5613 F1350
G0 X-26.804 Y17.813 F4800
G1 X-29.931 Y14.687 E216.7649 F1350
G0 X-29.366 Y14.687 F4800
G1 X-26.239 Y17.813 E216.9684 F1350
G0 X-25.673 Y17.813 F4800
G1 X-28.800 Y14.687 E217.1719 F1350
G0 X-28.234 Y14.687 F4800
G1 X-25.107 Y17.813 E217.3755 F1350
G0 X-24.542 Y17.813 F4800
G1 X-27.668 Y14.687 E217.5790 F1350
G0 X-27.103 Y14.687 F4800
G1 X-23.976 Y17.813 E217.7826 F1350
G0 X-23.410 Y17.813 F4800
G1 X-26.537 Y14.687 E217.9861 F1350
G0 X-25.971 Y14.687 F4800
G1 X-22.844 Y17.813 E218.1896 F1350
G0 X-22.279 Y17.813 F4800
G1 X-25.406 Y14.687 E218.3932 F1350
G0 X-24.840 Y14.687 F4800
G1 X-21.713 Y17.814 E218.5967 F1350
G0 X-21.147 Y17.814 F4800
G1 X-24.274 Y14.687 E218.8002 F1350
G0 X-23.709 Y14.687 F4800
G1 X-20.582 Y17.814 E219.0038 F1350
G0 X-20.016 Y17.814 F4800
G1 X-23.143 Y14.687 E219.2073 F1350
G0 X-22.577 Y14.687 F4800
G1 X-19.450 Y17.814 E219.4109 F1350
G0 X-18.885 Y17.814 F4800
G1 X-22.012 Y14.687 E219.6144 F1350
G0 X-21.446 Y14.687 F4800
G1 X-18.319 Y17.814 E219.8179 F1350
G0 X-17.753 Y17.814 F4800
G1 X-20.880 Y14.687 E220.0215 F1350
G0 X-20.315 Y14.687 F4800
G1 X-17.188 Y17.814 E220.2250 F1350
G0 X-16.622 Y17.814 F4800
G1 X-19.749 Y14.687 E220.4285 F1350
G0 X-19.183 Y14.687 F4800
G1 X-16.056 Y17.814 E220.6321 F1350
G0 X-15.491 Y17.814 F4800
G1 X-18.617 Y14.687 E220.8356 F1350
G0 X-18.052 Y14.687 F4800
G1 X-14.925 Y17.814 E221.0392 F1350
G0 X-14.359 Y17.814 F4800
G1 X-17.486 Y14.687 E221.2427 F1350
G0 X-16.920 Y14.687 F4800
G1 X-13.793 Y17.814 E221.4462 F1350
G0 X-13.228 Y17.814 F4800
G1 X-16.355 Y14.687 E221.6498 F1350
G0 X-15.789 Y14.687 F4800
G1 X-12.662 Y17.814 E221.8533 F1350
G0 X-12.096 Y17.814 F4800
G1 X-15.223 Y14.687 E222.0568 F1350
G0 X-14.658 Y14.687 F4800
G1 X-11.531 Y17.814 E222.2604 F1350
G0 X-10.965 Y17.814 F4800
G1 X-14.092 Y14.687 E222.4639 F1350
G0 X-13.526 Y14.687 F4800
G1 X-10.399 Y17.814 E222.6674 F1350
G0 X-9.834 Y17.814 F4800
G1 X-13.476 Y14.172 E222.9045 F1350
G0 X-13.476 Y13.606 F4800
G1 X-9.268 Y17.814 E223.1784 F1350
G0 X-8.702 Y17.814 F4800
G1 X-13.476 Y13.040 E223.4891 F1350
G0 X-13.476 Y12.474 F4800
G1 X-8.137 Y17.814 E223.8366 F1350
G0 X-7.571 Y17.814 F4800
G1 X-13.476 Y11.909 E224.2209 F1350
G0 X-13.476 Y11.343 F4800
G1 X-7.005 Y17.814 E224.6421 F1350
G0 X-6.440 Y17.814 F4800
G1 X-13.476 Y10.777 E225.1001 F1350
G0 X-13.476 Y10.212 F4800
G1 X-5.874 Y17.814 E225.5949 F1350
G0 X-5.308 Y17.814 F4800
G1 X-13.476 Y9.646 E226.1265 F1350
G0 X-13.476 Y9.080 F4800
G1 X-4.742 Y17.814 E226.6949 F1350
G0 X-4.177 Y17.814 F4800
G1 X-13.476 Y8.515 E227.3002 F1350
G0 X-13.476 Y7.949 F4800
G1 X-3.611 Y17.814 E227.9423 F1350
G0 X-3.045 Y17.814 F4800
G1 X-15.672 Y5.186 E228.7641 F1350
G0 X-15.107 Y5.186 F4800
G1 X-2.480 Y17.814 E229.5860 F1350
G0 X-1.914 Y17.814 F4800
G1 X-14.541 Y5.186 E230.4079 F1350
G0 X-13.975 Y5.187 F4800
G1 X-1.348 Y17.814 E231.2298 F1350
G0 X-0.783 Y17.814 F4800
G1 X-13.476 Y5.121 E232.0560 F1350
G0 X-13.476 Y4.555 F4800
G1 X-0.217 Y17.814 E232.9190 F1350
G0 X0.349 Y17.814 F4800
G1 X-13.476 Y3.989 E233.8188 F1350
G0 X-13.476 Y3.423 F4800
G1 X0.914 Y17.814 E234.7555 F1350
G0 X1.480 Y17.814 F4800
G1 X-13.476 Y2.858 E235.7289 F1350
G0 X-13.476 Y2.292 F4800
G1 X2.046 Y17.814 E236.7392 F1350
G0 X2.611 Y17.814 F4800
G1 X-13.476 Y1.726 E237.7863 F1350
G0 X-13.476 Y1.161 F4800
G1 X3.177 Y17.814 E238.8702 F1350
G0 X3.743 Y17.814 F4800
G1 X-13.476 Y0.595 E239.9910 F1350
G0 X-13.476 Y0.029 F4800
G1 X4.308 Y17.814 E241.1485 F1350
G0 X4.874 Y17.814 F4800
G1 X-13.476 Y-0.536 E242.3429 F1350
G0 X-13.476 Y-1.102 F4800
G1 X5.440 Y17.814 E243.5741 F1350
G0 X6.006 Y17.814 F4800
G1 X-13.476 Y-1.668 E244.8421 F1350
G0 X-2.979 Y-5.314 F4800
G1 X20.148 Y17.813 E246.3475 F1350
G0 X20.713 Y17.813 F4800
G1 X-2.414 Y-5.314 E247.8528 F1350
G0 X-1.848 Y-5.314 F4800
G1 X21.279 Y17.813 E249.3581 F1350
G0 X21.845 Y17.813 F4800
G1 X-1.282 Y-5.314 E250.8634 F1350
G0 X-0.717 Y-5.314 F4800
G1 X22.410 Y17.813 E252.3688 F1350
G0 X22.976 Y17.813 F4800
G1 X-0.151 Y-5.314 E253.8741 F1350
G0 X0.415 Y-5.314 F4800
G1 X23.542 Y17.813 E255.3794 F1350
G0 X24.107 Y17.813 F4800
G1 X0.980 Y-5.314 E256.8847 F1350
G0 X1.546 Y-5.314 F4800
G1 X24.673 Y17.813 E258.3901 F1350
G0 X25.239 Y17.813 F4800
G1 X2.112 Y-5.314 E259.8954 F1350
G0 X2.677 Y-5.314 F4800
G1 X25.804 Y17.813 E261.4007 F1350
G0 X26.370 Y17.813 F4800
G1 X3.243 Y-5.314 E262.9060 F1350
G0 X3.809 Y-5.314 F4800
G1 X26.936 Y17.813 E264.4113 F1350
G0 X27.501 Y17.813 F4800
G1 X4.375 Y-5.314 E265.9166 F1350
G0 X4.940 Y-5.314 F4800
G1 X28.067 Y17.813 E267.4219 F1350
G0 X28.633 Y17.813 F4800
G1 X5.506 Y-5.314 E268.9272 F1350
G0 X6.072 Y-5.314 F4800
G1 X29.199 Y17.813 E270.4325 F1350
G0 X29.764 Y17.813 F4800
G1 X6.637 Y-5.314 E271.9378 F1350
G0 X7.203 Y-5.314 F4800
G1 X30.330 Y17.813 E273.4432 F1350
G0 X30.896 Y17.813 F4800
G1 X7.769 Y-5.314 E274.9485 F1350
G0 X8.334 Y-5.314 F4800
G1 X31.461 Y17.813 E276.4538 F1350
G0 X32.027 Y17.813 F4800
G1 X8.900 Y-5.314 E277.9591 F1350
G0 X9.466 Y-5.314 F4800
G1 X32.593 Y17.813 E279.4644 F1350
G0 X33.158 Y17.813 F4800
G1 X10.031 Y-5.314 E280.9697 F1350
G0 X10.597 Y-5.314 F4800
G1 X33.724 Y17.813 E282.4750 F1350
G0 X34.290 Y17.813 F4800
G1 X11.163 Y-5.314 E283.9803 F1350
G0 X11.728 Y-5.314 F4800
G1 X34.855 Y17.813 E285.4856 F1350
G0 X35.421 Y17.813 F4800
G1 X12.294 Y-5.314 E286.9909 F1350
G0 X12.860 Y-5.314 F4800
G1 X35.987 Y17.813 E288.4963 F1350
G0 X36.552 Y17.813 F4800
G1 X13.425 Y-5.314 E290.0016 F1350
G0 X13.991 Y-5.314 F4800
G1 X37.118 Y17.813 E291.5069 F1350
G0 X37.684 Y17.813 F4800
G1 X14.557 Y-5.314 E293.0122 F1350
G0 X15.123 Y-5.314 F4800
G1 X38.249 Y17.813 E294.5175 F1350
G0 X38.815 Y17.813 F4800
G1 X15.688 Y-5.314 E296.0228 F1350
G0 X16.254 Y-5.314 F4800
G1 X39.381 Y17.813 E297.5281 F1350
G0 X39.947 Y17.813 F4800
G1 X16.820 Y-5.314 E299.0334 F1350
G0 X17.385 Y-5.314 F4800
G1 X40.512 Y17.813 E300.5387 F1350
G0 X41.078 Y17.813 F4800
G1 X17.951 Y-5.314 E302.0440 F1350
G0 X18.517 Y-5.314 F4800
G1 X41.644 Y17.813 E303.5494 F1350
G0 X42.209 Y17.813 F4800
G1 X19.082 Y-5.314 E305.0547 F1350
G0 X19.648 Y-5.314 F4800
G1 X42.775 Y17.813 E306.5600 F1350
G0 X43.341 Y17.813 F4800
G1 X20.214 Y-5.314 E308.0653 F1350
G0 X20.779 Y-5.314 F4800
G1 X43.906 Y17.813 E309.5706 F1350
G0 X44.472 Y17.813 F4800
G1 X21.345 Y-5.314 E311.0759 F1350
G0 X21.911 Y-5.314 F4800
G1 X45.038 Y17.813 E312.5812 F1350
G0 X45.603 Y17.813 F4800
G1 X22.476 Y-5.314 E314.0865 F1350
G0 X23.042 Y-5.314 F4800
G1 X46.169 Y17.813 E315.5918 F1350
G0 X46.735 Y17.813 F4800
G1 X23.608 Y-5.314 E317.0971 F1350
G0 X24.174 Y-5.314 F4800
G1 X47.300 Y17.813 E318.6025 F1350
G0 X47.866 Y17.813 F4800
G1 X24.739 Y-5.314 E320.1078 F1350
G0 X25.305 Y-5.314 F4800
G1 X48.432 Y17.813 E321.6131 F1350
G0 X48.997 Y17.813 F4800
G1 X25.871 Y-5.314 E323.1184 F1350
G0 X26.436 Y-5.314 F4800
G1 X49.563 Y17.813 E324.6237 F1350
G0 X50.129 Y17.813 F4800
G1 X27.002 Y-5.314 E326.1290 F1350
G0 X27.568 Y-5.314 F4800
G1 X50.695 Y17.813 E327.6343 F1350
G0 X51.260 Y17.813 F4800
G1 X28.133 Y-5.314 E329.1396 F1350
G0 X28.699 Y-5.314 F4800
G1 X51.826 Y17.813 E330.6449 F1350
G0 X52.392 Y17.813 F4800
G1 X29.265 Y-5.314 E332.1503 F1350
G0 X29.830 Y-5.314 F4800
G1 X52.957 Y17.813 E333.6556 F1350
G0 X53.523 Y17.813 F4800
G1 X30.396 Y-5.314 E335.1609 F1350
G0 X30.962 Y-5.314 F4800
G1 X54.089 Y17.813 E336.6662 F1350
G0 X54.654 Y17.813 F4800
G1 X31.527 Y-5.314 E338.1715 F1350
G0 X32.093 Y-5.314 F4800
G1 X55.220 Y17.813 E339.6768 F1350
G0 X55.786 Y17.813 F4800
G1 X32.659 Y-5.314 E341.1821 F1350
G0 X33.224 Y-5.314 F4800
G1 X56.351 Y17.813 E342.6874 F1350
G0 X56.917 Y17.813 F4800
G1 X33.790 Y-5.314 E344.1927 F1350
G0 X34.356 Y-5.314 F4800
G1 X57.483 Y17.813 E345.6980 F1350
G0 X58.048 Y17.813 F4800
G1 X34.922 Y-5.314 E347.2034 F1350
G0 X35.487 Y-5.314 F4800
G1 X58.614 Y17.813 E348.7087 F1350
G0 X59.180 Y17.813 F4800
G1 X36.053 Y-5.314 E350.2140 F1350
G0 X36.619 Y-5.314 F4800
G1 X59.745 Y17.813 E351.7193 F1350
G0 X60.311 Y17.813 F4800
G1 X37.184 Y-5.314 E353.2246 F1350
G0 X37.750 Y-5.314 F4800
G1 X60.877 Y17.813 E354.7299 F1350
G0 X61.443 Y17.813 F4800
G1 X38.316 Y-5.314 E356.2352 F1350
G0 X38.881 Y-5.314 F4800
G1 X62.008 Y17.813 E357.7405 F1350
G0 X62.574 Y17.813 F4800
G1 X39.447 Y-5.314 E359.2458 F1350
G0 X40.013 Y-5.314 F4800
G1 X63.140 Y17.813 E360.7511 F1350
G0 X63.705 Y17.813 F4800
G1 X40.578 Y-5.314 E362.2565 F1350
G0 X41.144 Y-5.314 F4800
G1 X64.271 Y17.813 E363.7618 F1350
G0 X64.837 Y17.813 F4800
G1 X59.210 Y12.187 E364.1280 F1350
G0 X59.776 Y12.187 F4800
G1 X65.402 Y17.813 E364.4942 F1350
G0 X65.968 Y17.813 F4800
G1 X60.341 Y12.187 E364.8605 F1350
G0 X60.907 Y12.187 F4800
G1 X66.534 Y17.813 E365.2267 F1350
G0 X67.099 Y17.813 F4800
G1 X61.473 Y12.187 E365.5930 F1350
G0 X62.038 Y12.187 F4800
G1 X67.665 Y17.813 E365.9592 F1350
G0 X68.231 Y17.813 F4800
G1 X62.604 Y12.187 E366.3255 F1350
G0 X63.170 Y12.187 F4800
G1 X68.796 Y17.813 E366.6917 F1350
G0 X69.362 Y17.813 F4800
G1 X63.735 Y12.187 E367.0579 F1350
G0 X64.301 Y12.187 F4800
G1 X69.928 Y17.813 E367.4242 F1350
G0 X70.493 Y17.813 F4800
G1 X64.867 Y12.187 E367.7904 F1350
G0 X65.432 Y12.187 F4800
G1 X71.059 Y17.813 E368.1567 F1350
G0 X71.625 Y17.813 F4800
G1 X65.998 Y12.187 E368.5229 F1350
G0 X66.564 Y12.187 F4800
G1 X72.191 Y17.813 E368.8891 F1350
G0 X72.756 Y17.813 F4800
G1 X67.129 Y12.187 E369.2554 F1350
G0 X67.695 Y12.187 F4800
G1 X73.322 Y17.813 E369.6216 F1350
G0 X73.888 Y17.813 F4800
G1 X68.261 Y12.187 E369.9879 F1350
G0 X68.827 Y12.187 F4800
G1 X74.453 Y17.813 E370.3541 F1350
G0 X75.019 Y17.813 F4800
G1 X69.392 Y12.187 E370.7203 F1350
G0 X69.958 Y12.187 F4800
G1 X75.585 Y17.813 E371.0866 F1350
G0 X76.150 Y17.813 F4800
G1 X70.524 Y12.187 E371.4528 F1350
G0 X71.089 Y12.187 F4800
G1 X76.716 Y17.813 E371.8191 F1350
G0 X77.282 Y17.813 F4800
G1 X71.655 Y12.187 E372.1853 F1350
G0 X72.221 Y12.187 F4800
G1 X77.847 Y17.813 E372.5516 F1350
G0 X78.413 Y17.813 F4800
G1 X72.786 Y12.187 E372.9178 F1350
G0 X73.352 Y12.187 F4800
G1 X78.979 Y17.813 E373.2840 F1350
G0 X79.544 Y17.813 F4800
G1 X73.918 Y12.187 E373.6503 F1350
G0 X74.483 Y12.187 F4800
G1 X80.110 Y17.813 E374.0165 F1350
G0 X80.676 Y17.813 F4800
G1 X75.049 Y12.187 E374.3828 F1350
G0 X75.615 Y12.187 F4800
G1 X81.241 Y17.813 E374.7490 F1350
G0 X81.807 Y17.813 F4800
G1 X76.180 Y12.187 E375.1152 F1350
G0 X76.746 Y12.187 F4800
G1 X82.373 Y17.813 E375.4815 F1350
G0 X82.938 Y17.813 F4800
G1 X77.312 Y12.187 E375.8477 F1350
G0 X77.877 Y12.187 F4800
G1 X83.504 Y17.813 E376.2140 F1350
G0 X84.070 Y17.813 F4800
G1 X78.443 Y12.187 E376.5802 F1350
G0 X79.009 Y12.187 F4800
G1 X84.636 Y17.813 E376.9465 F1350
G0 X85.201 Y17.813 F4800
G1 X79.574 Y12.187 E377.3127 F1350
G0 X80.140 Y12.187 F4800
G1 X85.767 Y17.813 E377.6789 F1350
G0 X86.333 Y17.813 F4800
G1 X80.706 Y12.187 E378.0452 F1350
G0 X81.272 Y12.187 F4800
G1 X86.898 Y17.813 E378.4114 F1350
G0 X87.464 Y17.813 F4800
G1 X81.837 Y12.187 E378.7777 F1350
G0 X82.403 Y12.187 F4800
G1 X88.030 Y17.813 E379.1439 F1350
G0 X88.595 Y17.813 F4800
G1 X82.969 Y12.187 E379.5101 F1350
G0 X83.534 Y12.187 F4800
G1 X89.161 Y17.813 E379.8764 F1350
G0 X89.727 Y17.813 F4800
G1 X84.100 Y12.187 E380.2426 F1350
G0 X84.666 Y12.187 F4800
G1 X90.292 Y17.813 E380.6089 F1350
G0 X90.858 Y17.813 F4800
G1 X85.231 Y12.187 E380.9751 F1350
G0 X85.797 Y12.187 F4800
G1 X91.424 Y17.813 E381.3414 F1350
G0 X91.989 Y17.813 F4800
G1 X86.363 Y12.186 E381.7076 F1350
G0 X86.928 Y12.186 F4800
G1 X92.555 Y17.813 E382.0738 F1350
G0 X93.121 Y17.813 F4800
G1 X87.494 Y12.187 E382.4401 F1350
G0 X88.060 Y12.186 F4800
G1 X93.686 Y17.813 E382.8063 F1350
G0 X94.252 Y17.813 F4800
G1 X88.625 Y12.186 E383.1726 F1350
G0 X89.191 Y12.186 F4800
G1 X94.818 Y17.813 E383.5388 F1350
G0 X95.384 Y17.813 F4800
G1 X89.757 Y12.186 E383.9050 F1350
G0 X90.322 Y12.186 F4800
G1 X95.949 Y17.813 E384.2713 F1350
G0 X96.515 Y17.813 F4800
G1 X90.888 Y12.186 E384.6375 F1350
G0 X91.454 Y12.186 F4800
G1 X97.081 Y17.813 E385.0038 F1350
G0 X97.646 Y17.813 F4800
G1 X92.020 Y12.186 E385.3700 F1350
G0 X92.585 Y12.186 F4800
G1 X98.212 Y17.813 E385.7362 F1350
G0 X98.778 Y17.813 F4800
G1 X93.151 Y12.186 E386.1025 F1350
G0 X93.717 Y12.186 F4800
G1 X99.064 Y17.533 E386.4505 F1350
G0 X99.064 Y16.968 F4800
G1 X94.282 Y12.186 E386.7617 F1350
G0 X94.848 Y12.186 F4800
G1 X99.064 Y16.402 E387.0361 F1350
G0 X99.064 Y15.836 F4800
G1 X95.414 Y12.186 E387.2737 F1350
G0 X95.979 Y12.186 F4800
G1 X99.063 Y15.271 E387.4744 F1350
G0 X99.063 Y14.705 F4800
G1 X96.545 Y12.186 E387.6384 F1350
G0 X97.111 Y12.186 F4800
G1 X99.063 Y14.139 E387.7655 F1350
G0 X99.063 Y13.574 F4800
G1 X97.676 Y12.186 E387.8558 F1350
G0 X98.242 Y12.186 F4800
G1 X99.063 Y13.008 E387.9093 F1350
G0 X99.063 Y12.442 F4800
G1 X98.808 Y12.186 E387.9259 F1350
G0 X98.809 Y11.898 F4800
G0 X59.352 Y11.898
G0 X59.352 Y8.102
G0 X98.822 Y8.102
G0 X98.822 Y8.102
G0 X98.871 Y-5.300
G0 X98.871 Y-5.287
G1 X99.064 Y-5.094 E387.9384 F1350
G0 X99.064 Y-4.528 F4800
G1 X98.305 Y-5.287 E387.9878 F1350
G0 X97.739 Y-5.288 F4800
G1 X99.064 Y-3.963 E388.0740 F1350
G0 X99.064 Y-3.397 F4800
G1 X97.172 Y-5.288 E388.1971 F1350
G0 X96.606 Y-5.288 F4800
G1 X99.064 Y-2.831 E388.3571 F1350
G0 X99.064 Y-2.266 F4800
G1 X96.040 Y-5.289 E388.5538 F1350
G0 X95.474 Y-5.289 F4800
G1 X99.064 Y-1.700 E388.7875 F1350
G0 X99.064 Y-1.134 F4800
G1 X94.908 Y-5.290 E389.0580 F1350
G0 X94.342 Y-5.290 F4800
G1 X99.064 Y-0.568 E389.3653 F1350
G0 X99.064 Y-0.003 F4800
G1 X93.776 Y-5.291 E389.7095 F1350
G0 X93.210 Y-5.291 F4800
G1 X99.064 Y0.563 E390.0905 F1350
G0 X99.064 Y1.129 F4800
G1 X92.643 Y-5.292 E390.5084 F1350
G0 X92.077 Y-5.292 F4800
G1 X99.064 Y1.694 E390.9631 F1350
G0 X99.064 Y2.260 F4800
G1 X91.511 Y-5.292 E391.4547 F1350
G0 X90.945 Y-5.293 F4800
G1 X99.064 Y2.826 E391.9832 F1350
G0 X99.064 Y3.391 F4800
G1 X90.379 Y-5.293 E392.5484 F1350
G0 X89.813 Y-5.294 F4800
G1 X99.064 Y3.957 E393.1506 F1350
G0 X99.064 Y4.523 F4800
G1 X89.247 Y-5.294 E393.7896 F1350
G0 X88.680 Y-5.295 F4800
G1 X99.064 Y5.088 E394.4654 F1350
G0 X99.064 Y5.654 F4800
G1 X88.114 Y-5.295 E395.1781 F1350
G0 X87.548 Y-5.296 F4800
G1 X99.064 Y6.220 E395.9276 F1350
G0 X99.064 Y6.785 F4800
G1 X86.982 Y-5.296 E396.7139 F1350
G0 X86.416 Y-5.296 F4800
G1 X99.064 Y7.351 E397.5372 F1350
G0 X98.960 Y7.813 F4800
G1 X85.850 Y-5.297 E398.3905 F1350
G0 X85.284 Y-5.297 F4800
G1 X98.394 Y7.813 E399.2438 F1350
G0 X97.829 Y7.813 F4800
G1 X84.718 Y-5.298 E400.0972 F1350
G0 X84.151 Y-5.298 F4800
G1 X97.263 Y7.813 E400.9507 F1350
G0 X96.697 Y7.813 F4800
G1 X83.585 Y-5.299 E401.8041 F1350
G0 X83.019 Y-5.299 F4800
G1 X96.132 Y7.813 E402.6576 F1350
G0 X95.566 Y7.813 F4800
G1 X82.453 Y-5.300 E403.5111 F1350
G0 X81.887 Y-5.300 F4800
G1 X95.000 Y7.813 E404.3647 F1350
G0 X94.435 Y7.813 F4800
G1 X81.321 Y-5.301 E405.2182 F1350
G0 X80.755 Y-5.301 F4800
G1 X93.869 Y7.813 E406.0719 F1350
G0 X93.303 Y7.813 F4800
G1 X80.189 Y-5.301 E406.9255 F1350
G0 X79.622 Y-5.302 F4800
G1 X92.738 Y7.813 E407.7792 F1350
G0 X92.172 Y7.813 F4800
G1 X79.056 Y-5.302 E408.6329 F1350
G0 X78.490 Y-5.303 F4800
G1 X91.606 Y7.813 E409.4866 F1350
G0 X91.041 Y7.813 F4800
G1 X77.924 Y-5.303 E410.3403 F1350
G0 X77.358 Y-5.304 F4800
G1 X90.475 Y7.813 E411.1941 F1350
G0 X89.909 Y7.813 F4800
G1 X76.792 Y-5.304 E412.0480 F1350
G0 X76.226 Y-5.305 F4800
G1 X89.344 Y7.813 E412.9018 F1350
G0 X88.778 Y7.813 F4800
G1 X75.659 Y-5.305 E413.7557 F1350
G0 X75.093 Y-5.305 F4800
G1 X88.212 Y7.813 E414.6096 F1350
G0 X87.646 Y7.813 F4800
G1 X74.527 Y-5.306 E415.4635 F1350
G0 X73.961 Y-5.306 F4800
G1 X87.081 Y7.813 E416.3175 F1350
G0 X86.515 Y7.813 F4800
G1 X73.395 Y-5.307 E417.1715 F1350
G0 X72.829 Y-5.307 F4800
G1 X85.949 Y7.813 E418.0255 F1350
G0 X85.384 Y7.813 F4800
G1 X72.263 Y-5.308 E418.8795 F1350
G0 X71.697 Y-5.308 F4800
G1 X84.818 Y7.813 E419.7336 F1350
G0 X84.252 Y7.813 F4800
G1 X71.130 Y-5.309 E420.5877 F1350
G0 X70.564 Y-5.309 F4800
G1 X83.687 Y7.813 E421.4418 F1350
G0 X83.121 Y7.813 F4800
G1 X69.998 Y-5.309 E422.2960 F1350
G0 X69.432 Y-5.310 F4800
G1 X82.555 Y7.813 E423.1501 F1350
G0 X81.990 Y7.813 F4800
G1 X68.866 Y-5.310 E424.0044 F1350
G0 X68.300 Y-5.311 F4800
G1 X81.424 Y7.813 E424.8586 F1350
G0 X80.858 Y7.813 F4800
G1 X67.734 Y-5.311 E425.7129 F1350
G0 X67.167 Y-5.312 F4800
G1 X80.293 Y7.813 E426.5672 F1350
G0 X79.727 Y7.813 F4800
G1 X66.601 Y-5.312 E427.4215 F1350
G0 X66.035 Y-5.313 F4800
G1 X79.161 Y7.813 E428.2759 F1350
G0 X78.596 Y7.813 F4800
G1 X65.469 Y-5.313 E429.1303 F1350
G0 X65.436 Y-4.780 F4800
G1 X78.030 Y7.813 E429.9500 F1350
G0 X77.464 Y7.813 F4800
G1 X65.436 Y-4.214 E430.7329 F1350
G0 X65.436 Y-3.649 F4800
G1 X76.898 Y7.813 E431.4789 F1350
G0 X76.333 Y7.813 F4800
G1 X65.436 Y-3.083 E432.1882 F1350
G0 X65.436 Y-2.517 F4800
G1 X75.767 Y7.813 E432.8606 F1350
G0 X75.201 Y7.813 F4800
G1 X65.436 Y-1.952 E433.4962 F1350
G0 X65.436 Y-1.386 F4800
G1 X74.636 Y7.813 E434.0950 F1350
G0 X74.070 Y7.813 F4800
G1 X65.436 Y-0.820 E434.6569 F1350
G0 X65.436 Y-0.254 F4800
G1 X73.504 Y7.813 E435.1821 F1350
G0 X72.939 Y7.813 F4800
G1 X65.436 Y0.311 E435.6704 F1350
G0 X65.436 Y0.877 F4800
G1 X72.373 Y7.813 E436.1219 F1350
G0 X71.807 Y7.813 F4800
G1 X65.436 Y1.443 E436.5366 F1350
G0 X65.436 Y2.008 F4800
G1 X71.242 Y7.813 E436.9144 F1350
G0 X70.676 Y7.813 F4800
G1 X65.436 Y2.574 E437.2555 F1350
G0 X64.983 Y2.686 F4800
G1 X70.110 Y7.813 E437.5892 F1350
G0 X69.545 Y7.813 F4800
G1 X64.418 Y2.686 E437.9229 F1350
G0 X63.852 Y2.686 F4800
G1 X68.979 Y7.813 E438.2566 F1350
G0 X68.413 Y7.814 F4800
G1 X63.286 Y2.686 E438.5903 F1350
G0 X62.721 Y2.686 F4800
G1 X67.848 Y7.813 E438.9240 F1350
G0 X67.282 Y7.813 F4800
G1 X62.155 Y2.686 E439.2577 F1350
G0 X61.589 Y2.686 F4800
G1 X66.716 Y7.814 E439.5914 F1350
G0 X66.151 Y7.814 F4800
G1 X53.023 Y-5.314 E440.4459 F1350
G0 X52.458 Y-5.314 F4800
G1 X65.585 Y7.814 E441.3003 F1350
G0 X65.019 Y7.814 F4800
G1 X51.892 Y-5.314 E442.1547 F1350
G0 X51.326 Y-5.314 F4800
G1 X64.453 Y7.814 E443.0091 F1350
G0 X63.888 Y7.814 F4800
G1 X50.761 Y-5.314 E443.8636 F1350
G0 X50.195 Y-5.314 F4800
G1 X63.322 Y7.814 E444.7180 F1350
G0 X62.756 Y7.814 F4800
G1 X49.629 Y-5.314 E445.5724 F1350
G0 X49.064 Y-5.314 F4800
G1 X62.191 Y7.814 E446.4269 F1350
G0 X61.625 Y7.814 F4800
G1 X48.498 Y-5.314 E447.2813 F1350
G0 X47.932 Y-5.314 F4800
G1 X61.059 Y7.814 E448.1357 F1350
G0 X60.494 Y7.814 F4800
G1 X47.367 Y-5.314 E448.9902 F1350
G0 X46.801 Y-5.314 F4800
G1 X59.928 Y7.814 E449.8446 F1350
G0 X59.362 Y7.814 F4800
G1 X46.235 Y-5.314 E450.6990 F1350
G0 X45.669 Y-5.314 F4800
G1 X59.064 Y8.080 E451.5709 F1350
G0 X59.064 Y8.646 F4800
G1 X45.104 Y-5.314 E452.4795 F1350
G0 X44.538 Y-5.314 F4800
G1 X59.064 Y9.212 E453.4250 F1350
G0 X59.064 Y9.778 F4800
G1 X43.972 Y-5.314 E454.4072 F1350
G0 X43.407 Y-5.314 F4800
G1 X59.064 Y10.343 E455.4263 F1350
G0 X59.064 Y10.909 F4800
G1 X42.841 Y-5.314 E456.4822 F1350
G0 X42.275 Y-5.314 F4800
G1 X59.064 Y11.475 E457.5750 F1350
G0 X59.064 Y12.040 F4800
G1 X41.710 Y-5.314 E458.7045 F1350
G0 X53.589 Y-5.314 F4800
G1 X61.063 Y2.161 E459.1910 F1350
G0 X61.063 Y1.595 F4800
G1 X54.155 Y-5.314 E459.6407 F1350
G0 X54.720 Y-5.314 F4800
G1 X61.063 Y1.029 E460.0536 F1350
G0 X61.063 Y0.464 F4800
G1 X55.286 Y-5.314 E460.4296 F1350
G0 X55.852 Y-5.314 F4800
G1 X61.063 Y-0.102 E460.7689 F1350
G0 X61.063 Y-0.668 F4800
G1 X56.417 Y-5.314 E461.0713 F1350
G0 X56.983 Y-5.314 F4800
G1 X61.063 Y-1.233 E461.3368 F1350
G0 X61.063 Y-1.799 F4800
G1 X57.549 Y-5.314 E461.5656 F1350
G0 X58.115 Y-5.314 F4800
G1 X61.063 Y-2.365 E461.7576 F1350
G0 X61.063 Y-2.930 F4800
G1 X58.680 Y-5.314 E461.9127 F1350
G0 X59.246 Y-5.314 F4800
G1 X61.063 Y-3.496 E462.0310 F1350
G0 X61.063 Y-4.062 F4800
G1 X59.812 Y-5.314 E462.1125 F1350
G0 X60.377 Y-5.314 F4800
G1 X61.063 Y-4.627 E462.1572 F1350
G0 X56.250 Y-5.602 F4800
G0 X-3.061 Y-5.602
G0 X-3.061 Y-15.898
G0 X-1.061 Y-15.898
G0 X-1.061 Y-17.201
G0 X-1.061 Y-17.201
G0 X-1.362 Y-17.262
G0 X-1.349 Y-17.259
G1 X-1.903 Y-17.813 E462.1932 F1350
G0 X-2.469 Y-17.813 F4800
G1 X-1.349 Y-16.694 E462.2661 F1350
G0 X-1.407 Y-16.187 F4800
G1 X-3.034 Y-17.813 E462.3720 F1350
G0 X-3.600 Y-17.813 F4800
G1 X-1.973 Y-16.187 E462.4779 F1350
G0 X-2.539 Y-16.187 F4800
G1 X-4.166 Y-17.813 E462.5838 F1350
G0 X-4.731 Y-17.813 F4800
G1 X-3.104 Y-16.187 E462.6897 F1350
G0 X-3.349 Y-15.865 F4800
G1 X-5.297 Y-17.813 E462.8165 F1350
G0 X-5.863 Y-17.813 F4800
G1 X-3.349 Y-15.300 E462.9801 F1350
G0 X-3.349 Y-14.734 F4800
G1 X-6.428 Y-17.813 E463.1805 F1350
G0 X-6.994 Y-17.813 F4800
G1 X-3.349 Y-14.168 E463.4178 F1350
G0 X-3.349 Y-13.603 F4800
G1 X-7.560 Y-17.813 E463.6919 F1350
G0 X-8.125 Y-17.813 F4800
G1 X-3.349 Y-13.037 E464.0027 F1350
G0 X-3.349 Y-12.471 F4800
G1 X-8.691 Y-17.813 E464.3505 F1350
G0 X-9.257 Y-17.813 F4800
G1 X-3.349 Y-11.906 E464.7350 F1350
G0 X-3.349 Y-11.340 F4800
G1 X-9.822 Y-17.813 E465.1564 F1350
G0 X-10.388 Y-17.813 F4800
G1 X-3.349 Y-10.774 E465.6146 F1350
G0 X-3.349 Y-10.209 F4800
G1 X-10.954 Y-17.813 E466.1096 F1350
G0 X-11.520 Y-17.813 F4800
G1 X-3.349 Y-9.643 E466.6414 F1350
G0 X-3.349 Y-9.077 F4800
G1 X-12.085 Y-17.813 E467.2100 F1350
G0 X-12.476 Y-16.507 F4800
G1 X-12.200 Y-16.231 E467.2280 F1350
G0 X-11.608 Y-16.205 F4800
G1 X-12.476 Y-17.073 E467.2845 F1350
G0 X-12.476 Y-17.638 F4800
G1 X-11.016 Y-16.179 E467.3795 F1350
G0 X-10.476 Y-15.638 F4800
G1 X-3.349 Y-8.512 E467.8434 F1350
G0 X-3.349 Y-7.946 F4800
G1 X-10.476 Y-15.073 E468.3073 F1350
G0 X-10.476 Y-14.507 F4800
G1 X-3.349 Y-7.380 E468.7712 F1350
G0 X-3.349 Y-6.814 F4800
G1 X-10.476 Y-13.941 E469.2351 F1350
G0 X-10.476 Y-13.376 F4800
G1 X-3.349 Y-6.249 E469.6990 F1350
G0 X-3.349 Y-5.683 F4800
G1 X-10.476 Y-12.810 E470.1629 F1350
G0 X-10.476 Y-12.244 F4800
G1 X19.582 Y17.813 E472.1193 F1350
G0 X19.016 Y17.813 F4800
G1 X-10.476 Y-11.679 E474.0389 F1350
G0 X-10.476 Y-11.113 F4800
G1 X18.451 Y17.813 E475.9217 F1350
G0 X17.885 Y17.813 F4800
G1 X-10.476 Y-10.547 E477.7677 F1350
G0 X-10.476 Y-9.982 F4800
G1 X17.319 Y17.813 E479.5769 F1350
G0 X16.753 Y17.813 F4800
G1 X-10.476 Y-9.416 E481.3492 F1350
G0 X-10.476 Y-8.850 F4800
G1 X16.188 Y17.813 E483.0848 F1350
G0 X15.622 Y17.813 F4800
G1 X-10.476 Y-8.285 E484.7835 F1350
G0 X-10.476 Y-7.719 F4800
G1 X15.056 Y17.813 E486.4454 F1350
G0 X14.491 Y17.813 F4800
G1 X-10.476 Y-7.153 E488.0704 F1350
G0 X-10.476 Y-6.587 F4800
G1 X13.925 Y17.813 E489.6587 F1350
G0 X13.359 Y17.813 F4800
G1 X-10.476 Y-6.022 E491.2101 F1350
G0 X-10.476 Y-5.456 F4800
G1 X12.794 Y17.813 E492.7247 F1350
G0 X12.228 Y17.813 F4800
G1 X-10.899 Y-5.314 E494.2301 F1350
G0 X-11.465 Y-5.314 F4800
G1 X11.662 Y17.813 E495.7354 F1350
G0 X11.097 Y17.813 F4800
G1 X-12.030 Y-5.314 E497.2407 F1350
G0 X-12.596 Y-5.314 F4800
G1 X10.531 Y17.813 E498.7461 F1350
G0 X9.965 Y17.813 F4800
G1 X-13.162 Y-5.314 E500.2514 F1350
G0 X-13.727 Y-5.314 F4800
G1 X9.400 Y17.813 E501.7568 F1350
G0 X8.834 Y17.814 F4800
G1 X-14.293 Y-5.314 E503.2621 F1350
G0 X-14.859 Y-5.314 F4800
G1 X8.268 Y17.813 E504.7675 F1350
G0 X7.703 Y17.814 F4800
G1 X-15.424 Y-5.314 E506.2728 F1350
G0 X-15.990 Y-5.314 F4800
G1 X7.137 Y17.814 E507.7781 F1350
G0 X6.571 Y17.814 F4800
G1 X-16.556 Y-5.314 E509.2835 F1350
G0 X-17.122 Y-5.314 F4800
G1 X-13.995 Y-2.187 E509.4870 F1350
G0 X-14.560 Y-2.187 F4800
G1 X-17.687 Y-5.314 E509.6905 F1350
G0 X-18.253 Y-5.314 F4800
G1 X-15.126 Y-2.187 E509.8940 F1350
G0 X-15.692 Y-2.187 F4800
G1 X-18.819 Y-5.314 E510.0976 F1350
G0 X-19.384 Y-5.314 F4800
G1 X-16.257 Y-2.187 E510.3011 F1350
G0 X-16.823 Y-2.187 F4800
G1 X-19.950 Y-5.314 E510.5046 F1350
G0 X-20.516 Y-5.314 F4800
G1 X-17.389 Y-2.187 E510.7081 F1350
G0 X-17.954 Y-2.187 F4800
G1 X-21.081 Y-5.314 E510.9116 F1350
G0 X-21.647 Y-5.314 F4800
G1 X-18.520 Y-2.187 E511.1152 F1350
G0 X-19.086 Y-2.187 F4800
G1 X-22.213 Y-5.314 E511.3187 F1350
G0 X-22.778 Y-5.314 F4800
G1 X-19.651 Y-2.187 E511.5222 F1350
G0 X-20.217 Y-2.187 F4800
G1 X-23.344 Y-5.314 E511.7257 F1350
G0 X-23.910 Y-5.314 F4800
G1 X-20.783 Y-2.187 E511.9293 F1350
G0 X-21.349 Y-2.187 F4800
G1 X-24.475 Y-5.314 E512.1328 F1350
G0 X-25.041 Y-5.314 F4800
G1 X-21.914 Y-2.187 E512.3363 F1350
G0 X-22.480 Y-2.187 F4800
G1 X-25.607 Y-5.314 E512.5399 F1350
G0 X-26.173 Y-5.314 F4800
G1 X-23.046 Y-2.187 E512.7434 F1350
G0 X-23.611 Y-2.187 F4800
G1 X-26.738 Y-5.314 E512.9470 F1350
G0 X-27.304 Y-5.314 F4800
G1 X-24.177 Y-2.187 E513.1505 F1350
G0 X-24.743 Y-2.187 F4800
G1 X-27.870 Y-5.314 E513.3541 F1350
G0 X-28.435 Y-5.314 F4800
G1 X-25.308 Y-2.187 E513.5576 F1350
G0 X-25.874 Y-2.187 F4800
G1 X-29.001 Y-5.314 E513.7612 F1350
G0 X-29.567 Y-5.314 F4800
G1 X-26.440 Y-2.187 E513.9647 F1350
G0 X-27.005 Y-2.187 F4800
G1 X-30.132 Y-5.314 E514.1683 F1350
G0 X-30.698 Y-5.314 F4800
G1 X-27.571 Y-2.187 E514.3719 F1350
G0 X-28.137 Y-2.187 F4800
G1 X-31.264 Y-5.314 E514.5754 F1350
G0 X-31.829 Y-5.314 F4800
G1 X-28.702 Y-2.187 E514.7790 F1350
G0 X-29.268 Y-2.187 F4800
G1 X-32.395 Y-5.314 E514.9825 F1350
G0 X-32.961 Y-5.314 F4800
G1 X-29.834 Y-2.187 E515.1861 F1350
G0 X-30.349 Y-2.136 F4800
G1 X-33.526 Y-5.314 E515.3929 F1350
G0 X-34.092 Y-5.314 F4800
G1 X-30.349 Y-1.570 E515.6366 F1350
G0 X-30.349 Y-1.005 F4800
G1 X-34.658 Y-5.314 E515.9170 F1350
G0 X-35.223 Y-5.314 F4800
G1 X-30.349 Y-0.439 E516.2343 F1350
G0 X-30.349 Y0.127 F4800
G1 X-35.789 Y-5.314 E516.5884 F1350
G0 X-36.355 Y-5.314 F4800
G1 X-30.349 Y0.692 E516.9793 F1350
G0 X-30.349 Y1.258 F4800
G1 X-36.921 Y-5.314 E517.4071 F1350
G0 X-37.486 Y-5.314 F4800
G1 X-30.349 Y1.824 E517.8716 F1350
G0 X-30.349 Y2.389 F4800
G1 X-38.052 Y-5.314 E518.3730 F1350
G0 X-38.618 Y-5.314 F4800
G1 X-30.349 Y2.955 E518.9112 F1350
G0 X-30.349 Y3.521 F4800
G1 X-39.183 Y-5.314 E519.4862 F1350
G0 X-39.749 Y-5.314 F4800
G1 X-30.349 Y4.087 E520.0980 F1350
G0 X-30.349 Y4.652 F4800
G1 X-40.315 Y-5.314 E520.7467 F1350
G0 X-40.880 Y-5.314 F4800
G1 X-28.253 Y7.313 E521.5686 F1350
G0 X-28.819 Y7.313 F4800
G1 X-41.446 Y-5.314 E522.3905 F1350
G0 X-42.012 Y-5.314 F4800
G1 X-29.385 Y7.313 E523.2124 F1350
G0 X-29.950 Y7.313 F4800
G1 X-42.577 Y-5.314 E524.0343 F1350
G0 X-43.143 Y-5.314 F4800
G1 X-30.349 Y7.481 E524.8671 F1350
G0 X-30.349 Y8.046 F4800
G1 X-43.709 Y-5.314 E525.7367 F1350
G0 X-44.274 Y-5.314 F4800
G1 X-30.349 Y8.612 E526.6431 F1350
G0 X-30.349 Y9.178 F4800
G1 X-44.840 Y-5.314 E527.5863 F1350
G0 X-45.406 Y-5.314 F4800
G1 X-30.349 Y9.743 E528.5664 F1350
G0 X-30.349 Y10.309 F4800
G1 X-45.971 Y-5.314 E529.5832 F1350
G0 X-46.537 Y-5.314 F4800
G1 X-39.771 Y1.452 E530.0236 F1350
G0 X-40.341 Y1.448 F4800
G1 X-47.103 Y-5.314 E530.4637 F1350
G0 X-47.669 Y-5.314 F4800
G1 X-40.911 Y1.444 E530.9036 F1350
G0 X-41.480 Y1.440 F4800
G1 X-48.234 Y-5.314 E531.3432 F1350
G0 X-48.800 Y-5.314 F4800
G1 X-42.050 Y1.436 E531.7826 F1350
G0 X-42.429 Y1.623 F4800
G1 X-49.366 Y-5.314 E532.2341 F1350
G0 X-49.931 Y-5.314 F4800
G1 X-42.636 Y1.982 E532.7089 F1350
G0 X-42.843 Y2.340 F4800
G1 X-50.497 Y-5.314 E533.2071 F1350
G0 X-51.063 Y-5.314 F4800
G1 X-43.050 Y2.699 E533.7287 F1350
G0 X-43.257 Y3.058 F4800
G1 X-51.628 Y-5.314 E534.2735 F1350
G0 X-52.194 Y-5.314 F4800
G1 X-43.464 Y3.416 E534.8418 F1350
G0 X-43.632 Y3.814 F4800
G1 X-52.760 Y-5.314 E535.4359 F1350
G0 X-53.325 Y-5.314 F4800
G1 X-42.859 Y5.152 E536.1171 F1350
G0 X-42.515 Y5.172 F4800
G0 X-42.168 Y5.773
G0 X-39.832 Y5.773
G0 X-39.582 Y5.340
G0 X-39.582 Y5.340
G0 X-39.246 Y5.359
G0 X-39.259 Y5.358
G1 X-30.349 Y14.269 E536.6970 F1350
G0 X-30.349 Y13.703 F4800
G1 X-39.052 Y5.000 E537.2636 F1350
G0 X-38.845 Y4.641 F4800
G1 X-30.349 Y13.137 E537.8166 F1350
G0 X-30.349 Y12.572 F4800
G1 X-38.638 Y4.282 E538.3562 F1350
G0 X-38.431 Y3.924 F4800
G1 X-30.349 Y12.006 E538.8822 F1350
G0 X-30.349 Y11.440 F4800
G1 X-38.729 Y3.060 E539.4277 F1350
G0 X-29.815 Y5.186 F4800
G1 X-27.688 Y7.313 E539.5661 F1350
G0 X-27.122 Y7.313 F4800
G1 X-29.249 Y5.186 E539.7046 F1350
G0 X-28.683 Y5.186 F4800
G1 X-26.556 Y7.313 E539.8430 F1350
G0 X-25.991 Y7.313 F4800
G1 X-28.118 Y5.186 E539.9814 F1350
G0 X-27.552 Y5.186 F4800
G1 X-25.425 Y7.313 E540.1198 F1350
G0 X-24.859 Y7.313 F4800
G1 X-26.986 Y5.186 E540.2583 F1350
G0 X-26.421 Y5.186 F4800
G1 X-24.294 Y7.313 E540.3967 F1350
G0 X-23.728 Y7.313 F4800
G1 X-25.855 Y5.186 E540.5351 F1350
G0 X-25.289 Y5.186 F4800
G1 X-23.162 Y7.313 E540.6735 F1350
G0 X-22.596 Y7.313 F4800
G1 X-24.723 Y5.186 E540.8120 F1350
G0 X-24.158 Y5.186 F4800
G1 X-22.031 Y7.313 E540.9504 F1350
G0 X-21.465 Y7.313 F4800
G1 X-23.592 Y5.186 E541.0888 F1350
G0 X-23.026 Y5.186 F4800
G1 X-20.899 Y7.313 E541.2273 F1350
G0 X-20.334 Y7.313 F4800
G1 X-22.461 Y5.186 E541.3657 F1350
G0 X-21.895 Y5.186 F4800
G1 X-19.768 Y7.313 E541.5041 F1350
G0 X-19.202 Y7.313 F4800
G1 X-21.329 Y5.186 E541.6425 F1350
G0 X-20.764 Y5.186 F4800
G1 X-18.637 Y7.313 E541.7810 F1350
G0 X-18.071 Y7.313 F4800
G1 X-20.198 Y5.186 E541.9194 F1350
G0 X-19.632 Y5.186 F4800
G1 X-17.505 Y7.313 E542.0578 F1350
G0 X-16.940 Y7.313 F4800
G1 X-19.067 Y5.186 E542.1963 F1350
G0 X-18.501 Y5.186 F4800
G1 X-16.374 Y7.313 E542.3347 F1350
G0 X-15.808 Y7.313 F4800
G1 X-17.935 Y5.186 E542.4731 F1350
G0 X-17.370 Y5.186 F4800
G1 X-15.243 Y7.313 E542.6115 F1350
G0 X-14.677 Y7.313 F4800
G1 X-16.804 Y5.186 E542.7500 F1350
G0 X-16.238 Y5.186 F4800
G1 X-13.992 Y7.432 E542.8961 F1350
G0 X-14.797 Y7.602 F4800
G0 X-30.061 Y7.602
G0 X-30.061 Y10.814
G0 X-30.061 Y10.814
G0 X-30.362 Y10.877
G0 X-30.349 Y10.875
G1 X-39.502 Y1.722 E543.4919 F1350
G0 X-39.796 Y1.789 F4800
G0 X-39.824 Y1.740
G0 X-42.154 Y1.724
G0 X-42.556 Y2.419
G0 X-42.556 Y2.419
G0 X-45.962 Y3.197
G0 X-45.949 Y3.194
G1 X-31.330 Y17.813 E544.4435 F1350
G0 X-31.895 Y17.813 F4800
G1 X-45.744 Y3.965 E545.3449 F1350
G0 X-45.951 Y4.324 F4800
G1 X-32.461 Y17.813 E546.2229 F1350
G0 X-33.027 Y17.813 F4800
G1 X-46.158 Y4.682 E547.0776 F1350
G0 X-46.365 Y5.041 F4800
G1 X-33.593 Y17.813 E547.9090 F1350
G0 X-34.158 Y17.813 F4800
G1 X-46.572 Y5.400 E548.7169 F1350
G0 X-46.779 Y5.758 F4800
G1 X-34.724 Y17.813 E549.5016 F1350
G0 X-35.290 Y17.813 F4800
G1 X-47.291 Y5.812 E550.2828 F1350
G0 X-47.857 Y5.812 F4800
G1 X-35.855 Y17.813 E551.0640 F1350
G0 X-36.421 Y17.813 F4800
G1 X-48.423 Y5.812 E551.8452 F1350
G0 X-48.988 Y5.812 F4800
G1 X-36.987 Y17.813 E552.6264 F1350
G0 X-37.552 Y17.813 F4800
G1 X-60.679 Y-5.314 E554.1317 F1350
G0 X-61.245 Y-5.314 F4800
G1 X-53.983 Y1.949 E554.6044 F1350
G0 X-54.552 Y1.945 F4800
G1 X-61.811 Y-5.314 E555.0769 F1350
G0 X-62.376 Y-5.314 F4800
G1 X-55.122 Y1.941 E555.5490 F1350
G0 X-55.691 Y1.937 F4800
G1 X-62.942 Y-5.314 E556.0210 F1350
G0 X-63.508 Y-5.314 F4800
G1 X-56.116 Y2.079 E556.5021 F1350
G0 X-56.325 Y2.435 F4800
G1 X-64.073 Y-5.314 E557.0064 F1350
G0 X-64.639 Y-5.314 F4800
G1 X-56.534 Y2.792 E557.5340 F1350
G0 X-56.743 Y3.148 F4800
G1 X-65.205 Y-5.314 E558.0847 F1350
G0 X-65.770 Y-5.314 F4800
G1 X-56.952 Y3.505 E558.6587 F1350
G0 X-56.826 Y4.197 F4800
G1 X-66.336 Y-5.314 E559.2777 F1350
G0 X-66.902 Y-5.314 F4800
G1 X-56.081 Y5.507 E559.9821 F1350
; ------------------------------------
; Layer #1
; ------------------------------------
M106 S0 ;turn off fan
G21 ; mm
G90 ; abs
G92 E0 ;reset extr
G0 F4200 E-5.0000
G0 F4800 Z1.750
G0 X-48.175 Y5.204
G0 X-42.904 Y5.001
G0 X-40.268 Y4.900
G0 X-29.727 Y4.495
G0 X-27.091 Y4.394
G0 X59.877 Y1.053
G0 X62.513 Y0.952
G0 X65.148 Y0.850
G0 Z0.750
G0 F4200 E0.0000
;segType:Loop
G1 X65.148 Y-5.512 E0.2509 F2400
G1 X65.171 Y-5.602 E0.2546
G1 X99.352 Y-5.602 E1.6025
G1 X99.352 Y8.102 E2.1429
G1 X59.352 Y8.102 E3.7203
G1 X59.352 Y11.898 E3.8700
G1 X99.352 Y11.898 E5.4475
G1 X99.352 Y18.102 E5.6921
G1 X-99.352 Y18.102 E13.5281
G1 X-99.352 Y-5.602 E14.4629
G1 X-10.764 Y-5.602 E17.9564
G1 X-10.764 Y-15.898 E18.3625
G1 X-12.764 Y-15.898 E18.4414
G1 X-12.764 Y-18.102 E18.5282
G1 X-1.061 Y-18.102 E18.9898
G1 X-1.061 Y-15.898 E19.0766
G1 X-3.061 Y-15.898 E19.1555
G1 X-3.061 Y-5.602 E19.5616
G1 X61.286 Y-5.602 E22.0991
G1 X61.352 Y-5.512 E22.1035
G1 X61.352 Y2.398 E22.4155
G1 X65.148 Y2.398 E22.5652
G1 X65.148 Y1.050 E22.6131
;segType:Perimeter
G0 X64.700 Y2.090 F4800
G1 X64.700 Y1.890 E22.6201 F1200
G1 X64.700 Y-6.027 E22.8989
G1 X65.127 Y-6.050 E22.9139
G1 X99.800 Y-6.050 E24.1348
G1 X99.800 Y8.550 E24.6488
G1 X59.800 Y8.550 E26.0573
G1 X59.800 Y11.450 E26.1594
G1 X99.800 Y11.450 E27.5678
G1 X99.800 Y18.550 E27.8178
G1 X-99.800 Y18.550 E34.8458
G1 X-99.800 Y-6.050 E35.7119
G1 X-11.212 Y-6.050 E38.8312
G1 X-11.212 Y-15.450 E39.1622
G1 X-13.212 Y-15.450 E39.2326
G1 X-13.212 Y-18.550 E39.3417
G1 X-0.613 Y-18.550 E39.7853
G1 X-0.613 Y-15.450 E39.8945
G1 X-2.613 Y-15.450 E39.9649
G1 X-2.613 Y-6.050 E40.2959
G1 X61.511 Y-6.050 E42.5538
G1 X61.800 Y-6.030 E42.5639
G1 X61.800 Y1.950 E42.8449
G1 X64.640 Y1.950 E42.9449
G0 X64.840 Y1.950 F4800
;segType:Loop
G0 X-15.312 Y4.898
G1 X-30.061 Y4.898 E43.5266 F2400
G1 X-30.061 Y-1.899 E43.7946
G1 X-13.764 Y-1.899 E44.4373
G1 X-13.764 Y4.898 E44.7053
G1 X-15.112 Y4.898 E44.7532
;segType:Perimeter
G0 X-14.272 Y4.450 F4800
G1 X-29.613 Y4.450 E45.2934 F1200
G1 X-29.613 Y-1.451 E45.5011
G1 X-14.212 Y-1.451 E46.0434
G1 X-14.212 Y4.390 E46.2491
G0 X-14.212 Y4.590 F4800
G0 X-14.246 Y4.898
G0 X-14.550 Y7.602
G0 X-14.550 Y7.602
G0 X-13.764 Y7.602
G0 X-13.764 Y14.398
G0 X-15.312 Y14.398
G0 X-15.312 Y14.398
G0 X-15.313 Y14.411
;segType:Loop
G0 X-15.312 Y14.398
G1 X-30.061 Y14.398 E46.8307 F2400
G1 X-30.061 Y7.602 E47.0988
G1 X-13.764 Y7.602 E47.7414
G1 X-13.764 Y14.398 E48.0095
G1 X-15.112 Y14.398 E48.0573
;segType:Perimeter
G0 X-14.272 Y13.950 F4800
G1 X-29.613 Y13.950 E48.5975 F1200
G1 X-29.613 Y8.050 E48.8053
G1 X-14.212 Y8.050 E49.3476
G1 X-14.212 Y13.890 E49.5532
G0 X-14.212 Y14.090 F4800
G0 X-28.169 Y7.602
G0 X-39.474 Y2.346
G0 X-39.474 Y2.346
G0 X-40.772 Y1.742
G0 X-40.772 Y1.742
G0 X-40.784 Y1.737
;segType:Loop
G0 X-40.772 Y1.742
G1 X-39.814 Y1.758 E49.5910 F2400
G1 X-38.664 Y3.750 E49.6817
G1 X-39.832 Y5.773 E49.7739
G1 X-42.168 Y5.773 E49.8660
G1 X-43.323 Y3.774 E49.9571
G1 X-42.135 Y1.720 E50.0506
G1 X-40.972 Y1.739 E50.0965
;segType:Perimeter
G0 X-41.819 Y2.174 F4800
G1 X-40.075 Y2.202 E50.1579 F1200
G1 X-39.181 Y3.750 E50.2209
G1 X-40.091 Y5.325 E50.2849
G1 X-41.910 Y5.325 E50.3490
G1 X-42.805 Y3.774 E50.4120
G1 X-41.909 Y2.225 E50.4751
G0 X-41.809 Y2.051 F4800
;segType:Loop
G0 X-47.633 Y1.992
G1 X-46.954 Y2.003 E50.5018 F2400
G1 X-45.967 Y3.775 E50.5818
G1 X-46.976 Y5.524 E50.6614
G1 X-49.024 Y5.524 E50.7422
G1 X-50.037 Y3.769 E50.8221
G1 X-48.996 Y1.971 E50.9040
G1 X-47.833 Y1.989 E50.9499
;segType:Perimeter
G0 X-48.880 Y2.421 F4800
G1 X-48.680 Y2.424 E50.9569 F1200
G1 X-47.220 Y2.447 E51.0084
G1 X-46.482 Y3.771 E51.0617
G1 X-47.235 Y5.076 E51.1148
G1 X-48.765 Y5.076 E51.1686
G1 X-49.519 Y3.769 E51.2217
G1 X-48.770 Y2.475 E51.2744
G0 X-49.450 Y2.756 F4800
G0 X-53.685 Y4.505
G0 X-53.685 Y4.505
G0 X-54.148 Y5.279
G0 X-55.507 Y5.257
G0 X-55.507 Y5.257
G0 X-55.519 Y5.262
;segType:Loop
G0 X-55.507 Y5.257
G1 X-55.899 Y5.251 E51.2899 F2400
G1 X-56.750 Y3.722 E51.3589
G1 X-55.850 Y2.221 E51.4279
G1 X-54.101 Y2.249 E51.4969
G1 X-53.250 Y3.777 E51.5659
G1 X-54.148 Y5.279 E51.6349
G1 X-55.307 Y5.261 E51.6806
;segType:Perimeter
G0 X-54.260 Y4.829 F4800
G1 X-54.460 Y4.826 E51.6877 F1200
G1 X-55.634 Y4.807 E51.7290
G1 X-56.232 Y3.730 E51.7724
G1 X-55.599 Y2.673 E51.8158
G1 X-54.367 Y2.693 E51.8592
G1 X-53.767 Y3.769 E51.9026
G1 X-54.369 Y4.776 E51.9439
G0 X-56.220 Y4.674 F4800
G0 X-87.218 Y2.967
G0 X-87.218 Y2.967
G0 X-87.231 Y2.966
;segType:Loop
G0 X-87.218 Y2.967
G1 X-87.163 Y3.147 E51.9513 F2400
G1 X-87.102 Y3.627 E51.9704
G1 X-87.123 Y4.118 E51.9898
G1 X-87.226 Y4.599 E52.0092
G1 X-87.401 Y5.034 E52.0276
G1 X-87.607 Y5.377 E52.0434
G1 X-87.990 Y5.842 E52.0672
G1 X-88.383 Y6.158 E52.0871
G1 X-88.813 Y6.396 E52.1065
G1 X-89.277 Y6.559 E52.1259
G1 X-89.763 Y6.641 E52.1453
G1 X-90.255 Y6.639 E52.1647
G1 X-90.739 Y6.554 E52.1841
G1 X-91.202 Y6.389 E52.2035
G1 X-91.631 Y6.148 E52.2229
G1 X-92.021 Y5.831 E52.2427
G1 X-92.391 Y5.378 E52.2657
G1 X-92.591 Y5.055 E52.2807
G1 X-92.776 Y4.591 E52.3004
G1 X-92.878 Y4.110 E52.3198
G1 X-92.897 Y3.618 E52.3392
G1 X-92.833 Y3.131 E52.3586
G1 X-92.688 Y2.661 E52.3780
G1 X-92.465 Y2.222 E52.3974
G1 X-92.164 Y1.818 E52.4173
G1 X-91.722 Y1.425 E52.4406
G1 X-91.415 Y1.218 E52.4552
G1 X-90.966 Y1.015 E52.4746
G1 X-90.490 Y0.891 E52.4940
G1 X-90.000 Y0.849 E52.5134
G1 X-89.510 Y0.891 E52.5328
G1 X-89.034 Y1.015 E52.5522
G1 X-88.585 Y1.218 E52.5717
G1 X-88.277 Y1.426 E52.5863
G1 X-87.824 Y1.830 E52.6103
G1 X-87.526 Y2.237 E52.6301
G1 X-87.306 Y2.676 E52.6495
G1 X-87.276 Y2.775 E52.6534
;segType:Perimeter
G0 X-88.232 Y2.014 F4800
G1 X-88.122 Y2.182 E52.6604 F1200
G1 X-87.910 Y2.471 E52.6731
G1 X-87.724 Y2.843 E52.6877
G1 X-87.603 Y3.241 E52.7023
G1 X-87.551 Y3.646 E52.7167
G1 X-87.569 Y4.061 E52.7314
G1 X-87.656 Y4.468 E52.7460
G1 X-87.803 Y4.834 E52.7599
G1 X-87.974 Y5.117 E52.7715
G1 X-88.307 Y5.522 E52.7900
G1 X-88.634 Y5.784 E52.8048
G1 X-88.997 Y5.986 E52.8194
G1 X-89.390 Y6.123 E52.8340
G1 X-89.800 Y6.192 E52.8487
G1 X-90.215 Y6.191 E52.8633
G1 X-90.624 Y6.120 E52.8779
G1 X-91.016 Y5.980 E52.8926
G1 X-91.378 Y5.776 E52.9072
G1 X-91.704 Y5.512 E52.9220
G1 X-92.026 Y5.118 E52.9399
G1 X-92.189 Y4.853 E52.9508
G1 X-92.345 Y4.461 E52.9657
G1 X-92.432 Y4.054 E52.9803
G1 X-92.448 Y3.639 E52.9950
G1 X-92.394 Y3.227 E53.0096
G1 X-92.271 Y2.829 E53.0243
G1 X-92.083 Y2.459 E53.0389
G1 X-91.833 Y2.123 E53.0536
G1 X-91.447 Y1.780 E53.0718
G1 X-91.196 Y1.610 E53.0825
G1 X-90.817 Y1.439 E53.0971
G1 X-90.414 Y1.334 E53.1118
G1 X-90.000 Y1.299 E53.1264
G1 X-89.586 Y1.334 E53.1411
G1 X-89.183 Y1.439 E53.1557
G1 X-88.804 Y1.610 E53.1703
G1 X-88.553 Y1.780 E53.1810
G1 X-88.203 Y2.093 E53.1976
G0 X-88.046 Y2.218 F4800
G0 X-88.056 Y2.272
G0 X-87.910 Y2.471
G0 X-87.724 Y2.843
G0 X-87.603 Y3.241
G0 X-87.551 Y3.646
G0 X-87.569 Y4.061
G0 X-87.656 Y4.468
G0 X-87.803 Y4.834
G0 X-87.974 Y5.117
G0 X-88.307 Y5.522
G0 X-88.634 Y5.784
G0 X-88.703 Y5.823
G0 X-88.703 Y5.823
G0 X-88.868 Y6.733
;segType:HShell
G0 X-88.866 Y6.720
G1 X-99.064 Y16.917 E53.7507 F1800
G0 X-99.064 Y16.352 F4800
G1 X-89.620 Y6.909 E54.2629 F1800
G0 X-90.205 Y6.927 F4800
G1 X-99.064 Y15.786 E54.7434 F1800
G0 X-99.064 Y15.220 F4800
G1 X-90.697 Y6.854 E55.1972 F1800
G0 X-91.130 Y6.721 F4800
G1 X-99.064 Y14.655 E55.6276 F1800
G0 X-99.064 Y14.089 F4800
G1 X-91.517 Y6.543 E56.0369 F1800
G0 X-91.867 Y6.327 F4800
G1 X-99.064 Y13.523 E56.4272 F1800
G0 X-99.064 Y12.958 F4800
G1 X-92.180 Y6.074 E56.8006 F1800
G0 X-92.443 Y5.771 F4800
G1 X-99.064 Y12.392 E57.1597 F1800
G0 X-99.064 Y11.826 F4800
G1 X-92.686 Y5.449 E57.5056 F1800
G0 X-92.889 Y5.086 F4800
G1 X-99.064 Y11.261 E57.8406 F1800
G0 X-99.064 Y10.695 F4800
G1 X-93.050 Y4.681 E58.1668 F1800
G0 X-93.150 Y4.215 F4800
G1 X-99.064 Y10.129 E58.4875 F1800
G0 X-99.064 Y9.564 F4800
G1 X-93.183 Y3.683 E58.8065 F1800
G0 X-93.107 Y3.042 F4800
G1 X-99.064 Y8.998 E59.1296 F1800
G0 X-99.064 Y8.432 F4800
G1 X-92.721 Y2.089 E59.4736 F1800
G0 X-98.894 Y-5.314 F4800
G1 X-99.064 Y-5.144 E59.4828 F1800
G0 X-99.064 Y-4.579 F4800
G1 X-98.329 Y-5.314 E59.5227 F1800
G0 X-97.763 Y-5.314 F4800
G1 X-99.064 Y-4.013 E59.5932 F1800
G0 X-99.064 Y-3.447 F4800
G1 X-97.197 Y-5.314 E59.6944 F1800
G0 X-96.632 Y-5.314 F4800
G1 X-99.064 Y-2.882 E59.8264 F1800
G0 X-99.064 Y-2.316 F4800
G1 X-96.066 Y-5.314 E59.9889 F1800
G0 X-95.500 Y-5.314 F4800
G1 X-99.064 Y-1.750 E60.1822 F1800
G0 X-99.064 Y-1.184 F4800
G1 X-94.934 Y-5.314 E60.4062 F1800
G0 X-94.369 Y-5.314 F4800
G1 X-99.064 Y-0.619 E60.6608 F1800
G0 X-99.064 Y-0.053 F4800
G1 X-93.803 Y-5.314 E60.9462 F1800
G0 X-93.237 Y-5.314 F4800
G1 X-99.064 Y0.513 E61.2622 F1800
G0 X-99.064 Y1.078 F4800
G1 X-92.672 Y-5.314 E61.6089 F1800
G0 X-92.106 Y-5.314 F4800
G1 X-99.064 Y1.644 E61.9863 F1800
G0 X-99.064 Y2.210 F4800
G1 X-91.540 Y-5.314 E62.3943 F1800
G0 X-90.975 Y-5.314 F4800
G1 X-99.064 Y2.775 E62.8331 F1800
G0 X-99.064 Y3.341 F4800
G1 X-90.409 Y-5.314 E63.3025 F1800
G0 X-89.843 Y-5.314 F4800
G1 X-99.064 Y3.907 E63.8026 F1800
G0 X-99.064 Y4.472 F4800
G1 X-89.278 Y-5.314 E64.3334 F1800
G0 X-88.712 Y-5.314 F4800
G1 X-99.064 Y5.038 E64.8949 F1800
G0 X-99.064 Y5.604 F4800
G1 X-88.146 Y-5.314 E65.4871 F1800
G0 X-87.581 Y-5.314 F4800
G1 X-99.064 Y6.169 E66.1100 F1800
G0 X-99.064 Y6.735 F4800
G1 X-87.015 Y-5.314 E66.7635 F1800
G0 X-86.449 Y-5.314 F4800
G1 X-99.064 Y7.301 E67.4477 F1800
G0 X-99.064 Y7.866 F4800
G1 X-85.884 Y-5.314 E68.1626 F1800
G0 X-85.318 Y-5.314 F4800
G1 X-91.681 Y1.050 E68.5078 F1800
G0 X-90.718 Y0.653 F4800
G1 X-84.752 Y-5.314 E68.8314 F1800
G0 X-84.186 Y-5.314 F4800
G1 X-90.066 Y0.566 E69.1503 F1800
G0 X-89.534 Y0.600 F4800
G1 X-83.621 Y-5.314 E69.4710 F1800
G0 X-83.055 Y-5.314 F4800
G1 X-89.075 Y0.706 E69.7976 F1800
G0 X-88.667 Y0.864 F4800
G1 X-82.489 Y-5.314 E70.1327 F1800
G0 X-81.924 Y-5.314 F4800
G1 X-88.300 Y1.063 E70.4785 F1800
G0 X-87.978 Y1.307 F4800
G1 X-81.358 Y-5.314 E70.8376 F1800
G0 X-80.792 Y-5.314 F4800
G1 X-87.679 Y1.574 E71.2112 F1800
G0 X-87.426 Y1.886 F4800
G1 X-80.227 Y-5.314 E71.6017 F1800
G0 X-79.661 Y-5.314 F4800
G1 X-87.206 Y2.232 E72.0109 F1800
G0 X-87.023 Y2.615 F4800
G1 X-79.095 Y-5.314 E72.4410 F1800
G0 X-78.530 Y-5.314 F4800
G1 X-86.892 Y3.049 E72.8946 F1800
G0 X-86.822 Y3.545 F4800
G1 X-77.964 Y-5.314 E73.3750 F1800
G0 X-77.398 Y-5.314 F4800
G1 X-86.835 Y4.123 E73.8869 F1800
G0 X-87.030 Y4.884 F4800
G1 X-76.833 Y-5.314 E74.4400 F1800
G0 X-76.267 Y-5.314 F4800
G1 X-99.064 Y17.483 E75.6765 F1800
G0 X-98.828 Y17.813 F4800
G1 X-75.701 Y-5.314 E76.9310 F1800
G0 X-75.135 Y-5.314 F4800
G1 X-98.262 Y17.813 E78.1854 F1800
G0 X-97.697 Y17.813 F4800
G1 X-74.570 Y-5.314 E79.4399 F1800
G0 X-74.004 Y-5.314 F4800
G1 X-97.131 Y17.813 E80.6943 F1800
G0 X-96.565 Y17.813 F4800
G1 X-73.438 Y-5.314 E81.9487 F1800
G0 X-72.873 Y-5.314 F4800
G1 X-96.000 Y17.813 E83.2032 F1800
G0 X-95.434 Y17.813 F4800
G1 X-72.307 Y-5.314 E84.4576 F1800
G0 X-71.741 Y-5.314 F4800
G1 X-94.868 Y17.813 E85.7121 F1800
G0 X-94.303 Y17.813 F4800
G1 X-71.176 Y-5.314 E86.9665 F1800
G0 X-70.610 Y-5.314 F4800
G1 X-93.737 Y17.813 E88.2209 F1800
G0 X-93.171 Y17.813 F4800
G1 X-70.044 Y-5.314 E89.4754 F1800
G0 X-69.479 Y-5.314 F4800
G1 X-92.606 Y17.813 E90.7298 F1800
G0 X-92.040 Y17.813 F4800
G1 X-68.913 Y-5.314 E91.9843 F1800
G0 X-68.347 Y-5.314 F4800
G1 X-91.474 Y17.813 E93.2387 F1800
G0 X-90.909 Y17.813 F4800
G1 X-67.782 Y-5.314 E94.4931 F1800
G0 X-67.216 Y-5.314 F4800
G1 X-90.343 Y17.813 E95.7476 F1800
G0 X-89.777 Y17.813 F4800
G1 X-66.650 Y-5.314 E97.0020 F1800
G0 X-66.084 Y-5.314 F4800
G1 X-89.212 Y17.813 E98.2565 F1800
G0 X-88.646 Y17.813 F4800
G1 X-65.519 Y-5.314 E99.5109 F1800
G0 X-64.953 Y-5.314 F4800
G1 X-88.080 Y17.813 E100.7653 F1800
G0 X-87.514 Y17.813 F4800
G1 X-64.387 Y-5.314 E102.0198 F1800
G0 X-63.822 Y-5.314 F4800
G1 X-86.949 Y17.813 E103.2742 F1800
G0 X-86.383 Y17.813 F4800
G1 X-63.256 Y-5.314 E104.5287 F1800
G0 X-62.690 Y-5.314 F4800
G1 X-85.817 Y17.813 E105.7831 F1800
G0 X-85.252 Y17.813 F4800
G1 X-62.125 Y-5.314 E107.0376 F1800
G0 X-61.559 Y-5.314 F4800
G1 X-84.686 Y17.813 E108.2920 F1800
G0 X-84.120 Y17.813 F4800
G1 X-60.993 Y-5.314 E109.5464 F1800
G0 X-60.428 Y-5.314 F4800
G1 X-83.555 Y17.813 E110.8009 F1800
G0 X-82.989 Y17.813 F4800
G1 X-59.862 Y-5.314 E112.0553 F1800
G0 X-59.296 Y-5.314 F4800
G1 X-82.423 Y17.813 E113.3098 F1800
G0 X-81.858 Y17.813 F4800
G1 X-58.731 Y-5.314 E114.5642 F1800
G0 X-58.165 Y-5.314 F4800
G1 X-81.292 Y17.813 E115.8186 F1800
G0 X-80.726 Y17.813 F4800
G1 X-57.599 Y-5.314 E117.0731 F1800
G0 X-57.034 Y-5.314 F4800
G1 X-80.161 Y17.813 E118.3275 F1800
G0 X-79.595 Y17.813 F4800
G1 X-56.468 Y-5.314 E119.5820 F1800
G0 X-55.902 Y-5.314 F4800
G1 X-79.029 Y17.813 E120.8364 F1800
G0 X-78.463 Y17.813 F4800
G1 X-55.336 Y-5.314 E122.0908 F1800
G0 X-54.771 Y-5.314 F4800
G1 X-77.898 Y17.813 E123.3453 F1800
G0 X-77.332 Y17.813 F4800
G1 X-54.205 Y-5.314 E124.5997 F1800
G0 X-53.639 Y-5.314 F4800
G1 X-76.766 Y17.813 E125.8542 F1800
G0 X-76.201 Y17.813 F4800
G1 X-53.074 Y-5.314 E127.1086 F1800
G0 X-52.508 Y-5.314 F4800
G1 X-75.635 Y17.813 E128.3630 F1800
G0 X-75.069 Y17.813 F4800
G1 X-51.942 Y-5.314 E129.6175 F1800
G0 X-51.377 Y-5.314 F4800
G1 X-74.504 Y17.813 E130.8719 F1800
G0 X-73.938 Y17.813 F4800
G1 X-50.811 Y-5.314 E132.1264 F1800
G0 X-50.245 Y-5.314 F4800
G1 X-73.372 Y17.813 E133.3808 F1800
G0 X-72.807 Y17.813 F4800
G1 X-49.680 Y-5.314 E134.6352 F1800
G0 X-49.114 Y-5.314 F4800
G1 X-72.241 Y17.813 E135.8897 F1800
G0 X-71.675 Y17.813 F4800
G1 X-56.342 Y2.480 E136.7214 F1800
G0 X-48.548 Y-5.314 F4800
G1 X-55.795 Y1.933 E137.1145 F1800
G0 X-55.238 Y1.942 F4800
G1 X-47.983 Y-5.314 E137.5081 F1800
G0 X-47.417 Y-5.314 F4800
G1 X-54.682 Y1.951 E137.9021 F1800
G0 X-54.125 Y1.960 F4800
G1 X-46.851 Y-5.314 E138.2967 F1800
G0 X-46.285 Y-5.314 F4800
G1 X-53.799 Y2.200 E138.7042 F1800
G0 X-53.596 Y2.563 F4800
G1 X-45.720 Y-5.314 E139.1314 F1800
G0 X-45.154 Y-5.314 F4800
G1 X-53.394 Y2.926 E139.5784 F1800
G0 X-53.191 Y3.289 F4800
G1 X-44.588 Y-5.314 E140.0450 F1800
G0 X-44.023 Y-5.314 F4800
G1 X-52.989 Y3.653 E140.5313 F1800
G0 X-53.460 Y4.689 F4800
G1 X-43.457 Y-5.314 E141.0739 F1800
G0 X-42.891 Y-5.314 F4800
G1 X-66.018 Y17.813 E142.3283 F1800
G0 X-65.453 Y17.813 F4800
G1 X-42.326 Y-5.314 E143.5828 F1800
G0 X-41.760 Y-5.314 F4800
G1 X-48.760 Y1.686 E143.9625 F1800
G0 X-48.203 Y1.695 F4800
G1 X-41.194 Y-5.314 E144.3426 F1800
G0 X-40.629 Y-5.314 F4800
G1 X-47.646 Y1.704 E144.7233 F1800
G0 X-47.089 Y1.713 F4800
G1 X-40.063 Y-5.314 E145.1044 F1800
G0 X-39.497 Y-5.314 F4800
G1 X-46.692 Y1.881 E145.4947 F1800
G0 X-46.490 Y2.245 F4800
G1 X-38.932 Y-5.314 E145.9047 F1800
G0 X-38.366 Y-5.314 F4800
G1 X-46.287 Y2.608 E146.3343 F1800
G0 X-46.085 Y2.971 F4800
G1 X-37.800 Y-5.314 E146.7837 F1800
G0 X-37.234 Y-5.314 F4800
G1 X-45.883 Y3.335 E147.2528 F1800
G0 X-45.680 Y3.698 F4800
G1 X-36.669 Y-5.314 E147.7416 F1800
G0 X-36.103 Y-5.314 F4800
G1 X-46.238 Y4.821 E148.2913 F1800
G0 X-43.102 Y2.817 F4800
G1 X-58.099 Y17.813 E149.1048 F1800
G0 X-57.533 Y17.813 F4800
G1 X-43.596 Y3.877 E149.8607 F1800
G0 X-43.389 Y4.235 F4800
G1 X-56.967 Y17.813 E150.5973 F1800
G0 X-56.402 Y17.813 F4800
G1 X-43.182 Y4.594 E151.3143 F1800
G0 X-42.975 Y4.952 F4800
G1 X-55.836 Y17.813 E152.0119 F1800
G0 X-55.270 Y17.813 F4800
G1 X-42.768 Y5.311 E152.6901 F1800
G0 X-42.561 Y5.670 F4800
G1 X-54.705 Y17.813 E153.3487 F1800
G0 X-54.139 Y17.813 F4800
G1 X-42.354 Y6.028 E153.9880 F1800
G0 X-41.821 Y6.062 F4800
G1 X-53.573 Y17.813 E154.6254 F1800
G0 X-53.008 Y17.813 F4800
G1 X-41.256 Y6.062 E155.2629 F1800
G0 X-40.690 Y6.062 F4800
G1 X-52.442 Y17.813 E155.9003 F1800
G0 X-51.876 Y17.813 F4800
G1 X-40.124 Y6.062 E156.5377 F1800
G0 X-39.039 Y4.976 F4800
G1 X-28.749 Y-5.314 E157.0958 F1800
G0 X-29.315 Y-5.314 F4800
G1 X-38.348 Y3.720 E157.5858 F1800
G0 X-38.555 Y3.361 F4800
G1 X-29.881 Y-5.314 E158.0564 F1800
G0 X-30.446 Y-5.314 F4800
G1 X-38.762 Y3.003 E158.5075 F1800
G0 X-38.970 Y2.644 F4800
G1 X-31.012 Y-5.314 E158.9391 F1800
G0 X-31.578 Y-5.314 F4800
G1 X-39.177 Y2.285 E159.3512 F1800
G0 X-39.384 Y1.927 F4800
G1 X-32.143 Y-5.314 E159.7440 F1800
G0 X-32.709 Y-5.314 F4800
G1 X-39.591 Y1.568 E160.1173 F1800
G0 X-40.054 Y1.466 F4800
G1 X-33.275 Y-5.314 E160.4850 F1800
G0 X-33.840 Y-5.314 F4800
G1 X-40.611 Y1.457 E160.8522 F1800
G0 X-41.168 Y1.448 F4800
G1 X-34.406 Y-5.314 E161.2190 F1800
G0 X-34.972 Y-5.314 F4800
G1 X-41.724 Y1.439 E161.5853 F1800
G0 X-42.281 Y1.430 F4800
G1 X-35.537 Y-5.314 E161.9511 F1800
G0 X-28.184 Y-5.314 F4800
G1 X-51.311 Y17.813 E163.2055 F1800
G0 X-50.745 Y17.813 F4800
G1 X-27.618 Y-5.314 E164.4599 F1800
G0 X-27.052 Y-5.314 F4800
G1 X-30.179 Y-2.187 E164.6296 F1800
G0 X-29.613 Y-2.187 F4800
G1 X-26.486 Y-5.314 E164.7992 F1800
G0 X-25.921 Y-5.314 F4800
G1 X-29.048 Y-2.187 E164.9688 F1800
G0 X-28.482 Y-2.187 F4800
G1 X-25.355 Y-5.314 E165.1384 F1800
G0 X-24.789 Y-5.314 F4800
G1 X-27.916 Y-2.187 E165.3080 F1800
G0 X-27.351 Y-2.187 F4800
G1 X-24.224 Y-5.314 E165.4776 F1800
G0 X-23.658 Y-5.314 F4800
G1 X-26.785 Y-2.187 E165.6473 F1800
G0 X-26.219 Y-2.187 F4800
G1 X-23.092 Y-5.314 E165.8169 F1800
G0 X-22.527 Y-5.314 F4800
G1 X-25.654 Y-2.187 E165.9865 F1800
G0 X-25.088 Y-2.187 F4800
G1 X-21.961 Y-5.314 E166.1561 F1800
G0 X-21.395 Y-5.314 F4800
G1 X-24.522 Y-2.187 E166.3257 F1800
G0 X-23.957 Y-2.187 F4800
G1 X-20.830 Y-5.314 E166.4953 F1800
G0 X-20.264 Y-5.314 F4800
G1 X-23.391 Y-2.187 E166.6650 F1800
G0 X-22.825 Y-2.187 F4800
G1 X-19.698 Y-5.314 E166.8346 F1800
G0 X-19.133 Y-5.314 F4800
G1 X-22.260 Y-2.187 E167.0042 F1800
G0 X-21.694 Y-2.187 F4800
G1 X-18.567 Y-5.314 E167.1738 F1800
G0 X-18.001 Y-5.314 F4800
G1 X-21.128 Y-2.187 E167.3434 F1800
G0 X-20.562 Y-2.187 F4800
G1 X-17.436 Y-5.314 E167.5130 F1800
G0 X-16.870 Y-5.314 F4800
G1 X-19.997 Y-2.187 E167.6826 F1800
G0 X-19.431 Y-2.187 F4800
G1 X-16.304 Y-5.314 E167.8523 F1800
G0 X-15.738 Y-5.314 F4800
G1 X-18.865 Y-2.187 E168.0219 F1800
G0 X-18.300 Y-2.187 F4800
G1 X-15.173 Y-5.314 E168.1915 F1800
G0 X-14.607 Y-5.314 F4800
G1 X-17.734 Y-2.187 E168.3611 F1800
G0 X-17.168 Y-2.187 F4800
G1 X-14.041 Y-5.314 E168.5307 F1800
G0 X-13.476 Y-5.314 F4800
G1 X-16.603 Y-2.187 E168.7003 F1800
G0 X-16.037 Y-2.187 F4800
G1 X-12.910 Y-5.314 E168.8700 F1800
G0 X-12.344 Y-5.314 F4800
G1 X-15.471 Y-2.187 E169.0396 F1800
G0 X-14.906 Y-2.187 F4800
G1 X-11.779 Y-5.314 E169.2092 F1800
G0 X-11.213 Y-5.314 F4800
G1 X-14.340 Y-2.187 E169.3788 F1800
G0 X-13.774 Y-2.187 F4800
G1 X-10.647 Y-5.314 E169.5484 F1800
G0 X-30.349 Y-2.017 F4800
G1 X-50.179 Y17.813 E170.6240 F1800
G0 X-49.614 Y17.813 F4800
G1 X-30.349 Y-1.451 E171.6690 F1800
G0 X-30.349 Y-0.885 F4800
G1 X-49.048 Y17.813 E172.6832 F1800
G0 X-48.482 Y17.813 F4800
G1 X-30.349 Y-0.320 E173.6668 F1800
G0 X-30.349 Y0.246 F4800
G1 X-47.916 Y17.813 E174.6197 F1800
G0 X-47.351 Y17.813 F4800
G1 X-30.349 Y0.812 E175.5419 F1800
G0 X-30.349 Y1.377 F4800
G1 X-46.785 Y17.813 E176.4334 F1800
G0 X-46.219 Y17.813 F4800
G1 X-30.349 Y1.943 E177.2943 F1800
G0 X-30.349 Y2.509 F4800
G1 X-45.654 Y17.813 E178.1244 F1800
G0 X-45.088 Y17.813 F4800
G1 X-30.349 Y3.074 E178.9239 F1800
G0 X-30.349 Y3.640 F4800
G1 X-44.522 Y17.813 E179.6927 F1800
G0 X-43.957 Y17.813 F4800
G1 X-30.349 Y4.206 E180.4308 F1800
G0 X-30.349 Y4.771 F4800
G1 X-43.391 Y17.813 E181.1382 F1800
G0 X-42.825 Y17.813 F4800
G1 X-30.198 Y5.186 E181.8231 F1800
G0 X-29.633 Y5.186 F4800
G1 X-42.260 Y17.813 E182.5080 F1800
G0 X-41.694 Y17.813 F4800
G1 X-29.067 Y5.186 E183.1929 F1800
G0 X-28.501 Y5.186 F4800
G1 X-41.128 Y17.813 E183.8778 F1800
G0 X-40.563 Y17.813 F4800
G1 X-30.349 Y7.600 E184.4318 F1800
G0 X-30.349 Y8.165 F4800
G1 X-39.997 Y17.813 E184.9551 F1800
G0 X-39.431 Y17.813 F4800
G1 X-30.349 Y8.731 E185.4477 F1800
G0 X-30.349 Y9.297 F4800
G1 X-38.865 Y17.813 E185.9097 F1800
G0 X-38.300 Y17.813 F4800
G1 X-30.349 Y9.863 E186.3410 F1800
G0 X-30.349 Y10.428 F4800
G1 X-37.734 Y17.813 E186.7416 F1800
G0 X-37.168 Y17.813 F4800
G1 X-30.349 Y10.994 E187.1115 F1800
G0 X-30.349 Y11.560 F4800
G1 X-36.603 Y17.813 E187.4507 F1800
G0 X-36.037 Y17.813 F4800
G1 X-30.349 Y12.125 E187.7592 F1800
G0 X-30.349 Y12.691 F4800
G1 X-35.471 Y17.813 E188.0371 F1800
G0 X-34.906 Y17.813 F4800
G1 X-30.349 Y13.257 E188.2842 F1800
G0 X-30.349 Y13.822 F4800
G1 X-34.340 Y17.813 E188.5007 F1800
G0 X-33.774 Y17.813 F4800
G1 X-30.349 Y14.388 E188.6865 F1800
G0 X-30.082 Y14.687 F4800
G1 X-33.209 Y17.813 E188.8561 F1800
G0 X-32.643 Y17.813 F4800
G1 X-29.516 Y14.687 E189.0257 F1800
G0 X-28.950 Y14.687 F4800
G1 X-32.077 Y17.813 E189.1953 F1800
G0 X-31.512 Y17.813 F4800
G1 X-28.385 Y14.687 E189.3649 F1800
G0 X-27.819 Y14.687 F4800
G1 X-30.946 Y17.813 E189.5345 F1800
G0 X-30.380 Y17.813 F4800
G1 X-27.253 Y14.687 E189.7041 F1800
G0 X-26.688 Y14.687 F4800
G1 X-29.815 Y17.813 E189.8737 F1800
G0 X-29.249 Y17.813 F4800
G1 X-26.122 Y14.687 E190.0433 F1800
G0 X-25.556 Y14.687 F4800
G1 X-28.683 Y17.813 E190.2129 F1800
G0 X-28.117 Y17.813 F4800
G1 X-24.991 Y14.687 E190.3825 F1800
G0 X-24.425 Y14.687 F4800
G1 X-27.552 Y17.813 E190.5521 F1800
G0 X-26.986 Y17.813 F4800
G1 X-23.859 Y14.687 E190.7217 F1800
G0 X-23.294 Y14.687 F4800
G1 X-26.420 Y17.813 E190.8913 F1800
G0 X-25.855 Y17.813 F4800
G1 X-22.728 Y14.687 E191.0609 F1800
G0 X-22.162 Y14.687 F4800
G1 X-25.289 Y17.813 E191.2305 F1800
G0 X-24.723 Y17.813 F4800
G1 X-21.596 Y14.687 E191.4001 F1800
G0 X-21.031 Y14.687 F4800
G1 X-24.158 Y17.813 E191.5697 F1800
G0 X-23.592 Y17.813 F4800
G1 X-20.465 Y14.687 E191.7393 F1800
G0 X-19.899 Y14.687 F4800
G1 X-23.026 Y17.813 E191.9089 F1800
G0 X-22.461 Y17.813 F4800
G1 X-19.334 Y14.687 E192.0785 F1800
G0 X-18.768 Y14.687 F4800
G1 X-21.895 Y17.813 E192.2481 F1800
G0 X-21.329 Y17.813 F4800
G1 X-18.202 Y14.687 E192.4177 F1800
G0 X-17.637 Y14.687 F4800
G1 X-20.764 Y17.813 E192.5873 F1800
G0 X-20.198 Y17.813 F4800
G1 X-17.071 Y14.687 E192.7569 F1800
G0 X-16.505 Y14.687 F4800
G1 X-19.632 Y17.813 E192.9265 F1800
G0 X-19.066 Y17.813 F4800
G1 X-15.940 Y14.687 E193.0961 F1800
G0 X-15.374 Y14.687 F4800
G1 X-18.501 Y17.813 E193.2657 F1800
G0 X-17.935 Y17.813 F4800
G1 X-14.808 Y14.687 E193.4353 F1800
G0 X-14.243 Y14.687 F4800
G1 X-17.369 Y17.813 E193.6049 F1800
G0 X-16.804 Y17.813 F4800
G1 X-13.677 Y14.687 E193.7745 F1800
G0 X-13.476 Y14.485 F4800
G1 X6.323 Y-5.314 E194.8485 F1800
G0 X5.758 Y-5.314 F4800
G1 X-13.476 Y13.920 E195.8917 F1800
G0 X-13.476 Y13.354 F4800
G1 X5.192 Y-5.314 E196.9042 F1800
G0 X4.626 Y-5.314 F4800
G1 X-13.476 Y12.788 E197.8861 F1800
G0 X-13.476 Y12.223 F4800
G1 X4.060 Y-5.314 E198.8373 F1800
G0 X3.495 Y-5.314 F4800
G1 X-13.476 Y11.657 E199.7578 F1800
G0 X-13.476 Y11.091 F4800
G1 X2.929 Y-5.314 E200.6476 F1800
G0 X2.363 Y-5.314 F4800
G1 X-13.476 Y10.526 E201.5067 F1800
G0 X-13.476 Y9.960 F4800
G1 X1.798 Y-5.314 E202.3352 F1800
G0 X1.232 Y-5.314 F4800
G1 X-13.476 Y9.394 E203.1329 F1800
G0 X-13.476 Y8.828 F4800
G1 X0.666 Y-5.314 E203.9000 F1800
G0 X0.101 Y-5.314 F4800
G1 X-13.476 Y8.263 E204.6364 F1800
G0 X-13.476 Y7.697 F4800
G1 X-0.465 Y-5.314 E205.3421 F1800
G0 X-1.031 Y-5.314 F4800
G1 X-13.658 Y7.313 E206.0270 F1800
G0 X-14.223 Y7.313 F4800
G1 X-1.596 Y-5.314 E206.7120 F1800
G0 X-2.162 Y-5.314 F4800
G1 X-14.789 Y7.313 E207.3969 F1800
G0 X-15.355 Y7.313 F4800
G1 X-2.728 Y-5.314 E208.0818 F1800
G0 X6.889 Y-5.314 F4800
G1 X-16.238 Y17.813 E209.3362 F1800
G0 X-15.672 Y17.813 F4800
G1 X7.455 Y-5.314 E210.5906 F1800
G0 X8.020 Y-5.314 F4800
G1 X-15.107 Y17.813 E211.8451 F1800
G0 X-14.541 Y17.813 F4800
G1 X8.586 Y-5.314 E213.0995 F1800
G0 X9.152 Y-5.314 F4800
G1 X-13.975 Y17.813 E214.3540 F1800
G0 X-13.410 Y17.813 F4800
G1 X9.717 Y-5.314 E215.6084 F1800
G0 X10.283 Y-5.314 F4800
G1 X-12.844 Y17.813 E216.8629 F1800
G0 X-12.278 Y17.813 F4800
G1 X10.849 Y-5.313 E218.1173 F1800
G0 X11.414 Y-5.313 F4800
G1 X-11.713 Y17.813 E219.3717 F1800
G0 X-11.147 Y17.813 F4800
G1 X11.980 Y-5.314 E220.6261 F1800
G0 X12.546 Y-5.313 F4800
G1 X-10.581 Y17.813 E221.8806 F1800
G0 X-10.015 Y17.813 F4800
G1 X13.111 Y-5.313 E223.1350 F1800
G0 X13.677 Y-5.313 F4800
G1 X-9.450 Y17.813 E224.3894 F1800
G0 X-8.884 Y17.813 F4800
G1 X14.243 Y-5.313 E225.6438 F1800
G0 X14.808 Y-5.313 F4800
G1 X-8.318 Y17.813 E226.8983 F1800
G0 X-7.753 Y17.813 F4800
G1 X15.374 Y-5.313 E228.1527 F1800
G0 X15.940 Y-5.313 F4800
G1 X-7.187 Y17.813 E229.4071 F1800
G0 X-6.621 Y17.813 F4800
G1 X16.506 Y-5.313 E230.6615 F1800
G0 X17.071 Y-5.313 F4800
G1 X-6.056 Y17.813 E231.9160 F1800
G0 X-5.490 Y17.813 F4800
G1 X17.637 Y-5.313 E233.1704 F1800
G0 X18.203 Y-5.313 F4800
G1 X-4.924 Y17.813 E234.4248 F1800
G0 X-4.359 Y17.813 F4800
G1 X18.768 Y-5.313 E235.6792 F1800
G0 X19.334 Y-5.313 F4800
G1 X-3.793 Y17.813 E236.9337 F1800
G0 X-3.227 Y17.813 F4800
G1 X19.900 Y-5.313 E238.1881 F1800
G0 X20.465 Y-5.313 F4800
G1 X-2.662 Y17.813 E239.4425 F1800
G0 X-2.096 Y17.813 F4800
G1 X21.031 Y-5.313 E240.6969 F1800
G0 X21.597 Y-5.313 F4800
G1 X-1.530 Y17.813 E241.9514 F1800
G0 X-0.965 Y17.813 F4800
G1 X22.162 Y-5.313 E243.2058 F1800
G0 X22.728 Y-5.313 F4800
G1 X-0.399 Y17.813 E244.4602 F1800
G0 X0.167 Y17.813 F4800
G1 X23.294 Y-5.313 E245.7146 F1800
G0 X23.859 Y-5.313 F4800
G1 X0.733 Y17.813 E246.9691 F1800
G0 X1.298 Y17.813 F4800
G1 X24.425 Y-5.313 E248.2235 F1800
G0 X24.991 Y-5.313 F4800
G1 X1.864 Y17.813 E249.4779 F1800
G0 X2.430 Y17.813 F4800
G1 X25.556 Y-5.313 E250.7323 F1800
G0 X26.122 Y-5.313 F4800
G1 X2.995 Y17.813 E251.9868 F1800
G0 X3.561 Y17.813 F4800
G1 X26.688 Y-5.313 E253.2412 F1800
G0 X27.253 Y-5.313 F4800
G1 X4.127 Y17.813 E254.4956 F1800
G0 X4.692 Y17.813 F4800
G1 X27.819 Y-5.313 E255.7500 F1800
G0 X28.385 Y-5.313 F4800
G1 X5.258 Y17.813 E257.0045 F1800
G0 X5.824 Y17.813 F4800
G1 X28.951 Y-5.313 E258.2589 F1800
G0 X29.516 Y-5.313 F4800
G1 X6.389 Y17.813 E259.5133 F1800
G0 X6.955 Y17.813 F4800
G1 X30.082 Y-5.313 E260.7677 F1800
G0 X30.648 Y-5.313 F4800
G1 X7.521 Y17.813 E262.0222 F1800
G0 X8.086 Y17.813 F4800
G1 X31.213 Y-5.313 E263.2766 F1800
G0 X31.779 Y-5.313 F4800
G1 X8.652 Y17.813 E264.5310 F1800
G0 X9.218 Y17.813 F4800
G1 X32.345 Y-5.313 E265.7854 F1800
G0 X32.910 Y-5.313 F4800
G1 X9.783 Y17.813 E267.0399 F1800
G0 X10.349 Y17.813 F4800
G1 X33.476 Y-5.313 E268.2943 F1800
G0 X34.042 Y-5.313 F4800
G1 X10.915 Y17.813 E269.5487 F1800
G0 X11.480 Y17.813 F4800
G1 X34.607 Y-5.313 E270.8031 F1800
G0 X35.173 Y-5.313 F4800
G1 X12.046 Y17.813 E272.0576 F1800
G0 X12.612 Y17.813 F4800
G1 X35.739 Y-5.313 E273.3120 F1800
G0 X36.304 Y-5.313 F4800
G1 X13.178 Y17.813 E274.5664 F1800
G0 X13.743 Y17.813 F4800
G1 X36.870 Y-5.313 E275.8208 F1800
G0 X37.436 Y-5.313 F4800
G1 X14.309 Y17.813 E277.0753 F1800
G0 X14.875 Y17.813 F4800
G1 X38.001 Y-5.313 E278.3297 F1800
G0 X38.567 Y-5.313 F4800
G1 X15.440 Y17.813 E279.5841 F1800
G0 X16.006 Y17.813 F4800
G1 X39.133 Y-5.313 E280.8385 F1800
G0 X39.699 Y-5.313 F4800
G1 X16.572 Y17.813 E282.0930 F1800
G0 X17.137 Y17.813 F4800
G1 X40.264 Y-5.313 E283.3474 F1800
G0 X40.830 Y-5.313 F4800
G1 X17.703 Y17.813 E284.6018 F1800
G0 X18.269 Y17.813 F4800
G1 X41.396 Y-5.313 E285.8562 F1800
G0 X41.961 Y-5.313 F4800
G1 X18.834 Y17.813 E287.1107 F1800
G0 X19.400 Y17.813 F4800
G1 X42.527 Y-5.313 E288.3651 F1800
G0 X43.093 Y-5.313 F4800
G1 X19.966 Y17.813 E289.6195 F1800
G0 X20.531 Y17.813 F4800
G1 X43.658 Y-5.313 E290.8739 F1800
G0 X44.224 Y-5.313 F4800
G1 X21.097 Y17.813 E292.1284 F1800
G0 X21.663 Y17.813 F4800
G1 X44.790 Y-5.313 E293.3828 F1800
G0 X45.355 Y-5.313 F4800
G1 X22.228 Y17.814 E294.6372 F1800
G0 X22.794 Y17.813 F4800
G1 X45.921 Y-5.313 E295.8916 F1800
G0 X46.487 Y-5.313 F4800
G1 X23.360 Y17.814 E297.1461 F1800
G0 X23.926 Y17.814 F4800
G1 X47.052 Y-5.313 E298.4005 F1800
G0 X47.618 Y-5.313 F4800
G1 X24.491 Y17.814 E299.6549 F1800
G0 X25.057 Y17.814 F4800
G1 X48.184 Y-5.313 E300.9093 F1800
G0 X48.749 Y-5.313 F4800
G1 X25.623 Y17.814 E302.1638 F1800
G0 X26.188 Y17.814 F4800
G1 X49.315 Y-5.313 E303.4182 F1800
G0 X49.881 Y-5.313 F4800
G1 X26.754 Y17.814 E304.6726 F1800
G0 X27.320 Y17.814 F4800
G1 X50.447 Y-5.313 E305.9270 F1800
G0 X51.012 Y-5.313 F4800
G1 X27.885 Y17.814 E307.1815 F1800
G0 X28.451 Y17.814 F4800
G1 X51.578 Y-5.313 E308.4359 F1800
G0 X52.144 Y-5.313 F4800
G1 X29.017 Y17.814 E309.6903 F1800
G0 X29.582 Y17.814 F4800
G1 X52.709 Y-5.313 E310.9447 F1800
G0 X53.275 Y-5.313 F4800
G1 X30.148 Y17.814 E312.1992 F1800
G0 X30.714 Y17.814 F4800
G1 X53.841 Y-5.313 E313.4536 F1800
G0 X54.406 Y-5.313 F4800
G1 X31.279 Y17.814 E314.7080 F1800
G0 X31.845 Y17.814 F4800
G1 X54.972 Y-5.313 E315.9624 F1800
G0 X55.538 Y-5.313 F4800
G1 X32.411 Y17.814 E317.2169 F1800
G0 X32.976 Y17.814 F4800
G1 X56.103 Y-5.313 E318.4713 F1800
G0 X56.669 Y-5.313 F4800
G1 X33.542 Y17.814 E319.7257 F1800
G0 X34.108 Y17.814 F4800
G1 X57.235 Y-5.313 E320.9801 F1800
G0 X57.800 Y-5.313 F4800
G1 X34.674 Y17.814 E322.2346 F1800
G0 X35.239 Y17.814 F4800
G1 X58.366 Y-5.313 E323.4890 F1800
G0 X58.932 Y-5.313 F4800
G1 X35.805 Y17.814 E324.7434 F1800
G0 X36.371 Y17.814 F4800
G1 X59.497 Y-5.313 E325.9978 F1800
G0 X60.063 Y-5.313 F4800
G1 X36.936 Y17.814 E327.2523 F1800
G0 X37.502 Y17.814 F4800
G1 X60.629 Y-5.313 E328.5067 F1800
G0 X61.063 Y-5.182 F4800
G1 X38.068 Y17.814 E329.7540 F1800
G0 X38.633 Y17.814 F4800
G1 X61.063 Y-4.617 E330.9707 F1800
G0 X61.063 Y-4.051 F4800
G1 X39.199 Y17.814 E332.1566 F1800
G0 X39.765 Y17.814 F4800
G1 X61.063 Y-3.485 E333.3119 F1800
G0 X61.063 Y-2.920 F4800
G1 X40.330 Y17.814 E334.4365 F1800
G0 X40.896 Y17.814 F4800
G1 X61.063 Y-2.354 E335.5304 F1800
G0 X61.063 Y-1.788 F4800
G1 X41.462 Y17.814 E336.5936 F1800
G0 X42.027 Y17.814 F4800
G1 X61.063 Y-1.222 E337.6261 F1800
G0 X61.063 Y-0.657 F4800
G1 X42.593 Y17.814 E338.6280 F1800
G0 X43.159 Y17.814 F4800
G1 X61.063 Y-0.091 E339.5992 F1800
G0 X61.063 Y0.475 F4800
G1 X43.724 Y17.814 E340.5397 F1800
G0 X44.290 Y17.814 F4800
G1 X61.063 Y1.040 E341.4495 F1800
G0 X61.063 Y1.606 F4800
G1 X44.856 Y17.814 E342.3286 F1800
G0 X45.422 Y17.814 F4800
G1 X61.063 Y2.172 E343.1770 F1800
G0 X61.114 Y2.686 F4800
G1 X45.987 Y17.814 E343.9976 F1800
G0 X46.553 Y17.814 F4800
G1 X61.680 Y2.686 E344.8181 F1800
G0 X62.246 Y2.686 F4800
G1 X47.119 Y17.814 E345.6386 F1800
G0 X47.684 Y17.814 F4800
G1 X62.811 Y2.686 E346.4591 F1800
G0 X63.377 Y2.686 F4800
G1 X48.250 Y17.814 E347.2797 F1800
G0 X48.816 Y17.814 F4800
G1 X63.943 Y2.686 E348.1002 F1800
G0 X64.508 Y2.686 F4800
G1 X59.381 Y7.814 E348.3783 F1800
G0 X59.947 Y7.814 F4800
G1 X65.074 Y2.687 E348.6564 F1800
G0 X65.720 Y-5.314 F4800
G1 X65.436 Y-5.030 E348.6718 F1800
G0 X65.436 Y-4.464 F4800
G1 X66.286 Y-5.314 E348.7179 F1800
G0 X66.852 Y-5.314 F4800
G1 X65.436 Y-3.898 E348.7946 F1800
G0 X65.436 Y-3.333 F4800
G1 X67.417 Y-5.314 E348.9021 F1800
G0 X67.983 Y-5.314 F4800
G1 X65.436 Y-2.767 E349.0402 F1800
G0 X65.436 Y-2.201 F4800
G1 X68.549 Y-5.314 E349.2090 F1800
G0 X69.114 Y-5.314 F4800
G1 X65.436 Y-1.636 E349.4085 F1800
G0 X65.436 Y-1.070 F4800
G1 X69.680 Y-5.314 E349.6387 F1800
G0 X70.246 Y-5.314 F4800
G1 X65.436 Y-0.504 E349.8995 F1800
G0 X65.436 Y0.061 F4800
G1 X70.811 Y-5.314 E350.1911 F1800
G0 X71.377 Y-5.314 F4800
G1 X65.436 Y0.627 E350.5133 F1800
G0 X65.436 Y1.193 F4800
G1 X71.943 Y-5.314 E350.8662 F1800
G0 X72.508 Y-5.314 F4800
G1 X65.436 Y1.758 E351.2498 F1800
G0 X65.436 Y2.324 F4800
G1 X73.074 Y-5.314 E351.6641 F1800
G0 X73.640 Y-5.314 F4800
G1 X60.513 Y7.814 E352.3761 F1800
G0 X61.078 Y7.814 F4800
G1 X74.206 Y-5.314 E353.0882 F1800
G0 X74.771 Y-5.314 F4800
G1 X61.644 Y7.814 E353.8002 F1800
G0 X62.210 Y7.814 F4800
G1 X75.337 Y-5.314 E354.5123 F1800
G0 X75.903 Y-5.314 F4800
G1 X62.775 Y7.814 E355.2243 F1800
G0 X63.341 Y7.814 F4800
G1 X76.468 Y-5.314 E355.9363 F1800
G0 X77.034 Y-5.314 F4800
G1 X63.907 Y7.814 E356.6484 F1800
G0 X64.472 Y7.814 F4800
G1 X77.600 Y-5.314 E357.3604 F1800
G0 X78.165 Y-5.314 F4800
G1 X65.038 Y7.814 E358.0724 F1800
G0 X65.604 Y7.814 F4800
G1 X78.731 Y-5.314 E358.7845 F1800
G0 X79.297 Y-5.314 F4800
G1 X66.170 Y7.814 E359.4965 F1800
G0 X66.735 Y7.814 F4800
G1 X79.862 Y-5.314 E360.2085 F1800
G0 X80.428 Y-5.314 F4800
G1 X67.301 Y7.814 E360.9206 F1800
G0 X67.867 Y7.814 F4800
G1 X80.994 Y-5.314 E361.6326 F1800
G0 X81.560 Y-5.314 F4800
G1 X68.432 Y7.814 E362.3446 F1800
G0 X68.998 Y7.814 F4800
G1 X82.125 Y-5.314 E363.0567 F1800
G0 X82.691 Y-5.314 F4800
G1 X69.564 Y7.814 E363.7687 F1800
G0 X70.129 Y7.814 F4800
G1 X83.257 Y-5.314 E364.4808 F1800
G0 X83.822 Y-5.314 F4800
G1 X70.695 Y7.814 E365.1928 F1800
G0 X71.261 Y7.814 F4800
G1 X84.388 Y-5.314 E365.9048 F1800
G0 X84.954 Y-5.314 F4800
G1 X71.826 Y7.814 E366.6169 F1800
G0 X72.392 Y7.814 F4800
G1 X85.519 Y-5.314 E367.3289 F1800
G0 X86.085 Y-5.314 F4800
G1 X72.958 Y7.814 E368.0409 F1800
G0 X73.523 Y7.814 F4800
G1 X86.651 Y-5.314 E368.7530 F1800
G0 X87.216 Y-5.314 F4800
G1 X74.089 Y7.814 E369.4650 F1800
G0 X74.655 Y7.814 F4800
G1 X87.782 Y-5.314 E370.1770 F1800
G0 X88.348 Y-5.314 F4800
G1 X75.220 Y7.814 E370.8891 F1800
G0 X75.786 Y7.814 F4800
G1 X88.913 Y-5.314 E371.6011 F1800
G0 X89.479 Y-5.314 F4800
G1 X76.352 Y7.814 E372.3132 F1800
G0 X76.918 Y7.814 F4800
G1 X90.045 Y-5.314 E373.0252 F1800
G0 X90.611 Y-5.314 F4800
G1 X77.483 Y7.814 E373.7372 F1800
G0 X78.049 Y7.814 F4800
G1 X91.176 Y-5.314 E374.4493 F1800
G0 X91.742 Y-5.314 F4800
G1 X78.615 Y7.814 E375.1613 F1800
G0 X79.180 Y7.814 F4800
G1 X92.308 Y-5.314 E375.8733 F1800
G0 X92.873 Y-5.314 F4800
G1 X79.746 Y7.814 E376.5854 F1800
G0 X80.312 Y7.814 F4800
G1 X93.439 Y-5.314 E377.2974 F1800
G0 X94.005 Y-5.314 F4800
G1 X80.877 Y7.814 E378.0094 F1800
G0 X81.443 Y7.814 F4800
G1 X94.570 Y-5.314 E378.7215 F1800
G0 X95.136 Y-5.314 F4800
G1 X82.009 Y7.814 E379.4335 F1800
G0 X82.574 Y7.814 F4800
G1 X95.702 Y-5.314 E380.1456 F1800
G0 X96.267 Y-5.314 F4800
G1 X83.140 Y7.814 E380.8576 F1800
G0 X83.706 Y7.814 F4800
G1 X96.833 Y-5.314 E381.5696 F1800
G0 X97.399 Y-5.314 F4800
G1 X84.272 Y7.814 E382.2817 F1800
G0 X84.837 Y7.814 F4800
G1 X97.965 Y-5.314 E382.9937 F1800
G0 X98.530 Y-5.314 F4800
G1 X85.403 Y7.814 E383.7057 F1800
G0 X85.969 Y7.814 F4800
G1 X99.064 Y-5.281 E384.4160 F1800
G0 X99.064 Y-4.716 F4800
G1 X86.534 Y7.814 E385.0956 F1800
G0 X87.100 Y7.814 F4800
G1 X99.064 Y-4.150 E385.7445 F1800
G0 X99.064 Y-3.584 F4800
G1 X87.666 Y7.813 E386.3628 F1800
G0 X88.231 Y7.814 F4800
G1 X99.064 Y-3.019 E386.9503 F1800
G0 X99.064 Y-2.453 F4800
G1 X88.797 Y7.813 E387.5072 F1800
G0 X89.363 Y7.813 F4800
G1 X99.063 Y-1.887 E388.0334 F1800
G0 X99.063 Y-1.322 F4800
G1 X89.928 Y7.813 E388.5289 F1800
G0 X90.494 Y7.813 F4800
G1 X99.063 Y-0.756 E388.9937 F1800
G0 X99.063 Y-0.190 F4800
G1 X91.060 Y7.813 E389.4278 F1800
G0 X91.625 Y7.813 F4800
G1 X99.063 Y0.375 E389.8313 F1800
G0 X99.063 Y0.941 F4800
G1 X92.191 Y7.813 E390.2041 F1800
G0 X92.757 Y7.813 F4800
G1 X99.063 Y1.507 E390.5461 F1800
G0 X99.063 Y2.073 F4800
G1 X93.323 Y7.813 E390.8575 F1800
G0 X93.888 Y7.813 F4800
G1 X99.063 Y2.638 E391.1382 F1800
G0 X99.063 Y3.204 F4800
G1 X94.454 Y7.813 E391.3883 F1800
G0 X95.020 Y7.813 F4800
G1 X99.063 Y3.770 E391.6076 F1800
G0 X99.063 Y4.335 F4800
G1 X95.585 Y7.813 E391.7962 F1800
G0 X96.151 Y7.813 F4800
G1 X99.063 Y4.901 E391.9542 F1800
G0 X99.063 Y5.467 F4800
G1 X96.717 Y7.813 E392.0815 F1800
G0 X97.282 Y7.813 F4800
G1 X99.063 Y6.032 E392.1781 F1800
G0 X99.063 Y6.598 F4800
G1 X97.848 Y7.813 E392.2441 F1800
G0 X98.414 Y7.813 F4800
G1 X99.063 Y7.164 E392.2793 F1800
G0 X99.063 Y8.102 F4800
G0 X59.352 Y8.102
G0 X59.352 Y11.898
G0 X99.063 Y11.898
G0 X99.063 Y11.898
G0 X99.063 Y17.359
G0 X99.063 Y17.346
G1 X98.596 Y17.814 E392.3047 F1800
G0 X98.030 Y17.814 F4800
G1 X99.063 Y16.780 E392.3607 F1800
G0 X99.063 Y16.215 F4800
G1 X97.465 Y17.814 E392.4474 F1800
G0 X96.899 Y17.814 F4800
G1 X99.063 Y15.649 E392.5648 F1800
G0 X99.063 Y15.083 F4800
G1 X96.333 Y17.814 E392.7129 F1800
G0 X95.767 Y17.814 F4800
G1 X99.063 Y14.518 E392.8917 F1800
G0 X99.063 Y13.952 F4800
G1 X95.202 Y17.814 E393.1012 F1800
G0 X94.636 Y17.814 F4800
G1 X99.063 Y13.386 E393.3413 F1800
G0 X99.064 Y12.821 F4800
G1 X94.070 Y17.814 E393.6122 F1800
G0 X93.505 Y17.814 F4800
G1 X99.064 Y12.255 E393.9137 F1800
G0 X98.566 Y12.187 F4800
G1 X92.939 Y17.814 E394.2189 F1800
G0 X92.373 Y17.814 F4800
G1 X98.000 Y12.187 E394.5242 F1800
G0 X97.435 Y12.187 F4800
G1 X91.808 Y17.814 E394.8294 F1800
G0 X91.242 Y17.814 F4800
G1 X96.869 Y12.187 E395.1346 F1800
G0 X96.303 Y12.187 F4800
G1 X90.676 Y17.814 E395.4399 F1800
G0 X90.111 Y17.814 F4800
G1 X95.738 Y12.187 E395.7451 F1800
G0 X95.172 Y12.187 F4800
G1 X89.545 Y17.814 E396.0503 F1800
G0 X88.979 Y17.814 F4800
G1 X94.606 Y12.187 E396.3556 F1800
G0 X94.041 Y12.187 F4800
G1 X88.413 Y17.814 E396.6608 F1800
G0 X87.848 Y17.814 F4800
G1 X93.475 Y12.187 E396.9660 F1800
G0 X92.909 Y12.187 F4800
G1 X87.282 Y17.814 E397.2713 F1800
G0 X86.716 Y17.814 F4800
G1 X92.344 Y12.187 E397.5765 F1800
G0 X91.778 Y12.187 F4800
G1 X86.151 Y17.814 E397.8818 F1800
G0 X85.585 Y17.814 F4800
G1 X91.212 Y12.187 E398.1870 F1800
G0 X90.646 Y12.187 F4800
G1 X85.019 Y17.814 E398.4922 F1800
G0 X84.454 Y17.814 F4800
G1 X90.081 Y12.187 E398.7974 F1800
G0 X89.515 Y12.187 F4800
G1 X83.888 Y17.814 E399.1026 F1800
G0 X83.322 Y17.814 F4800
G1 X88.949 Y12.187 E399.4078 F1800
G0 X88.384 Y12.187 F4800
G1 X82.757 Y17.814 E399.7131 F1800
G0 X82.191 Y17.814 F4800
G1 X87.818 Y12.187 E400.0183 F1800
G0 X87.252 Y12.187 F4800
G1 X81.625 Y17.814 E400.3235 F1800
G0 X81.060 Y17.814 F4800
G1 X86.687 Y12.187 E400.6287 F1800
G0 X86.121 Y12.187 F4800
G1 X80.494 Y17.814 E400.9339 F1800
G0 X79.928 Y17.814 F4800
G1 X85.555 Y12.187 E401.2391 F1800
G0 X84.990 Y12.187 F4800
G1 X79.363 Y17.814 E401.5443 F1800
G0 X78.797 Y17.814 F4800
G1 X84.424 Y12.187 E401.8495 F1800
G0 X83.858 Y12.187 F4800
G1 X78.231 Y17.814 E402.1547 F1800
G0 X77.665 Y17.814 F4800
G1 X83.293 Y12.187 E402.4599 F1800
G0 X82.727 Y12.187 F4800
G1 X77.100 Y17.814 E402.7651 F1800
G0 X76.534 Y17.814 F4800
G1 X82.161 Y12.187 E403.0703 F1800
G0 X81.595 Y12.187 F4800
G1 X75.968 Y17.814 E403.3755 F1800
G0 X75.403 Y17.814 F4800
G1 X81.030 Y12.187 E403.6807 F1800
G0 X80.464 Y12.187 F4800
G1 X74.837 Y17.814 E403.9859 F1800
G0 X74.271 Y17.814 F4800
G1 X79.898 Y12.187 E404.2912 F1800
G0 X79.333 Y12.187 F4800
G1 X73.706 Y17.814 E404.5964 F1800
G0 X73.140 Y17.814 F4800
G1 X78.767 Y12.187 E404.9016 F1800
G0 X78.201 Y12.187 F4800
G1 X72.574 Y17.814 E405.2068 F1800
G0 X72.009 Y17.814 F4800
G1 X77.636 Y12.187 E405.5120 F1800
G0 X77.070 Y12.187 F4800
G1 X71.443 Y17.814 E405.8172 F1800
G0 X70.877 Y17.814 F4800
G1 X76.504 Y12.187 E406.1224 F1800
G0 X75.939 Y12.187 F4800
G1 X70.312 Y17.814 E406.4276 F1800
G0 X69.746 Y17.814 F4800
G1 X75.373 Y12.187 E406.7328 F1800
G0 X74.807 Y12.187 F4800
G1 X69.180 Y17.814 E407.0380 F1800
G0 X68.615 Y17.814 F4800
G1 X74.242 Y12.187 E407.3432 F1800
G0 X73.676 Y12.187 F4800
G1 X68.049 Y17.814 E407.6484 F1800
G0 X67.483 Y17.814 F4800
G1 X73.110 Y12.187 E407.9536 F1800
G0 X72.544 Y12.187 F4800
G1 X66.917 Y17.814 E408.2588 F1800
G0 X66.352 Y17.814 F4800
G1 X71.979 Y12.187 E408.5640 F1800
G0 X71.413 Y12.187 F4800
G1 X65.786 Y17.814 E408.8692 F1800
G0 X65.220 Y17.814 F4800
G1 X70.847 Y12.187 E409.1745 F1800
G0 X70.282 Y12.187 F4800
G1 X64.655 Y17.814 E409.4797 F1800
G0 X64.089 Y17.814 F4800
G1 X69.716 Y12.187 E409.7849 F1800
G0 X69.150 Y12.187 F4800
G1 X63.523 Y17.814 E410.0901 F1800
G0 X62.958 Y17.814 F4800
G1 X68.585 Y12.187 E410.3953 F1800
G0 X68.019 Y12.187 F4800
G1 X62.392 Y17.814 E410.7005 F1800
G0 X61.826 Y17.814 F4800
G1 X67.453 Y12.187 E411.0057 F1800
G0 X66.888 Y12.187 F4800
G1 X61.261 Y17.814 E411.3109 F1800
G0 X60.695 Y17.814 F4800
G1 X66.322 Y12.187 E411.6161 F1800
G0 X65.756 Y12.187 F4800
G1 X60.129 Y17.814 E411.9213 F1800
G0 X59.564 Y17.814 F4800
G1 X65.191 Y12.187 E412.2265 F1800
G0 X64.625 Y12.187 F4800
G1 X58.998 Y17.814 E412.5317 F1800
G0 X58.432 Y17.814 F4800
G1 X64.059 Y12.187 E412.8369 F1800
G0 X63.494 Y12.187 F4800
G1 X57.867 Y17.814 E413.1421 F1800
G0 X57.301 Y17.814 F4800
G1 X62.928 Y12.187 E413.4473 F1800
G0 X62.362 Y12.187 F4800
G1 X56.735 Y17.814 E413.7525 F1800
G0 X56.170 Y17.814 F4800
G1 X61.797 Y12.187 E414.0578 F1800
G0 X61.231 Y12.187 F4800
G1 X55.604 Y17.814 E414.3630 F1800
G0 X55.038 Y17.814 F4800
G1 X60.665 Y12.187 E414.6682 F1800
G0 X60.099 Y12.187 F4800
G1 X54.472 Y17.814 E414.9734 F1800
G0 X53.907 Y17.814 F4800
G1 X59.534 Y12.187 E415.2786 F1800
G0 X59.064 Y12.091 F4800
G1 X53.341 Y17.814 E415.5890 F1800
G0 X52.775 Y17.814 F4800
G1 X59.064 Y11.525 E415.9300 F1800
G0 X59.064 Y10.960 F4800
G1 X52.210 Y17.814 E416.3018 F1800
G0 X51.644 Y17.814 F4800
G1 X59.064 Y10.394 E416.7042 F1800
G0 X59.064 Y9.828 F4800
G1 X51.078 Y17.814 E417.1374 F1800
G0 X50.513 Y17.814 F4800
G1 X59.064 Y9.263 E417.6012 F1800
G0 X59.064 Y8.697 F4800
G1 X49.947 Y17.814 E418.0957 F1800
G0 X49.381 Y17.814 F4800
G1 X59.064 Y8.131 E418.6209 F1800
G0 X26.984 Y-5.602 F4800
G0 X-3.061 Y-5.602
G0 X-3.061 Y-15.898
G0 X-1.061 Y-15.898
G0 X-1.061 Y-17.608
G0 X-1.061 Y-17.608
G0 X-1.554 Y-17.819
G0 X-1.542 Y-17.813
G1 X-3.168 Y-16.187 E418.7091 F1800
G0 X-2.603 Y-16.187 F4800
G1 X-1.349 Y-17.441 E418.7771 F1800
G0 X-1.349 Y-16.875 F4800
G1 X-2.037 Y-16.187 E418.8144 F1800
G0 X-12.290 Y-17.813 F4800
G1 X-12.476 Y-17.627 E418.8245 F1800
G0 X-12.476 Y-17.062 F4800
G1 X-11.724 Y-17.813 E418.8653 F1800
G0 X-11.158 Y-17.813 F4800
G1 X-12.476 Y-16.496 E418.9368 F1800
G0 X-12.219 Y-16.187 F4800
G1 X-10.592 Y-17.813 E419.0250 F1800
G0 X-10.027 Y-17.813 F4800
G1 X-11.654 Y-16.187 E419.1133 F1800
G0 X-11.088 Y-16.187 F4800
G1 X-9.461 Y-17.813 E419.2016 F1800
G0 X-8.895 Y-17.813 F4800
G1 X-10.522 Y-16.187 E419.2898 F1800
G0 X-10.476 Y-15.667 F4800
G1 X-8.330 Y-17.813 E419.4062 F1800
G0 X-7.764 Y-17.813 F4800
G1 X-10.476 Y-15.102 E419.5533 F1800
G0 X-10.476 Y-14.536 F4800
G1 X-7.198 Y-17.813 E419.7311 F1800
G0 X-6.633 Y-17.813 F4800
G1 X-10.476 Y-13.970 E419.9395 F1800
G0 X-10.476 Y-13.405 F4800
G1 X-6.067 Y-17.813 E420.1787 F1800
G0 X-5.501 Y-17.813 F4800
G1 X-10.476 Y-12.839 E420.4485 F1800
G0 X-10.476 Y-12.273 F4800
G1 X-4.936 Y-17.813 E420.7490 F1800
G0 X-4.370 Y-17.813 F4800
G1 X-10.476 Y-11.708 E421.0802 F1800
G0 X-10.476 Y-11.142 F4800
G1 X-3.804 Y-17.813 E421.4421 F1800
G0 X-3.239 Y-17.813 F4800
G1 X-10.476 Y-10.576 E421.8346 F1800
G0 X-10.476 Y-10.011 F4800
G1 X-2.673 Y-17.813 E422.2579 F1800
G0 X-2.107 Y-17.813 F4800
G1 X-10.476 Y-9.445 E422.7118 F1800
G0 X-10.476 Y-8.879 F4800
G1 X-3.349 Y-16.006 E423.0984 F1800
G0 X-3.349 Y-15.440 F4800
G1 X-10.476 Y-8.313 E423.4849 F1800
G0 X-10.476 Y-7.748 F4800
G1 X-3.349 Y-14.875 E423.8715 F1800
G0 X-3.349 Y-14.309 F4800
G1 X-10.476 Y-7.182 E424.2581 F1800
G0 X-10.476 Y-6.616 F4800
G1 X-3.349 Y-13.743 E424.6446 F1800
G0 X-3.349 Y-13.178 F4800
G1 X-10.476 Y-6.051 E425.0312 F1800
G0 X-10.476 Y-5.485 F4800
G1 X-3.349 Y-12.612 E425.4177 F1800
G0 X-3.349 Y-12.046 F4800
G1 X-13.476 Y-1.920 E425.9670 F1800
G0 X-13.476 Y-1.354 F4800
G1 X-3.349 Y-11.481 E426.5163 F1800
G0 X-3.349 Y-10.915 F4800
G1 X-13.476 Y-0.788 E427.0656 F1800
G0 X-13.476 Y-0.222 F4800
G1 X-3.349 Y-10.349 E427.6149 F1800
G0 X-3.349 Y-9.784 F4800
G1 X-13.476 Y0.343 E428.1642 F1800
G0 X-13.476 Y0.909 F4800
G1 X-3.349 Y-9.218 E428.7135 F1800
G0 X-3.349 Y-8.652 F4800
G1 X-13.476 Y1.475 E429.2628 F1800
G0 X-13.476 Y2.040 F4800
G1 X-3.349 Y-8.086 E429.8120 F1800
G0 X-3.349 Y-7.521 F4800
G1 X-13.476 Y2.606 E430.3613 F1800
G0 X-13.476 Y3.172 F4800
G1 X-3.349 Y-6.955 E430.9106 F1800
G0 X-3.349 Y-6.389 F4800
G1 X-13.476 Y3.737 E431.4599 F1800
G0 X-13.476 Y4.303 F4800
G1 X-3.349 Y-5.824 E432.0092 F1800
G0 X-3.293 Y-5.314 F4800
G1 X-13.476 Y4.869 E432.5615 F1800
G0 X-13.793 Y5.186 F4800
G1 X-15.920 Y7.313 E432.6768 F1800
G0 X-16.486 Y7.313 F4800
G1 X-14.359 Y5.186 E432.7922 F1800
G0 X-14.925 Y5.186 F4800
G1 X-17.052 Y7.313 E432.9076 F1800
G0 X-17.617 Y7.313 F4800
G1 X-15.490 Y5.186 E433.0229 F1800
G0 X-16.056 Y5.186 F4800
G1 X-18.183 Y7.313 E433.1383 F1800
G0 X-18.749 Y7.313 F4800
G1 X-16.622 Y5.186 E433.2536 F1800
G0 X-17.188 Y5.186 F4800
G1 X-19.314 Y7.313 E433.3690 F1800
G0 X-19.880 Y7.313 F4800
G1 X-17.753 Y5.186 E433.4843 F1800
G0 X-18.319 Y5.186 F4800
G1 X-20.446 Y7.313 E433.5997 F1800
G0 X-21.012 Y7.313 F4800
G1 X-18.885 Y5.186 E433.7151 F1800
G0 X-19.450 Y5.186 F4800
G1 X-21.577 Y7.313 E433.8304 F1800
G0 X-22.143 Y7.313 F4800
G1 X-20.016 Y5.186 E433.9458 F1800
G0 X-20.582 Y5.186 F4800
G1 X-22.709 Y7.313 E434.0611 F1800
G0 X-23.274 Y7.313 F4800
G1 X-21.147 Y5.186 E434.1765 F1800
G0 X-21.713 Y5.186 F4800
G1 X-23.840 Y7.313 E434.2918 F1800
G0 X-24.406 Y7.313 F4800
G1 X-22.279 Y5.186 E434.4072 F1800
G0 X-22.844 Y5.186 F4800
G1 X-24.971 Y7.313 E434.5225 F1800
G0 X-25.537 Y7.313 F4800
G1 X-23.410 Y5.186 E434.6379 F1800
G0 X-23.976 Y5.186 F4800
G1 X-26.103 Y7.313 E434.7533 F1800
G0 X-26.668 Y7.313 F4800
G1 X-24.541 Y5.186 E434.8686 F1800
G0 X-25.107 Y5.186 F4800
G1 X-27.234 Y7.313 E434.9840 F1800
G0 X-27.800 Y7.313 F4800
G1 X-25.673 Y5.186 E435.0993 F1800
G0 X-26.239 Y5.186 F4800
G1 X-28.365 Y7.313 E435.2147 F1800
G0 X-28.931 Y7.313 F4800
G1 X-26.804 Y5.186 E435.3300 F1800
G0 X-27.370 Y5.186 F4800
G1 X-29.497 Y7.313 E435.4454 F1800
G0 X-30.063 Y7.313 F4800
G1 X-27.936 Y5.186 E435.5608 F1800
G0 X-42.326 Y1.475 F4800
G1 X-58.665 Y17.813 E436.4470 F1800
G0 X-59.230 Y17.813 F4800
G1 X-47.228 Y5.812 E437.0980 F1800
G0 X-47.794 Y5.812 F4800
G1 X-59.796 Y17.813 E437.7490 F1800
G0 X-60.362 Y17.813 F4800
G1 X-48.360 Y5.812 E438.4000 F1800
G0 X-48.925 Y5.812 F4800
G1 X-60.927 Y17.813 E439.0510 F1800
G0 X-61.493 Y17.813 F4800
G1 X-49.300 Y5.621 E439.7123 F1800
G0 X-49.507 Y5.262 F4800
G1 X-62.059 Y17.813 E440.3931 F1800
G0 X-62.624 Y17.813 F4800
G1 X-49.714 Y4.904 E441.0934 F1800
G0 X-49.921 Y4.545 F4800
G1 X-63.190 Y17.813 E441.8131 F1800
G0 X-63.756 Y17.813 F4800
G1 X-50.128 Y4.186 E442.5522 F1800
G0 X-50.335 Y3.828 F4800
G1 X-64.321 Y17.813 E443.3108 F1800
G0 X-64.887 Y17.813 F4800
G1 X-49.720 Y2.646 E444.1335 F1800
G0 X-53.555 Y3.229 F4800
G0 X-54.101 Y2.249
G0 X-55.850 Y2.221
G0 X-56.745 Y3.714
G0 X-56.745 Y3.714
G0 X-57.070 Y3.763
G0 X-57.057 Y3.761
G1 X-71.110 Y17.813 E444.8957 F1800
G0 X-70.544 Y17.813 F4800
G1 X-56.855 Y4.125 E445.6382 F1800
G0 X-56.653 Y4.488 F4800
G1 X-69.978 Y17.813 E446.3610 F1800
G0 X-69.413 Y17.813 F4800
G1 X-56.451 Y4.852 E447.0641 F1800
G0 X-56.249 Y5.215 F4800
G1 X-68.847 Y17.813 E447.7474 F1800
G0 X-68.281 Y17.813 F4800
G1 X-56.005 Y5.537 E448.4133 F1800
G0 X-55.448 Y5.546 F4800
G1 X-67.715 Y17.813 E449.0786 F1800
G0 X-67.150 Y17.813 F4800
G1 X-54.892 Y5.555 E449.7435 F1800
G0 X-54.335 Y5.564 F4800
G1 X-66.584 Y17.813 E450.4079 F1800
; ------------------------------------
; Layer #2
; ------------------------------------
M106 S255 ;set fan speed
G21 ; mm
G90 ; abs
G92 E0 ;reset extr
G0 F4200 E-5.0000
G0 F4800 Z1.950
G0 X-29.699 Y13.064
G0 X-27.064 Y12.725
G0 X59.879 Y1.529
G0 X62.514 Y1.190
G0 X65.148 Y0.850
G0 Z0.950
G0 F4200 E0.0000
;segType:Loop
G1 X65.148 Y-5.602 E0.2544 F2400
G1 X99.352 Y-5.602 E1.6033
G1 X99.352 Y8.102 E2.1437
G1 X59.352 Y8.102 E3.7211
G1 X59.352 Y11.898 E3.8708
G1 X99.352 Y11.898 E5.4483
G1 X99.352 Y18.102 E5.6929
G1 X-99.352 Y18.102 E13.5289
G1 X-99.352 Y-5.602 E14.4637
G1 X-10.764 Y-5.602 E17.9572
G1 X-10.764 Y-15.898 E18.3633
G1 X-12.764 Y-15.898 E18.4422
G1 X-12.764 Y-18.102 E18.5290
G1 X-1.061 Y-18.102 E18.9906
G1 X-1.061 Y-15.898 E19.0774
G1 X-3.061 Y-15.898 E19.1563
G1 X-3.061 Y-5.602 E19.5624
G1 X61.352 Y-5.602 E22.1025
G1 X61.352 Y2.398 E22.4180
G1 X65.148 Y2.398 E22.5678
G1 X65.148 Y1.050 E22.6156
;segType:Perimeter
G0 X64.700 Y2.090 F4800
G1 X64.700 Y1.890 E22.6227 F1200
G1 X64.700 Y-6.050 E22.9022
G1 X99.800 Y-6.050 E24.1381
G1 X99.800 Y8.550 E24.6521
G1 X59.800 Y8.550 E26.0606
G1 X59.800 Y11.450 E26.1627
G1 X99.800 Y11.450 E27.5711
G1 X99.800 Y18.550 E27.8211
G1 X-99.800 Y18.550 E34.8491
G1 X-99.800 Y-6.050 E35.7153
G1 X-11.212 Y-6.050 E38.8345
G1 X-11.212 Y-15.450 E39.1655
G1 X-13.212 Y-15.450 E39.2359
G1 X-13.212 Y-18.550 E39.3450
G1 X-0.613 Y-18.550 E39.7887
G1 X-0.613 Y-15.450 E39.8978
G1 X-2.613 Y-15.450 E39.9682
G1 X-2.613 Y-6.050 E40.2992
G1 X61.800 Y-6.050 E42.5672
G1 X61.800 Y1.950 E42.8489
G1 X64.640 Y1.950 E42.9489
G0 X64.840 Y1.950 F4800
;segType:Loop
G0 X-15.312 Y4.898
G1 X-30.061 Y4.898 E43.5306 F2400
G1 X-30.061 Y-1.899 E43.7986
G1 X-13.764 Y-1.899 E44.4413
G1 X-13.764 Y4.898 E44.7093
G1 X-15.112 Y4.898 E44.7572
;segType:Perimeter
G0 X-14.272 Y4.450 F4800
G1 X-29.613 Y4.450 E45.2974 F1200
G1 X-29.613 Y-1.451 E45.5051
G1 X-14.212 Y-1.451 E46.0474
G1 X-14.212 Y4.390 E46.2531
G0 X-14.212 Y4.590 F4800
G0 X-14.246 Y4.898
G0 X-14.550 Y7.602
G0 X-14.550 Y7.602
G0 X-13.764 Y7.602
G0 X-13.764 Y14.398
G0 X-15.312 Y14.398
G0 X-15.312 Y14.398
G0 X-15.313 Y14.411
;segType:Loop
G0 X-15.312 Y14.398
G1 X-30.061 Y14.398 E46.8347 F2400
G1 X-30.061 Y7.602 E47.1027
G1 X-13.764 Y7.602 E47.7454
G1 X-13.764 Y14.398 E48.0135
G1 X-15.112 Y14.398 E48.0613
;segType:Perimeter
G0 X-14.272 Y13.950 F4800
G1 X-29.613 Y13.950 E48.6015 F1200
G1 X-29.613 Y8.050 E48.8093
G1 X-14.212 Y8.050 E49.3515
G1 X-14.212 Y13.890 E49.5572
G0 X-14.212 Y14.090 F4800
G0 X-28.167 Y7.602
G0 X-39.476 Y2.343
G0 X-39.476 Y2.343
G0 X-40.747 Y1.752
G0 X-40.747 Y1.752
G0 X-40.759 Y1.746
;segType:Loop
G0 X-40.747 Y1.752
G1 X-39.803 Y1.776 E49.5944 F2400
G1 X-38.664 Y3.750 E49.6844
G1 X-39.832 Y5.773 E49.7765
G1 X-42.168 Y5.773 E49.8686
G1 X-43.217 Y3.957 E49.9514
G1 X-43.210 Y3.523 E49.9685
G1 X-42.106 Y1.717 E50.0519
G1 X-40.947 Y1.747 E50.0976
;segType:Perimeter
G0 X-41.798 Y2.173 F4800
G1 X-40.066 Y2.217 E50.1587 F1200
G1 X-39.181 Y3.750 E50.2210
G1 X-40.091 Y5.325 E50.2850
G1 X-41.910 Y5.325 E50.3491
G1 X-42.767 Y3.840 E50.4095
G1 X-42.764 Y3.652 E50.4161
G1 X-41.890 Y2.223 E50.4751
;segType:Loop
G0 X-47.611 Y2.002 F4800
G1 X-46.942 Y2.019 E50.5015 F2400
G1 X-45.975 Y3.790 E50.5811
G1 X-46.976 Y5.524 E50.6600
G1 X-49.024 Y5.524 E50.7408
G1 X-49.932 Y3.950 E50.8124
G1 X-49.926 Y3.530 E50.8290
G1 X-48.970 Y1.967 E50.9012
G1 X-47.811 Y1.997 E50.9469
;segType:Perimeter
G0 X-48.662 Y2.423 F4800
G1 X-47.211 Y2.460 E50.9980 F1200
G1 X-46.489 Y3.784 E51.0511
G1 X-47.235 Y5.076 E51.1036
G1 X-48.765 Y5.076 E51.1575
G1 X-49.482 Y3.833 E51.2081
G1 X-49.480 Y3.660 E51.2142
G1 X-48.754 Y2.473 E51.2631
G0 X-48.649 Y2.302 F4800
G0 X-49.361 Y2.607
G0 X-53.655 Y4.448
G0 X-53.655 Y4.448
G0 X-54.164 Y5.283
G0 X-55.523 Y5.248
G0 X-55.523 Y5.248
G0 X-55.535 Y5.253
;segType:Loop
G0 X-55.523 Y5.248
G1 X-55.910 Y5.239 E51.2784 F2400
G1 X-56.744 Y3.706 E51.3472
G1 X-55.834 Y2.217 E51.4161
G1 X-54.090 Y2.262 E51.4848
G1 X-53.255 Y3.792 E51.5536
G1 X-54.164 Y5.283 E51.6224
G1 X-55.323 Y5.253 E51.6681
;segType:Perimeter
G0 X-54.272 Y4.832 F4800
G1 X-54.472 Y4.827 E51.6752 F1200
G1 X-55.640 Y4.797 E51.7163
G1 X-56.227 Y3.719 E51.7596
G1 X-55.586 Y2.672 E51.8028
G1 X-54.360 Y2.703 E51.8460
G1 X-53.772 Y3.780 E51.8892
G1 X-54.381 Y4.777 E51.9303
G0 X-56.216 Y4.676 F4800
G0 X-87.217 Y2.972
G0 X-87.217 Y2.972
G0 X-87.230 Y2.971
;segType:Loop
G0 X-87.217 Y2.972
G1 X-87.163 Y3.151 E51.9377 F2400
G1 X-87.102 Y3.627 E51.9566
G1 X-87.123 Y4.118 E51.9760
G1 X-87.226 Y4.600 E51.9954
G1 X-87.399 Y5.029 E52.0137
G1 X-87.607 Y5.378 E52.0297
G1 X-87.994 Y5.846 E52.0536
G1 X-88.387 Y6.160 E52.0735
G1 X-88.818 Y6.398 E52.0929
G1 X-89.282 Y6.560 E52.1123
G1 X-89.767 Y6.641 E52.1317
G1 X-90.260 Y6.638 E52.1511
G1 X-90.744 Y6.553 E52.1705
G1 X-91.206 Y6.387 E52.1899
G1 X-91.635 Y6.145 E52.2093
G1 X-92.024 Y5.828 E52.2291
G1 X-92.391 Y5.379 E52.2519
G1 X-92.591 Y5.055 E52.2670
G1 X-92.777 Y4.586 E52.2868
G1 X-92.878 Y4.105 E52.3062
G1 X-92.897 Y3.613 E52.3256
G1 X-92.832 Y3.126 E52.3450
G1 X-92.686 Y2.656 E52.3644
G1 X-92.462 Y2.218 E52.3838
G1 X-92.162 Y1.815 E52.4036
G1 X-91.723 Y1.426 E52.4268
G1 X-91.415 Y1.218 E52.4414
G1 X-90.966 Y1.015 E52.4608
G1 X-90.490 Y0.891 E52.4803
G1 X-90.000 Y0.849 E52.4997
G1 X-89.510 Y0.891 E52.5191
G1 X-89.034 Y1.015 E52.5385
G1 X-88.585 Y1.218 E52.5579
G1 X-88.276 Y1.427 E52.5726
G1 X-87.821 Y1.834 E52.5967
G1 X-87.524 Y2.241 E52.6165
G1 X-87.304 Y2.681 E52.6360
G1 X-87.274 Y2.780 E52.6398
;segType:Perimeter
G0 X-88.229 Y2.018 F4800
G1 X-88.120 Y2.185 E52.6468 F1200
G1 X-87.908 Y2.475 E52.6595
G1 X-87.722 Y2.847 E52.6741
G1 X-87.602 Y3.245 E52.6887
G1 X-87.551 Y3.646 E52.7030
G1 X-87.569 Y4.061 E52.7176
G1 X-87.656 Y4.468 E52.7323
G1 X-87.802 Y4.830 E52.7460
G1 X-87.974 Y5.118 E52.7578
G1 X-88.310 Y5.524 E52.7764
G1 X-88.637 Y5.786 E52.7912
G1 X-89.001 Y5.987 E52.8058
G1 X-89.394 Y6.124 E52.8204
G1 X-89.803 Y6.192 E52.8351
G1 X-90.219 Y6.190 E52.8497
G1 X-90.628 Y6.118 E52.8643
G1 X-91.019 Y5.978 E52.8790
G1 X-91.382 Y5.774 E52.8936
G1 X-91.706 Y5.509 E52.9083
G1 X-92.025 Y5.119 E52.9261
G1 X-92.189 Y4.853 E52.9371
G1 X-92.346 Y4.457 E52.9521
G1 X-92.432 Y4.050 E52.9667
G1 X-92.447 Y3.635 E52.9814
G1 X-92.393 Y3.223 E52.9960
G1 X-92.269 Y2.826 E53.0106
G1 X-92.080 Y2.456 E53.0253
G1 X-91.830 Y2.120 E53.0400
G1 X-91.448 Y1.781 E53.0580
G1 X-91.196 Y1.610 E53.0687
G1 X-90.817 Y1.439 E53.0834
G1 X-90.414 Y1.334 E53.0980
G1 X-90.000 Y1.299 E53.1126
G1 X-89.586 Y1.334 E53.1273
G1 X-89.183 Y1.439 E53.1419
G1 X-88.804 Y1.610 E53.1566
G1 X-88.552 Y1.781 E53.1673
G1 X-88.200 Y2.097 E53.1839
G0 X-88.044 Y2.222 F4800
G0 X-88.039 Y2.295
G0 X-87.861 Y4.929
G0 X-87.861 Y4.929
G0 X-87.784 Y6.060
;segType:Infill
G0 X-87.785 Y6.047
G1 X-76.019 Y17.813 E53.7071 F2400
G0 X-81.676 Y17.813 F4800
G1 X-99.064 Y0.426 E54.4801 F2400
G0 X-99.064 Y6.083 F4800
G1 X-87.333 Y17.813 E55.0017 F2400
G0 X-99.064 Y17.396 F4800
G1 X-98.646 Y17.813 E55.0202 F2400
G0 X-92.989 Y17.813 F4800
G1 X-99.064 Y11.739 E55.2903 F2400
G0 X-92.289 Y1.543 F4800
G1 X-99.064 Y-5.231 E55.5915 F2400
G0 X-93.489 Y-5.314 F4800
