; GCode generated by CraftWare

G28 X0 Y0
G28 Z0

M104 S215 ;set head temp (no wait)
M190 S60 ;set bed temp (wait)
M109 S215 ;set head temp (wait)
; ------------------------------------
; Layer #0
; ------------------------------------
M106 S0 ;turn off fan
G21 ; mm
G90 ; abs
G92 E0 ;reset extr
G0 F4800 Z0.200
;segType:Skirt
G0 E-1.0000
G0 X-2.625 Y5.414 F2400
G0 F4800 E0.0000
G1 X-1.969 Y5.961 E0.0284 F1200
G1 X-1.313 Y6.070 E0.0505
G1 X1.313 Y6.070 E0.1378
G1 X1.969 Y5.851 E0.1609
G1 X2.461 Y5.469 E0.1816
G1 X5.523 Y2.406 E0.3256
G1 X5.851 Y1.859 E0.3468
G1 X6.070 Y1.203 E0.3699
G1 X6.070 Y-0.984 E0.4426
G1 X5.851 Y-1.641 E0.4656
G1 X5.578 Y-2.242 E0.4876
G1 X2.078 Y-5.742 E0.6522
G1 X1.094 Y-6.070 E0.6867
G1 X-1.094 Y-6.070 E0.7595
G1 X-1.804 Y-5.906 E0.7837
G1 X-2.351 Y-5.578 E0.8050
G1 X-5.414 Y-2.516 E0.9490
G1 X-5.797 Y-2.023 E0.9698
G1 X-6.179 Y-1.094 E1.0032
G1 X-6.179 Y1.094 E1.0759
G1 X-5.961 Y1.750 E1.0990
G1 X-5.688 Y2.351 E1.1209
G1 X-2.625 Y5.414 E1.2650
G0 X-2.625 Y5.851 F2400
G1 X-1.969 Y6.398 E1.2934 F1200
G1 X-1.313 Y6.508 E1.3155
G1 X1.313 Y6.508 E1.4028
G1 X1.969 Y6.289 E1.4258
G1 X2.461 Y5.906 E1.4466
G1 X5.961 Y2.406 E1.6112
G1 X6.289 Y1.859 E1.6324
G1 X6.508 Y1.203 E1.6554
G1 X6.508 Y-0.984 E1.7282
G1 X6.289 Y-1.641 E1.7512
G1 X6.016 Y-2.242 E1.7731
G1 X2.078 Y-6.179 E1.9583
G1 X1.094 Y-6.508 E1.9929
G1 X-1.094 Y-6.508 E2.0656
G1 X-1.804 Y-6.344 E2.0899
G1 X-2.351 Y-6.016 E2.1111
G1 X-5.851 Y-2.516 E2.2757
G1 X-6.234 Y-2.023 E2.2965
G1 X-6.617 Y-1.094 E2.3299
G1 X-6.617 Y1.094 E2.4026
G1 X-6.398 Y1.750 E2.4257
G1 X-6.125 Y2.351 E2.4476
G1 X-2.625 Y5.851 E2.6123
G0 X-2.625 Y6.289 F2400
G1 X-1.969 Y6.836 E2.6407 F1200
G1 X-1.313 Y6.945 E2.6628
G1 X1.313 Y6.945 E2.7501
G1 X1.969 Y6.726 E2.7731
G1 X2.461 Y6.344 E2.7938
G1 X6.398 Y2.406 E2.9790
G1 X6.726 Y1.859 E3.0003
G1 X6.945 Y1.203 E3.0233
G1 X6.945 Y-0.984 E3.0960
G1 X6.726 Y-1.641 E3.1190
G1 X6.453 Y-2.242 E3.1410
G1 X2.078 Y-6.617 E3.3468
G1 X1.094 Y-6.945 E3.3813
G1 X-1.094 Y-6.945 E3.4541
G1 X-1.804 Y-6.781 E3.4783
G1 X-2.351 Y-6.453 E3.4995
G1 X-6.289 Y-2.516 E3.6847
G1 X-6.672 Y-2.023 E3.7055
G1 X-7.054 Y-1.094 E3.7389
G1 X-7.054 Y1.094 E3.8117
G1 X-6.836 Y1.750 E3.8347
G1 X-6.563 Y2.351 E3.8566
G1 X-2.625 Y6.289 E4.0419
G0 X-2.625 Y6.726 F2400
G1 X-1.969 Y7.273 E4.0703 F1200
G1 X-1.313 Y7.383 E4.0924
G1 X1.313 Y7.383 E4.1797
G1 X1.969 Y7.164 E4.2027
G1 X2.461 Y6.781 E4.2234
G1 X6.836 Y2.406 E4.4292
G1 X7.164 Y1.859 E4.4504
G1 X7.383 Y1.203 E4.4734
G1 X7.383 Y-0.984 E4.5462
G1 X7.164 Y-1.641 E4.5692
G1 X6.891 Y-2.242 E4.5912
G1 X2.078 Y-7.054 E4.8175
G1 X1.094 Y-7.383 E4.8521
G1 X-1.094 Y-7.383 E4.9248
G1 X-1.804 Y-7.219 E4.9491
G1 X-2.351 Y-6.891 E4.9703
G1 X-6.726 Y-2.516 E5.1761
G1 X-7.109 Y-2.023 E5.1968
G1 X-7.492 Y-1.094 E5.2302
G1 X-7.492 Y1.094 E5.3030
G1 X-7.273 Y1.750 E5.3260
G1 X-7.000 Y2.351 E5.3480
G1 X-2.625 Y6.726 E5.5538
G0 X-2.625 Y7.164 F2400
G1 X-1.969 Y7.711 E5.5822 F1200
G1 X-1.313 Y7.820 E5.6043
G1 X1.313 Y7.820 E5.6916
G1 X1.969 Y7.601 E5.7146
G1 X2.461 Y7.219 E5.7354
G1 X7.273 Y2.406 E5.9617
G1 X7.601 Y1.859 E5.9829
G1 X7.820 Y1.203 E6.0059
G1 X7.820 Y-0.984 E6.0787
G1 X7.601 Y-1.641 E6.1017
G1 X7.328 Y-2.242 E6.1237
G1 X2.078 Y-7.492 E6.3706
G1 X1.094 Y-7.820 E6.4051
G1 X-1.094 Y-7.820 E6.4779
G1 X-1.804 Y-7.656 E6.5021
G1 X-2.351 Y-7.328 E6.5234
G1 X-7.164 Y-2.516 E6.7497
G1 X-7.547 Y-2.023 E6.7705
G1 X-7.929 Y-1.094 E6.8039
G1 X-7.929 Y1.094 E6.8767
G1 X-7.878 Y1.247 E6.8820
;segType:Loop
G0 F4800 E5.8820
G0 X0.637 Y-1.400 F2400
G0 F4800 E6.8820
G1 X0.772 Y-1.336 E6.8870 F1200
G1 X0.976 Y-1.195 E6.8952
G1 X1.155 Y-1.023 E6.9035
G1 X1.304 Y-0.825 E6.9118
G1 X1.419 Y-0.605 E6.9200
G1 X1.498 Y-0.369 E6.9283
G1 X1.538 Y-0.124 E6.9365
G1 X1.538 Y0.124 E6.9448
G1 X1.498 Y0.369 E6.9530
G1 X1.419 Y0.605 E6.9613
G1 X1.304 Y0.825 E6.9696
G1 X1.155 Y1.023 E6.9778
G1 X0.976 Y1.195 E6.9861
G1 X0.771 Y1.336 E6.9943
G1 X0.547 Y1.443 E7.0026
G1 X0.309 Y1.512 E7.0109
G1 X0.062 Y1.542 E7.0191
G1 X-0.186 Y1.532 E7.0274
G1 X-0.429 Y1.482 E7.0356
G1 X-0.661 Y1.394 E7.0439
G1 X-0.877 Y1.270 E7.0522
G1 X-1.069 Y1.113 E7.0604
G1 X-1.234 Y0.927 E7.0687
G1 X-1.366 Y0.717 E7.0769
G1 X-1.464 Y0.488 E7.0852
G1 X-1.523 Y0.247 E7.0935
G1 X-1.543 Y0.000 E7.1017
G1 X-1.523 Y-0.247 E7.1100
G1 X-1.464 Y-0.488 E7.1182
G1 X-1.366 Y-0.717 E7.1265
G1 X-1.234 Y-0.927 E7.1348
G1 X-1.069 Y-1.113 E7.1430
G1 X-0.877 Y-1.270 E7.1513
G1 X-0.661 Y-1.394 E7.1595
G1 X-0.429 Y-1.482 E7.1678
G1 X-0.186 Y-1.532 E7.1761
G1 X0.062 Y-1.542 E7.1843
G1 X0.309 Y-1.512 E7.1926
;segType:Perimeter
G0 X-0.890 Y-1.575 F2400
G1 X-0.174 Y-1.933 E7.2192 F1200
G1 X0.078 Y-1.943 E7.2276
G1 X0.389 Y-1.905 E7.2380
G1 X0.689 Y-1.818 E7.2484
G1 X0.972 Y-1.684 E7.2588
G1 X1.230 Y-1.506 E7.2692
G1 X1.455 Y-1.289 E7.2796
G1 X1.643 Y-1.039 E7.2900
G1 X1.789 Y-0.762 E7.3004
G1 X1.888 Y-0.465 E7.3109
G1 X1.938 Y-0.156 E7.3213
G1 X1.938 Y0.156 E7.3317
G1 X1.888 Y0.465 E7.3421
G1 X1.789 Y0.762 E7.3525
G1 X1.643 Y1.039 E7.3629
G1 X1.455 Y1.289 E7.3733
G1 X1.230 Y1.506 E7.3837
G1 X0.972 Y1.684 E7.3941
G1 X0.689 Y1.818 E7.4045
G1 X0.389 Y1.905 E7.4149
G1 X0.078 Y1.943 E7.4253
G1 X-0.234 Y1.930 E7.4357
G1 X-0.541 Y1.868 E7.4461
G1 X-0.833 Y1.757 E7.4565
G1 X-1.105 Y1.600 E7.4670
G1 X-1.347 Y1.402 E7.4774
G1 X-1.554 Y1.168 E7.4878
G1 X-1.722 Y0.904 E7.4982
G1 X-1.844 Y0.616 E7.5086
G1 X-1.919 Y0.312 E7.5190
G1 X-1.944 Y0.000 E7.5294
G1 X-1.919 Y-0.312 E7.5398
G1 X-1.844 Y-0.616 E7.5502
G1 X-1.722 Y-0.904 E7.5606
G1 X-1.554 Y-1.168 E7.5710
G1 X-1.347 Y-1.402 E7.5814
G1 X-1.105 Y-1.600 E7.5918
G1 X-0.833 Y-1.757 E7.6023
G1 X-0.541 Y-1.868 E7.6127
G1 X-0.293 Y-1.918 E7.6211
G0 X0.487 Y-1.742 F2400
;segType:HShell
G0 X-1.136 Y0.313
G1 X-0.310 Y1.139 E7.6599 F1200
G0 X0.265 Y1.148 F2400
G1 X-1.148 Y-0.265 E7.7264 F1200
G0 X-0.977 Y-0.659 F2400
G1 X0.659 Y0.976 E7.8033 F1200
G0 X0.948 Y0.700 F2400
G1 X-0.701 Y-0.949 E7.8808 F1200
G0 X-0.323 Y-1.136 F2400
G1 X1.135 Y0.321 E7.9494 F1200
G0 X1.157 Y-0.222 F2400
G1 X0.219 Y-1.160 E7.9935 F1200
; ------------------------------------
; Layer #1
; ------------------------------------
M106 S0 ;turn off fan
G21 ; mm
G90 ; abs
G92 E0 ;reset extr
;segType:Loop
G0 F4800 E-1.0000
G0 Z0.400
G0 X0.533 Y-2.018
G0 E0.0000
G1 X0.602 Y-2.003 E0.0024 F3600
G1 X0.916 Y-1.880 E0.0136
G1 X1.206 Y-1.709 E0.0248
G1 X1.464 Y-1.494 E0.0360
G1 X1.685 Y-1.239 E0.0472
G1 X1.862 Y-0.953 E0.0583
G1 X1.990 Y-0.642 E0.0695
G1 X2.068 Y-0.314 E0.0807
G1 X2.091 Y0.021 E0.0919
G1 X2.061 Y0.356 E0.1031
G1 X1.977 Y0.682 E0.1143
G1 X1.842 Y0.991 E0.1255
G1 X1.659 Y1.274 E0.1367
G1 X1.434 Y1.523 E0.1479
G1 X1.171 Y1.733 E0.1591
G1 X0.877 Y1.899 E0.1703
G1 X0.561 Y2.015 E0.1815
G1 X0.231 Y2.079 E0.1927
G1 X-0.105 Y2.089 E0.2039
G1 X-0.439 Y2.045 E0.2151
G1 X-0.761 Y1.948 E0.2263
G1 X-1.064 Y1.801 E0.2375
G1 X-1.339 Y1.606 E0.2487
G1 X-1.579 Y1.371 E0.2599
G1 X-1.779 Y1.100 E0.2711
G1 X-1.932 Y0.800 E0.2822
G1 X-2.036 Y0.480 E0.2934
G1 X-2.086 Y0.147 E0.3046
G1 X-2.083 Y-0.189 E0.3158
G1 X-2.026 Y-0.521 E0.3270
G1 X-1.916 Y-0.839 E0.3382
G1 X-1.756 Y-1.136 E0.3494
G1 X-1.551 Y-1.403 E0.3606
G1 X-1.306 Y-1.634 E0.3718
G1 X-1.027 Y-1.822 E0.3830
G1 X-0.722 Y-1.963 E0.3942
G1 X-0.398 Y-2.053 E0.4054
G1 X-0.063 Y-2.091 E0.4166
G1 X0.273 Y-2.074 E0.4278
G1 X0.337 Y-2.060 E0.4300
;segType:Perimeter
G0 X-1.103 Y-2.047 F4800
G1 X-0.414 Y-2.454 E0.4566 F3600
G1 X-0.075 Y-2.492 E0.4679
G1 X0.326 Y-2.471 E0.4813
G1 X0.718 Y-2.387 E0.4946
G1 X1.091 Y-2.241 E0.5079
G1 X1.437 Y-2.037 E0.5213
G1 X1.745 Y-1.780 E0.5346
G1 X2.008 Y-1.477 E0.5480
G1 X2.219 Y-1.136 E0.5613
G1 X2.372 Y-0.765 E0.5747
G1 X2.464 Y-0.375 E0.5880
G1 X2.493 Y0.025 E0.6013
G1 X2.456 Y0.425 E0.6147
G1 X2.356 Y0.813 E0.6280
G1 X2.195 Y1.181 E0.6414
G1 X1.978 Y1.518 E0.6547
G1 X1.709 Y1.815 E0.6681
G1 X1.395 Y2.066 E0.6814
G1 X1.046 Y2.263 E0.6947
G1 X0.669 Y2.401 E0.7081
G1 X0.275 Y2.478 E0.7214
G1 X-0.126 Y2.490 E0.7348
G1 X-0.523 Y2.437 E0.7481
G1 X-0.908 Y2.322 E0.7615
G1 X-1.268 Y2.146 E0.7748
G1 X-1.596 Y1.915 E0.7881
G1 X-1.883 Y1.634 E0.8015
G1 X-2.120 Y1.311 E0.8148
G1 X-2.303 Y0.954 E0.8282
G1 X-2.426 Y0.572 E0.8415
G1 X-2.487 Y0.175 E0.8549
G1 X-2.482 Y-0.226 E0.8682
G1 X-2.414 Y-0.621 E0.8815
G1 X-2.283 Y-1.000 E0.8949
G1 X-2.093 Y-1.354 E0.9082
G1 X-1.849 Y-1.672 E0.9216
G1 X-1.557 Y-1.947 E0.9349
G1 X-1.224 Y-2.171 E0.9483
G1 X-0.860 Y-2.340 E0.9616
G1 X-0.532 Y-2.431 E0.9730
G0 X0.259 Y-2.311 F4800
;segType:HShell
G0 X-0.675 Y-1.588
G1 X-1.593 Y-0.669 E1.0162 F3600
G0 X-1.725 Y0.028 F4800
G1 X0.028 Y-1.725 E1.0986 F3600
G0 X0.518 Y-1.649 F4800
G1 X-1.646 Y0.515 E1.2004 F3600
G0 X-1.473 Y0.907 F4800
G1 X0.904 Y-1.469 E1.3122 F3600
G0 X1.222 Y-1.222 F4800
G1 X-1.219 Y1.219 E1.4271 F3600
G0 X-0.906 Y1.472 F4800
G1 X1.469 Y-0.903 E1.5388 F3600
G0 X1.650 Y-0.518 F4800
G1 X-0.515 Y1.646 E1.6406 F3600
G0 X-0.029 Y1.726 F4800
G1 X1.727 Y-0.030 E1.7232 F3600
G0 X1.587 Y0.676 F4800
G1 X0.673 Y1.590 E1.7662 F3600
; ------------------------------------
; Layer #2
; ------------------------------------
M106 S0 ;turn off fan
G21 ; mm
G90 ; abs
G92 E0 ;reset extr
;segType:Loop
G0 F4800 E-1.0000
G0 Z0.600
G0 X0.588 Y-2.382
G0 E0.0000
G1 X0.872 Y-2.300 E0.0098 F3600
G1 X1.230 Y-2.130 E0.0230
G1 X1.556 Y-1.905 E0.0362
G1 X1.841 Y-1.631 E0.0493
G1 X2.079 Y-1.315 E0.0625
G1 X2.263 Y-0.964 E0.0757
G1 X2.388 Y-0.589 E0.0888
G1 X2.452 Y-0.198 E0.1020
G1 X2.452 Y0.198 E0.1152
G1 X2.388 Y0.589 E0.1283
G1 X2.263 Y0.964 E0.1415
G1 X2.079 Y1.315 E0.1547
G1 X1.841 Y1.631 E0.1678
G1 X1.556 Y1.905 E0.1810
G1 X1.230 Y2.130 E0.1942
G1 X0.872 Y2.300 E0.2073
G1 X0.492 Y2.410 E0.2205
G1 X0.099 Y2.458 E0.2337
G1 X-0.296 Y2.442 E0.2468
G1 X-0.684 Y2.363 E0.2600
G1 X-1.055 Y2.222 E0.2732
G1 X-1.397 Y2.024 E0.2863
G1 X-1.704 Y1.774 E0.2995
G1 X-1.966 Y1.478 E0.3127
G1 X-2.178 Y1.143 E0.3258
G1 X-2.333 Y0.779 E0.3390
G1 X-2.428 Y0.395 E0.3522
G1 X-2.460 Y0.000 E0.3653
G1 X-2.428 Y-0.395 E0.3785
G1 X-2.333 Y-0.779 E0.3917
G1 X-2.178 Y-1.143 E0.4048
G1 X-1.966 Y-1.478 E0.4180
G1 X-1.704 Y-1.774 E0.4312
G1 X-1.397 Y-2.024 E0.4443
G1 X-1.055 Y-2.222 E0.4575
G1 X-0.684 Y-2.363 E0.4707
G1 X-0.296 Y-2.442 E0.4838
G1 X0.099 Y-2.458 E0.4970
G1 X0.393 Y-2.422 E0.5068
;segType:Perimeter
G0 X-1.001 Y-2.485 F4800
G1 X-0.285 Y-2.843 E0.5334 F3600
G1 X0.115 Y-2.859 E0.5468
G1 X0.572 Y-2.803 E0.5621
G1 X1.015 Y-2.675 E0.5774
G1 X1.431 Y-2.478 E0.5927
G1 X1.810 Y-2.216 E0.6080
G1 X2.141 Y-1.897 E0.6233
G1 X2.418 Y-1.529 E0.6387
G1 X2.632 Y-1.122 E0.6540
G1 X2.778 Y-0.685 E0.6693
G1 X2.852 Y-0.230 E0.6846
G1 X2.852 Y0.230 E0.6999
G1 X2.778 Y0.685 E0.7152
G1 X2.632 Y1.122 E0.7305
G1 X2.418 Y1.529 E0.7458
G1 X2.141 Y1.897 E0.7612
G1 X1.810 Y2.216 E0.7765
G1 X1.430 Y2.478 E0.7918
G1 X1.015 Y2.675 E0.8071
G1 X0.572 Y2.803 E0.8224
G1 X0.115 Y2.859 E0.8377
G1 X-0.345 Y2.840 E0.8531
G1 X-0.796 Y2.748 E0.8684
G1 X-1.227 Y2.585 E0.8837
G1 X-1.625 Y2.355 E0.8990
G1 X-1.982 Y2.063 E0.9143
G1 X-2.287 Y1.719 E0.9296
G1 X-2.533 Y1.329 E0.9449
G1 X-2.714 Y0.906 E0.9603
G1 X-2.824 Y0.459 E0.9756
G1 X-2.861 Y0.000 E0.9909
G1 X-2.824 Y-0.459 E1.0062
G1 X-2.714 Y-0.906 E1.0215
G1 X-2.533 Y-1.329 E1.0368
G1 X-2.287 Y-1.719 E1.0521
G1 X-1.982 Y-2.063 E1.0675
G1 X-1.625 Y-2.355 E1.0828
G1 X-1.227 Y-2.585 E1.0981
G1 X-0.796 Y-2.748 E1.1134
G1 X-0.404 Y-2.828 E1.1267
G0 X0.377 Y-2.653 F4800
;segType:HShell
G0 X2.043 Y-0.468
G1 X0.469 Y-2.042 E1.2008 F3600
G0 X-0.143 Y-2.088 F4800
G1 X2.092 Y0.147 E1.3059 F3600
G0 X1.999 Y0.619 F4800
G1 X-0.622 Y-2.001 E1.4291 F3600
G0 X-1.015 Y-1.829 F4800
G1 X1.829 Y1.016 E1.5629 F3600
G0 X1.600 Y1.352 F4800
G1 X-1.350 Y-1.598 E1.7017 F3600
G0 X-1.631 Y-1.313 F4800
G1 X1.316 Y1.633 E1.8403 F3600
G0 X0.971 Y1.854 F4800
G1 X-1.858 Y-0.975 E1.9734 F3600
G0 X-2.015 Y-0.566 F4800
G1 X0.565 Y2.014 E2.0947 F3600
G0 X0.082 Y2.097 F4800
G1 X-2.092 Y-0.078 E2.1970 F3600
G0 X-2.015 Y0.565 F4800
G1 X-0.560 Y2.020 E2.2654 F3600
; ------------------------------------
; Layer #3
; ------------------------------------
M106 S255 ;set fan speed
G21 ; mm
G90 ; abs
G92 E0 ;reset extr
;segType:Loop
G0 F4800 E-1.0000
G0 Z0.800
G0 X0.629 Y-2.661
G0 E0.0000
G1 X0.958 Y-2.568 E0.0113 F3600
G1 X1.357 Y-2.381 E0.0260
G1 X1.722 Y-2.133 E0.0407
G1 X2.042 Y-1.829 E0.0554
G1 X2.309 Y-1.478 E0.0700
G1 X2.516 Y-1.089 E0.0847
G1 X2.658 Y-0.671 E0.0994
G1 X2.731 Y-0.236 E0.1141
G1 X2.733 Y0.205 E0.1287
G1 X2.665 Y0.641 E0.1434
G1 X2.528 Y1.060 E0.1581
G1 X2.325 Y1.452 E0.1727
G1 X2.062 Y1.806 E0.1874
G1 X1.745 Y2.114 E0.2021
G1 X1.384 Y2.366 E0.2168
G1 X0.986 Y2.558 E0.2314
G1 X0.563 Y2.683 E0.2461
G1 X0.125 Y2.738 E0.2608
G1 X-0.315 Y2.723 E0.2755
G1 X-0.748 Y2.637 E0.2901
G1 X-1.161 Y2.483 E0.3048
G1 X-1.544 Y2.265 E0.3195
G1 X-1.888 Y1.987 E0.3341
G1 X-2.182 Y1.659 E0.3488
G1 X-2.420 Y1.287 E0.3635
G1 X-2.595 Y0.882 E0.3782
G1 X-2.703 Y0.455 E0.3928
G1 X-2.741 Y0.015 E0.4075
G1 X-2.708 Y-0.424 E0.4222
G1 X-2.605 Y-0.853 E0.4368
G1 X-2.434 Y-1.260 E0.4515
G1 X-2.201 Y-1.635 E0.4662
G1 X-1.910 Y-1.966 E0.4809
G1 X-1.570 Y-2.247 E0.4955
G1 X-1.189 Y-2.470 E0.5102
G1 X-0.777 Y-2.629 E0.5249
G1 X-0.346 Y-2.719 E0.5396
G1 X0.095 Y-2.740 E0.5542
G1 X0.434 Y-2.700 E0.5656
;segType:Perimeter
G0 X-1.050 Y-2.759 F4800
G1 X-0.336 Y-3.120 E0.5922 F3600
G1 X0.109 Y-3.141 E0.6070
G1 X0.611 Y-3.082 E0.6238
G1 X1.098 Y-2.944 E0.6406
G1 X1.556 Y-2.730 E0.6575
G1 X1.974 Y-2.445 E0.6743
G1 X2.340 Y-2.097 E0.6911
G1 X2.647 Y-1.694 E0.7079
G1 X2.884 Y-1.248 E0.7247
G1 X3.047 Y-0.769 E0.7416
G1 X3.131 Y-0.270 E0.7584
G1 X3.134 Y0.235 E0.7752
G1 X3.055 Y0.735 E0.7920
G1 X2.898 Y1.216 E0.8088
G1 X2.665 Y1.665 E0.8257
G1 X2.364 Y2.071 E0.8425
G1 X2.001 Y2.423 E0.8593
G1 X1.586 Y2.713 E0.8761
G1 X1.131 Y2.932 E0.8929
G1 X0.646 Y3.075 E0.9098
G1 X0.144 Y3.139 E0.9266
G1 X-0.361 Y3.122 E0.9434
G1 X-0.858 Y3.023 E0.9602
G1 X-1.331 Y2.847 E0.9771
G1 X-1.771 Y2.596 E0.9939
G1 X-2.164 Y2.278 E1.0107
G1 X-2.502 Y1.902 E1.0275
G1 X-2.774 Y1.476 E1.0443
G1 X-2.975 Y1.012 E1.0612
G1 X-3.099 Y0.521 E1.0780
G1 X-3.142 Y0.017 E1.0948
G1 X-3.105 Y-0.487 E1.1116
G1 X-2.986 Y-0.978 E1.1284
G1 X-2.791 Y-1.445 E1.1453
G1 X-2.523 Y-1.874 E1.1621
G1 X-2.189 Y-2.254 E1.1789
G1 X-1.800 Y-2.576 E1.1957
G1 X-1.363 Y-2.832 E1.2125
G1 X-0.891 Y-3.013 E1.2294
G1 X-0.455 Y-3.105 E1.2442
G0 X0.327 Y-2.934 F4800
;segType:HShell
G0 X0.504 Y2.325
G1 X2.322 Y0.507 E1.3297 F3600
G0 X2.371 Y-0.109 F4800
G1 X-0.107 Y2.370 E1.4463 F3600
G0 X-0.602 Y2.299 F4800
G1 X2.300 Y-0.603 E1.5828 F3600
G0 X2.147 Y-1.015 F4800
G1 X-1.019 Y2.150 E1.7317 F3600
G0 X-1.374 Y1.940 F4800
G1 X1.937 Y-1.372 E1.8874 F3600
G0 X1.678 Y-1.678 F4800
G1 X-1.680 Y1.680 E2.0454 F3600
G0 X-1.938 Y1.372 F4800
G1 X1.371 Y-1.936 E2.2010 F3600
G0 X1.013 Y-2.145 F4800
G1 X-2.146 Y1.014 E2.3496 F3600
G0 X-2.296 Y0.598 F4800
G1 X0.599 Y-2.296 E2.4858 F3600
G0 X0.112 Y-2.375 F4800
G1 X-2.372 Y0.109 E2.6026 F3600
G0 X-2.317 Y-0.512 F4800
G1 X-0.512 Y-2.316 E2.6875 F3600
; ------------------------------------
; Layer #4
; ------------------------------------
M106 S255 ;set fan speed
G21 ; mm
G90 ; abs
G92 E0 ;reset extr
;segType:Loop
G0 F4800 E-1.0000
G0 Z1.000
G0 X0.685 Y-2.858
G0 E0.0000
G1 X1.044 Y-2.754 E0.0124 F3600
G1 X1.473 Y-2.551 E0.0282
G1 X1.863 Y-2.281 E0.0440
G1 X2.205 Y-1.953 E0.0597
G1 X2.489 Y-1.574 E0.0755
G1 X2.710 Y-1.155 E0.0913
G1 X2.860 Y-0.705 E0.1070
G1 X2.936 Y-0.237 E0.1228
G1 X2.936 Y0.237 E0.1386
G1 X2.860 Y0.705 E0.1543
G1 X2.710 Y1.155 E0.1701
G1 X2.489 Y1.574 E0.1859
G1 X2.205 Y1.953 E0.2016
G1 X1.863 Y2.281 E0.2174
G1 X1.473 Y2.551 E0.2332
G1 X1.044 Y2.754 E0.2489
G1 X0.589 Y2.886 E0.2647
G1 X0.119 Y2.943 E0.2805
G1 X-0.355 Y2.924 E0.2962
G1 X-0.819 Y2.829 E0.3120
G1 X-1.263 Y2.661 E0.3278
G1 X-1.673 Y2.424 E0.3435
G1 X-2.040 Y2.124 E0.3593
G1 X-2.355 Y1.769 E0.3751
G1 X-2.608 Y1.369 E0.3908
G1 X-2.794 Y0.933 E0.4066
G1 X-2.907 Y0.473 E0.4223
G1 X-2.945 Y0.000 E0.4381
G1 X-2.907 Y-0.473 E0.4539
G1 X-2.794 Y-0.933 E0.4696
G1 X-2.608 Y-1.369 E0.4854
G1 X-2.355 Y-1.769 E0.5012
G1 X-2.040 Y-2.124 E0.5169
G1 X-1.673 Y-2.424 E0.5327
G1 X-1.263 Y-2.661 E0.5485
G1 X-0.819 Y-2.829 E0.5642
G1 X-0.355 Y-2.924 E0.5800
G1 X0.119 Y-2.943 E0.5958
;segType:Perimeter
G0 X-1.059 Y-2.967 F4800
G1 X-0.344 Y-3.325 E0.6224 F3600
G1 X0.135 Y-3.344 E0.6383
G1 X0.669 Y-3.279 E0.6562
G1 X1.187 Y-3.129 E0.6741
G1 X1.673 Y-2.898 E0.6920
G1 X2.117 Y-2.592 E0.7100
G1 X2.505 Y-2.219 E0.7279
G1 X2.828 Y-1.789 E0.7458
G1 X3.079 Y-1.312 E0.7637
G1 X3.249 Y-0.801 E0.7816
G1 X3.336 Y-0.269 E0.7995
G1 X3.336 Y0.269 E0.8174
G1 X3.249 Y0.801 E0.8353
G1 X3.079 Y1.312 E0.8533
G1 X2.828 Y1.789 E0.8712
G1 X2.505 Y2.219 E0.8891
G1 X2.117 Y2.592 E0.9070
G1 X1.673 Y2.898 E0.9249
G1 X1.187 Y3.129 E0.9428
G1 X0.669 Y3.279 E0.9607
G1 X0.135 Y3.344 E0.9787
G1 X-0.403 Y3.322 E0.9966
G1 X-0.931 Y3.215 E1.0145
G1 X-1.435 Y3.024 E1.0324
G1 X-1.901 Y2.754 E1.0503
G1 X-2.318 Y2.414 E1.0682
G1 X-2.676 Y2.011 E1.0861
G1 X-2.963 Y1.555 E1.1041
G1 X-3.174 Y1.060 E1.1220
G1 X-3.303 Y0.537 E1.1399
G1 X-3.347 Y0.000 E1.1578
G1 X-3.303 Y-0.537 E1.1757
G1 X-3.174 Y-1.060 E1.1936
G1 X-2.963 Y-1.555 E1.2115
G1 X-2.676 Y-2.011 E1.2295
G1 X-2.318 Y-2.414 E1.2474
G1 X-1.901 Y-2.754 E1.2653
G1 X-1.435 Y-3.024 E1.2832
G1 X-0.931 Y-3.215 E1.3011
G1 X-0.462 Y-3.310 E1.3170
G0 X0.318 Y-3.135 F4800
;segType:Infill
G0 X-0.323 Y-1.136
G1 X1.135 Y0.321 E1.3993 F3600
;segType:HShell
G0 X0.556 Y-2.521 F4800
G1 X2.519 Y-0.558 E1.4916 F3600
G0 X2.576 Y0.065 F4800
G1 X-0.064 Y-2.575 E1.6158 F3600
G0 X-0.568 Y-2.513 F4800
G1 X2.517 Y0.572 E1.7609 F3600
G0 X2.381 Y1.002 F4800
G1 X1.157 Y-0.222 E1.8185 F3600
G0 X1.135 Y0.321 F4800
G1 X2.188 Y1.374 E1.8680 F3600
G0 X1.946 Y1.698 F4800
G1 X0.948 Y0.700 E1.9149 F3600
G0 X0.659 Y0.976 F4800
G1 X1.660 Y1.977 E1.9620 F3600
G0 X1.329 Y2.212 F4800
G1 X0.265 Y1.148 E2.0121 F3600
G0 X-0.310 Y1.139 F4800
G1 X0.951 Y2.400 E2.0714 F3600
G0 X0.517 Y2.532 F4800
G1 X-2.527 Y-0.512 E2.2146 F3600
G0 X-2.584 Y-0.003 F4800
G1 X-0.003 Y2.578 E2.3360 F3600
G0 X-0.650 Y2.496 F4800
G1 X-2.491 Y0.655 E2.4226 F3600
G0 X-2.396 Y-0.947 F4800
G1 X-1.136 Y0.313 E2.4819 F3600
G0 X-1.148 Y-0.265 F4800
G1 X-2.209 Y-1.326 E2.5318 F3600
G0 X-1.974 Y-1.656 F4800
G1 X-0.977 Y-0.659 E2.5787 F3600
G0 X-0.701 Y-0.949 F4800
G1 X-1.694 Y-1.942 E2.6254 F3600
G0 X-1.370 Y-2.183 F4800
G1 X-0.323 Y-1.136 E2.6747 F3600
G0 X0.219 Y-1.160 F4800
G1 X-0.997 Y-2.377 E2.7319 F3600
; ------------------------------------
; Layer #5
; ------------------------------------
M106 S255 ;set fan speed
G21 ; mm
G90 ; abs
G92 E0 ;reset extr
;segType:Loop
G0 F4800 E-1.0000
G0 Z1.200
G0 X0.637 Y-3.072
G0 E0.0000
G1 X0.644 Y-3.071 E0.0002 F3600
G1 X1.128 Y-2.928 E0.0170
G1 X1.583 Y-2.709 E0.0338
G1 X1.997 Y-2.420 E0.0506
G1 X2.359 Y-2.068 E0.0674
G1 X2.661 Y-1.663 E0.0842
G1 X2.893 Y-1.215 E0.1010
G1 X3.050 Y-0.735 E0.1178
G1 X3.129 Y-0.236 E0.1346
G1 X3.126 Y0.269 E0.1514
G1 X3.042 Y0.767 E0.1682
G1 X2.880 Y1.245 E0.1850
G1 X2.643 Y1.691 E0.2018
G1 X2.337 Y2.093 E0.2186
G1 X1.972 Y2.441 E0.2353
G1 X1.555 Y2.725 E0.2521
G1 X1.097 Y2.940 E0.2689
G1 X0.612 Y3.077 E0.2857
G1 X0.110 Y3.136 E0.3025
G1 X-0.394 Y3.113 E0.3193
G1 X-0.889 Y3.009 E0.3361
G1 X-1.360 Y2.827 E0.3529
G1 X-1.796 Y2.573 E0.3697
G1 X-2.185 Y2.251 E0.3865
G1 X-2.518 Y1.872 E0.4033
G1 X-2.786 Y1.443 E0.4201
G1 X-2.981 Y0.978 E0.4369
G1 X-3.100 Y0.487 E0.4537
G1 X-3.138 Y-0.016 E0.4705
G1 X-3.094 Y-0.520 E0.4873
G1 X-2.971 Y-1.009 E0.5041
G1 X-2.771 Y-1.473 E0.5208
G1 X-2.498 Y-1.898 E0.5376
G1 X-2.162 Y-2.274 E0.5544
G1 X-1.769 Y-2.591 E0.5712
G1 X-1.330 Y-2.842 E0.5880
G1 X-0.857 Y-3.018 E0.6048
G1 X-0.362 Y-3.117 E0.6216
G1 X0.143 Y-3.134 E0.6384
G1 X0.439 Y-3.097 E0.6483
;segType:Perimeter
G0 X-1.066 Y-3.164 F4800
G1 X-0.348 Y-3.517 E0.6749 F3600
G1 X0.161 Y-3.535 E0.6919
G1 X0.726 Y-3.464 E0.7108
G1 X1.272 Y-3.302 E0.7298
G1 X1.785 Y-3.055 E0.7487
G1 X2.252 Y-2.729 E0.7676
G1 X2.661 Y-2.333 E0.7866
G1 X3.001 Y-1.876 E0.8055
G1 X3.263 Y-1.370 E0.8245
G1 X3.440 Y-0.829 E0.8434
G1 X3.529 Y-0.266 E0.8624
G1 X3.526 Y0.303 E0.8813
G1 X3.432 Y0.865 E0.9002
G1 X3.248 Y1.404 E0.9192
G1 X2.981 Y1.907 E0.9381
G1 X2.636 Y2.361 E0.9571
G1 X2.224 Y2.753 E0.9760
G1 X1.753 Y3.074 E0.9950
G1 X1.237 Y3.315 E1.0139
G1 X0.690 Y3.471 E1.0328
G1 X0.124 Y3.537 E1.0518
G1 X-0.445 Y3.511 E1.0707
G1 X-1.002 Y3.394 E1.0897
G1 X-1.534 Y3.189 E1.1086
G1 X-2.026 Y2.902 E1.1276
G1 X-2.465 Y2.539 E1.1465
G1 X-2.840 Y2.111 E1.1654
G1 X-3.142 Y1.628 E1.1844
G1 X-3.363 Y1.103 E1.2033
G1 X-3.496 Y0.549 E1.2223
G1 X-3.539 Y-0.019 E1.2412
G1 X-3.490 Y-0.586 E1.2601
G1 X-3.351 Y-1.138 E1.2791
G1 X-3.125 Y-1.661 E1.2980
G1 X-2.818 Y-2.141 E1.3170
G1 X-2.438 Y-2.565 E1.3359
G1 X-1.995 Y-2.923 E1.3549
G1 X-1.500 Y-3.205 E1.3738
G1 X-0.967 Y-3.404 E1.3927
G1 X-0.467 Y-3.504 E1.4097
G0 X0.313 Y-3.324 F4800
;segType:Infill
G0 X1.222 Y-1.222
G1 X-1.219 Y1.219 E1.5475 F3600
;segType:HShell
G0 X-0.715 Y-2.679 F4800
G1 X-2.672 Y-0.722 E1.6396 F3600
G0 X-2.773 Y-0.056 F4800
G1 X-0.062 Y-2.767 E1.7671 F3600
G0 X0.467 Y-2.730 F4800
G1 X-0.675 Y-1.588 E1.8208 F3600
G0 X0.028 Y-1.725 F4800
G1 X0.917 Y-2.615 E1.8626 F3600
G0 X1.309 Y-2.441 F4800
G1 X0.518 Y-1.649 E1.8999 F3600
G0 X0.904 Y-1.469 F4800
G1 X1.654 Y-2.220 E1.9352 F3600
G0 X1.957 Y-1.957 F4800
G1 X1.222 Y-1.222 E1.9697 F3600
G0 X1.469 Y-0.903 F4800
G1 X2.219 Y-1.653 E2.0050 F3600
G0 X2.439 Y-1.308 F4800
G1 X1.650 Y-0.518 E2.0421 F3600
G0 X1.727 Y-0.030 F4800
G1 X2.612 Y-0.915 E2.0838 F3600
G0 X2.728 Y-0.465 F4800
G1 X1.587 Y0.676 E2.1375 F3600
G0 X0.723 Y2.671 F4800
G1 X2.680 Y0.714 E2.2295 F3600
G0 X2.767 Y0.061 F4800
G1 X0.056 Y2.773 E2.3571 F3600
G0 X-0.467 Y2.730 F4800
G1 X0.673 Y1.590 E2.4107 F3600
G0 X-0.029 Y1.726 F4800
G1 X-0.916 Y2.613 E2.4524 F3600
G0 X-1.309 Y2.440 F4800
G1 X-0.515 Y1.646 E2.4897 F3600
G0 X-0.906 Y1.471 F4800
G1 X-1.656 Y2.222 E2.5250 F3600
G0 X-1.961 Y1.961 F4800
G1 X-1.219 Y1.219 E2.5599 F3600
G0 X-1.473 Y0.907 F4800
G1 X-2.225 Y1.660 E2.5953 F3600
G0 X-2.443 Y1.312 F4800
G1 X-1.646 Y0.515 E2.6328 F3600
G0 X-1.725 Y0.028 F4800
G1 X-2.616 Y0.919 E2.6747 F3600
G0 X-2.733 Y0.470 F4800
G1 X-1.593 Y-0.669 E2.7283 F3600
; ------------------------------------
; Layer #6
; ------------------------------------
M106 S255 ;set fan speed
G21 ; mm
G90 ; abs
G92 E0 ;reset extr
;segType:Loop
G0 F4800 E-1.0000
G0 Z1.400
G0 X0.604 Y-3.217
G0 E0.0000
G1 X0.655 Y-3.211 E0.0017 F3600
G1 X1.162 Y-3.064 E0.0193
G1 X1.639 Y-2.838 E0.0368
G1 X2.072 Y-2.538 E0.0543
G1 X2.453 Y-2.173 E0.0719
G1 X2.770 Y-1.751 E0.0894
G1 X3.015 Y-1.284 E0.1070
G1 X3.182 Y-0.784 E0.1245
G1 X3.266 Y-0.264 E0.1420
G1 X3.266 Y0.264 E0.1596
G1 X3.182 Y0.784 E0.1771
G1 X3.015 Y1.284 E0.1947
G1 X2.770 Y1.751 E0.2122
G1 X2.453 Y2.173 E0.2297
G1 X2.072 Y2.538 E0.2473
G1 X1.639 Y2.838 E0.2648
G1 X1.162 Y3.064 E0.2824
G1 X0.655 Y3.211 E0.2999
G1 X0.132 Y3.274 E0.3175
G1 X-0.395 Y3.253 E0.3350
G1 X-0.912 Y3.148 E0.3525
G1 X-1.405 Y2.961 E0.3701
G1 X-1.862 Y2.697 E0.3876
G1 X-2.270 Y2.363 E0.4052
G1 X-2.620 Y1.969 E0.4227
G1 X-2.902 Y1.523 E0.4402
G1 X-3.108 Y1.038 E0.4578
G1 X-3.235 Y0.526 E0.4753
G1 X-3.277 Y0.000 E0.4929
G1 X-3.235 Y-0.526 E0.5104
G1 X-3.108 Y-1.038 E0.5279
G1 X-2.902 Y-1.523 E0.5455
G1 X-2.620 Y-1.969 E0.5630
G1 X-2.270 Y-2.363 E0.5806
G1 X-1.862 Y-2.697 E0.5981
G1 X-1.405 Y-2.961 E0.6156
G1 X-0.912 Y-3.148 E0.6332
G1 X-0.395 Y-3.253 E0.6507
G1 X0.132 Y-3.274 E0.6683
G1 X0.406 Y-3.241 E0.6774
;segType:Perimeter
G0 X-1.099 Y-3.296 F4800
G1 X-0.383 Y-3.654 E0.7040 F3600
G1 X0.148 Y-3.675 E0.7217
G1 X0.736 Y-3.604 E0.7414
G1 X1.304 Y-3.439 E0.7611
G1 X1.839 Y-3.186 E0.7808
G1 X2.326 Y-2.849 E0.8005
G1 X2.753 Y-2.439 E0.8202
G1 X3.109 Y-1.966 E0.8399
G1 X3.384 Y-1.442 E0.8596
G1 X3.571 Y-0.880 E0.8792
G1 X3.666 Y-0.296 E0.8989
G1 X3.666 Y0.296 E0.9186
G1 X3.571 Y0.880 E0.9383
G1 X3.384 Y1.442 E0.9580
G1 X3.109 Y1.966 E0.9777
G1 X2.753 Y2.439 E0.9974
G1 X2.326 Y2.849 E1.0171
G1 X1.839 Y3.186 E1.0368
G1 X1.304 Y3.439 E1.0564
G1 X0.736 Y3.604 E1.0761
G1 X0.148 Y3.675 E1.0958
G1 X-0.443 Y3.651 E1.1155
G1 X-1.023 Y3.533 E1.1352
G1 X-1.577 Y3.323 E1.1549
G1 X-2.090 Y3.027 E1.1746
G1 X-2.548 Y2.653 E1.1943
G1 X-2.941 Y2.210 E1.2140
G1 X-3.257 Y1.709 E1.2336
G1 X-3.489 Y1.165 E1.2533
G1 X-3.631 Y0.590 E1.2730
G1 X-3.678 Y0.000 E1.2927
G1 X-3.631 Y-0.590 E1.3124
G1 X-3.489 Y-1.165 E1.3321
G1 X-3.257 Y-1.709 E1.3518
G1 X-2.941 Y-2.210 E1.3715
G1 X-2.548 Y-2.653 E1.3912
G1 X-2.090 Y-3.027 E1.4108
G1 X-1.577 Y-3.323 E1.4305
G1 X-1.023 Y-3.533 E1.4502
G1 X-0.502 Y-3.639 E1.4679
G0 X0.278 Y-3.464 F4800
;segType:Infill
G0 X1.289 Y0.475
G1 X-0.476 Y-1.289 E1.5675 F3600
;segType:HShell
G0 X-0.002 Y-1.382 F4800
G1 X-1.253 Y-2.632 E1.6263 F3600
G0 X-1.612 Y-2.425 F4800
G1 X-0.476 Y-1.289 E1.6798 F3600
G0 X-0.844 Y-1.092 F4800
G1 X-1.929 Y-2.177 E1.7308 F3600
G0 X-2.208 Y-1.890 F4800
G1 X-1.119 Y-0.801 E1.7820 F3600
G0 X-1.307 Y-0.424 F4800
G1 X-2.449 Y-1.565 E1.8357 F3600
G0 X-2.648 Y-1.199 F4800
G1 X-1.374 Y0.075 E1.8956 F3600
G0 X-0.972 Y2.739 F4800
G1 X-2.749 Y0.963 E1.9792 F3600
G0 X-2.896 Y0.251 F4800
G1 X-0.248 Y2.899 E2.1038 F3600
G0 X0.310 Y2.890 F4800
G1 X-2.891 Y-0.310 E2.2543 F3600
G0 X-2.800 Y-0.785 F4800
G1 X0.784 Y2.799 E2.4229 F3600
G0 X1.199 Y2.648 F4800
G1 X-0.075 Y1.374 E2.4828 F3600
G0 X0.424 Y1.307 F4800
G1 X1.567 Y2.450 E2.5365 F3600
G0 X1.893 Y2.211 F4800
G1 X0.802 Y1.119 E2.5879 F3600
G0 X1.092 Y0.844 F4800
G1 X2.182 Y1.934 E2.6391 F3600
G0 X2.425 Y1.611 F4800
G1 X1.289 Y0.475 E2.6926 F3600
G0 X1.382 Y0.003 F4800
G1 X2.627 Y1.248 E2.7511 F3600
G0 X2.784 Y0.839 F4800
G1 X-0.843 Y-2.788 E2.9217 F3600
G0 X-0.378 Y-2.889 F4800
G1 X2.884 Y0.373 E3.0752 F3600
G0 X2.906 Y-0.170 F4800
G1 X0.169 Y-2.907 E3.2039 F3600
G0 X0.868 Y-2.774 F4800
G1 X2.774 Y-0.868 E3.2936 F3600
; ------------------------------------
; Layer #7
; ------------------------------------
M106 S255 ;set fan speed
G21 ; mm
G90 ; abs
G92 E0 ;reset extr
;segType:Loop
G0 F4800 E-1.0000
G0 Z1.600
G0 X0.564 Y-3.359
G0 E0.0000
G1 X0.659 Y-3.348 E0.0032 F3600
G1 X1.188 Y-3.199 E0.0214
G1 X1.685 Y-2.967 E0.0397
G1 X2.140 Y-2.659 E0.0580
G1 X2.538 Y-2.281 E0.0762
G1 X2.871 Y-1.845 E0.0945
G1 X3.130 Y-1.360 E0.1128
G1 X3.308 Y-0.840 E0.1310
G1 X3.400 Y-0.299 E0.1493
G1 X3.403 Y0.251 E0.1676
G1 X3.319 Y0.793 E0.1858
G1 X3.149 Y1.315 E0.2041
G1 X2.897 Y1.804 E0.2224
G1 X2.570 Y2.245 E0.2406
G1 X2.177 Y2.628 E0.2589
G1 X1.727 Y2.943 E0.2772
G1 X1.233 Y3.182 E0.2954
G1 X0.706 Y3.339 E0.3137
G1 X0.162 Y3.409 E0.3320
G1 X-0.387 Y3.391 E0.3502
G1 X-0.926 Y3.284 E0.3685
G1 X-1.441 Y3.093 E0.3868
G1 X-1.919 Y2.822 E0.4050
G1 X-2.346 Y2.478 E0.4233
G1 X-2.714 Y2.069 E0.4416
G1 X-3.011 Y1.607 E0.4598
G1 X-3.229 Y1.104 E0.4781
G1 X-3.365 Y0.571 E0.4964
G1 X-3.412 Y0.024 E0.5146
G1 X-3.372 Y-0.523 E0.5329
G1 X-3.245 Y-1.058 E0.5512
G1 X-3.033 Y-1.564 E0.5694
G1 X-2.743 Y-2.031 E0.5877
G1 X-2.381 Y-2.444 E0.6060
G1 X-1.958 Y-2.795 E0.6242
G1 X-1.485 Y-3.073 E0.6425
G1 X-0.973 Y-3.271 E0.6608
G1 X-0.435 Y-3.385 E0.6790
G1 X0.113 Y-3.411 E0.6973
G1 X0.365 Y-3.382 E0.7058
;segType:Perimeter
G0 X-1.140 Y-3.423 F4800
G1 X-0.427 Y-3.786 E0.7324 F3600
G1 X0.127 Y-3.812 E0.7508
G1 X0.736 Y-3.742 E0.7712
G1 X1.327 Y-3.576 E0.7916
G1 X1.884 Y-3.316 E0.8120
G1 X2.391 Y-2.971 E0.8324
G1 X2.837 Y-2.549 E0.8529
G1 X3.209 Y-2.061 E0.8733
G1 X3.498 Y-1.520 E0.8937
G1 X3.697 Y-0.939 E0.9141
G1 X3.799 Y-0.334 E0.9345
G1 X3.804 Y0.280 E0.9549
G1 X3.709 Y0.887 E0.9754
G1 X3.519 Y1.470 E0.9958
G1 X3.238 Y2.016 E1.0162
G1 X2.873 Y2.509 E1.0366
G1 X2.433 Y2.937 E1.0570
G1 X1.930 Y3.289 E1.0774
G1 X1.378 Y3.556 E1.0978
G1 X0.789 Y3.731 E1.1183
G1 X0.181 Y3.810 E1.1387
G1 X-0.433 Y3.789 E1.1591
G1 X-1.035 Y3.671 E1.1795
G1 X-1.611 Y3.457 E1.1999
G1 X-2.144 Y3.154 E1.2203
G1 X-2.622 Y2.769 E1.2407
G1 X-3.033 Y2.313 E1.2612
G1 X-3.365 Y1.796 E1.2816
G1 X-3.609 Y1.233 E1.3020
G1 X-3.760 Y0.638 E1.3224
G1 X-3.814 Y0.027 E1.3428
G1 X-3.769 Y-0.585 E1.3632
G1 X-3.626 Y-1.182 E1.3836
G1 X-3.390 Y-1.748 E1.4041
G1 X-3.065 Y-2.270 E1.4245
G1 X-2.661 Y-2.732 E1.4449
G1 X-2.189 Y-3.123 E1.4653
G1 X-1.659 Y-3.434 E1.4857
G1 X-1.087 Y-3.656 E1.5061
G1 X-0.545 Y-3.770 E1.5245
G0 X0.236 Y-3.600 F4800
;segType:Infill
G0 X-0.970 Y0.970
G1 X0.970 Y-0.970 E1.6341 F3600
;segType:HShell
G0 X-1.139 Y-2.820 F4800
G1 X-2.820 Y-1.140 E1.7131 F3600
G0 X-3.022 Y-0.372 F4800
G1 X-0.367 Y-3.027 E1.8381 F3600
G0 X0.209 Y-3.037 F4800
G1 X-3.035 Y0.207 E1.9906 F3600
G0 X-2.961 Y0.698 F4800
G1 X0.700 Y-2.963 E2.1628 F3600
G0 X1.131 Y-2.828 F4800
G1 X-0.375 Y-1.322 E2.2337 F3600
G0 X0.224 Y-1.355 F4800
G1 X1.516 Y-2.647 E2.2945 F3600
G0 X1.853 Y-2.418 F4800
G1 X0.649 Y-1.214 E2.3511 F3600
G0 X0.970 Y-0.970 F4800
G1 X2.151 Y-2.151 E2.4067 F3600
G0 X2.415 Y-1.849 F4800
G1 X1.213 Y-0.647 E2.4632 F3600
G0 X1.356 Y-0.225 F4800
G1 X2.642 Y-1.510 E2.5236 F3600
G0 X2.828 Y-1.131 F4800
G1 X1.324 Y0.373 E2.5944 F3600
G0 X1.126 Y2.834 F4800
G1 X2.831 Y1.129 E2.6746 F3600
G0 X3.020 Y0.374 F4800
G1 X0.376 Y3.018 E2.7989 F3600
G0 X-0.208 Y3.036 F4800
G1 X3.040 Y-0.212 E2.9517 F3600
G0 X2.966 Y-0.703 F4800
G1 X-0.699 Y2.962 E3.1241 F3600
G0 X-1.128 Y2.825 F4800
G1 X0.375 Y1.322 E3.1948 F3600
G0 X-0.224 Y1.355 F4800
G1 X-1.509 Y2.641 E3.2553 F3600
G0 X-1.850 Y2.415 F4800
G1 X-0.649 Y1.214 E3.3118 F3600
G0 X-0.970 Y0.970 F4800
G1 X-2.154 Y2.154 E3.3674 F3600
G0 X-2.421 Y1.856 F4800
G1 X-1.213 Y0.647 E3.4243 F3600
G0 X-1.356 Y0.225 F4800
G1 X-2.644 Y1.512 E3.4848 F3600
G0 X-2.826 Y1.129 F4800
G1 X-1.324 Y-0.373 E3.5554 F3600
; ------------------------------------
; Layer #8
; ------------------------------------
M106 S255 ;set fan speed
G21 ; mm
G90 ; abs
G92 E0 ;reset extr
;segType:Loop
G0 F4800 E-1.0000
G0 Z1.800
G0 X0.626 Y-3.445
G0 E0.0000
G1 X0.764 Y-3.426 E0.0046 F3600
G1 X1.309 Y-3.256 E0.0236
G1 X1.819 Y-3.001 E0.0426
G1 X2.281 Y-2.667 E0.0616
G1 X2.683 Y-2.262 E0.0805
G1 X3.013 Y-1.797 E0.0995
G1 X3.265 Y-1.285 E0.1185
G1 X3.430 Y-0.736 E0.1375
G1 X3.505 Y-0.169 E0.1566
G1 X3.505 Y0.169 E0.1678
G1 X3.430 Y0.736 E0.1868
G1 X3.265 Y1.285 E0.2059
G1 X3.013 Y1.797 E0.2249
G1 X2.683 Y2.262 E0.2438
G1 X2.281 Y2.667 E0.2628
G1 X1.819 Y3.001 E0.2818
G1 X1.309 Y3.256 E0.3007
G1 X0.764 Y3.426 E0.3197
G1 X0.199 Y3.504 E0.3387
G1 X-0.372 Y3.490 E0.3577
G1 X-0.932 Y3.384 E0.3767
G1 X-1.468 Y3.188 E0.3956
G1 X-1.966 Y2.909 E0.4146
G1 X-2.411 Y2.552 E0.4336
G1 X-2.793 Y2.127 E0.4526
G1 X-3.101 Y1.647 E0.4716
G1 X-3.326 Y1.123 E0.4905
G1 X-3.464 Y0.569 E0.5095
G1 X-3.511 Y0.000 E0.5285
G1 X-3.464 Y-0.569 E0.5475
G1 X-3.326 Y-1.123 E0.5665
G1 X-3.101 Y-1.647 E0.5855
G1 X-2.793 Y-2.127 E0.6044
G1 X-2.411 Y-2.552 E0.6234
G1 X-1.966 Y-2.909 E0.6424
G1 X-1.468 Y-3.188 E0.6614
G1 X-0.932 Y-3.384 E0.6804
G1 X-0.372 Y-3.490 E0.6993
G1 X0.199 Y-3.504 E0.7183
G1 X0.428 Y-3.472 E0.7260
;segType:Perimeter
G0 X-1.075 Y-3.544 F4800
G1 X-0.354 Y-3.891 E0.7526 F3600
G1 X0.221 Y-3.905 E0.7718
G1 X0.851 Y-3.817 E0.7929
G1 X1.458 Y-3.629 E0.8141
G1 X2.027 Y-3.344 E0.8352
G1 X2.542 Y-2.972 E0.8564
G1 X2.990 Y-2.520 E0.8775
G1 X3.358 Y-2.002 E0.8986
G1 X3.638 Y-1.432 E0.9198
G1 X3.823 Y-0.820 E0.9410
G1 X3.884 Y-0.441 E0.9538
G1 X3.905 Y-0.195 E0.9620
G1 X3.905 Y0.195 E0.9750
G1 X3.884 Y0.440 E0.9832
G1 X3.823 Y0.820 E0.9960
G1 X3.638 Y1.432 E1.0172
G1 X3.358 Y2.002 E1.0384
G1 X2.990 Y2.520 E1.0595
G1 X2.542 Y2.972 E1.0807
G1 X2.027 Y3.344 E1.1018
G1 X1.458 Y3.629 E1.1229
G1 X0.851 Y3.817 E1.1441
G1 X0.221 Y3.905 E1.1652
G1 X-0.414 Y3.889 E1.1864
G1 X-1.039 Y3.771 E1.2075
G1 X-1.636 Y3.553 E1.2287
G1 X-2.191 Y3.241 E1.2498
G1 X-2.687 Y2.844 E1.2710
G1 X-3.112 Y2.370 E1.2921
G1 X-3.455 Y1.835 E1.3133
G1 X-3.707 Y1.251 E1.3344
G1 X-3.860 Y0.634 E1.3556
G1 X-3.912 Y0.000 E1.3767
G1 X-3.860 Y-0.634 E1.3979
G1 X-3.707 Y-1.251 E1.4191
G1 X-3.455 Y-1.835 E1.4402
G1 X-3.112 Y-2.370 E1.4614
G1 X-2.687 Y-2.844 E1.4825
G1 X-2.191 Y-3.241 E1.5037
G1 X-1.636 Y-3.553 E1.5248
G1 X-1.039 Y-3.771 E1.5460
G1 X-0.473 Y-3.878 E1.5651
G0 X0.305 Y-3.690 F4800
;segType:Infill
G0 X-0.473 Y-1.287
G1 X1.287 Y0.473 E1.6645 F3600
;segType:HShell
G0 X1.400 Y-2.808 F4800
G1 X2.806 Y-1.402 E1.7306 F3600
G0 X3.091 Y-0.551 F4800
G1 X0.550 Y-3.092 E1.8502 F3600
G0 X-0.061 Y-3.138 F4800
G1 X3.144 Y0.068 E2.0009 F3600
G0 X3.088 Y0.577 F4800
G1 X-0.575 Y-3.085 E2.1732 F3600
G0 X-1.023 Y-2.968 F4800
G1 X2.968 Y1.022 E2.3609 F3600
G0 X2.798 Y1.419 F4800
G1 X1.377 Y-0.002 E2.4277 F3600
G0 X1.287 Y0.473 F4800
G1 X2.588 Y1.774 E2.4889 F3600
G0 X2.342 Y2.094 F4800
G1 X1.089 Y0.841 E2.5479 F3600
G0 X0.800 Y1.118 F4800
G1 X2.060 Y2.378 E2.6072 F3600
G0 X1.734 Y2.618 F4800
G1 X0.421 Y1.305 E2.6689 F3600
G0 X-0.077 Y1.372 F4800
G1 X1.373 Y2.822 E2.7371 F3600
G0 X0.970 Y2.985 F4800
G1 X-2.992 Y-0.977 E2.9234 F3600
G0 X-3.104 Y-0.524 F4800
G1 X0.516 Y3.097 E3.0937 F3600
G0 X-0.007 Y3.139 F4800
G1 X-3.149 Y-0.003 E3.2416 F3600
G0 X-3.077 Y0.635 F4800
G1 X-0.638 Y3.073 E3.3563 F3600
G0 X-1.546 Y2.732 F4800
G1 X-2.748 Y1.529 E3.4128 F3600
G0 X-2.825 Y-1.376 F4800
G1 X-1.370 Y0.079 E3.4813 F3600
G0 X-1.305 Y-0.422 F4800
G1 X-2.617 Y-1.734 E3.5430 F3600
G0 X-2.373 Y-2.055 F4800
G1 X-1.116 Y-0.798 E3.6021 F3600
G0 X-0.843 Y-1.091 F4800
G1 X-2.095 Y-2.343 E3.6610 F3600
G0 X-1.781 Y-2.595 F4800
G1 X-0.473 Y-1.287 E3.7225 F3600
G0 X0.002 Y-1.377 F4800
G1 X-1.422 Y-2.801 E3.7895 F3600
; ------------------------------------
; Layer #9
; ------------------------------------
M106 S255 ;set fan speed
G21 ; mm
G90 ; abs
G92 E0 ;reset extr
;segType:Loop
G0 F4800 E-1.0000
G0 Z2.000
G0 X0.671 Y-3.528
G0 E0.0000
G1 X0.851 Y-3.499 E0.0061 F3600
G1 X1.413 Y-3.312 E0.0258
G1 X1.936 Y-3.036 E0.0454
G1 X2.407 Y-2.678 E0.0651
G1 X2.813 Y-2.248 E0.0848
G1 X3.143 Y-1.757 E0.1045
G1 X3.388 Y-1.218 E0.1241
G1 X3.541 Y-0.647 E0.1438
G1 X3.599 Y-0.058 E0.1635
G1 X3.560 Y0.532 E0.1832
G1 X3.425 Y1.108 E0.2028
G1 X3.197 Y1.654 E0.2225
G1 X2.883 Y2.154 E0.2422
G1 X2.493 Y2.594 E0.2617
G1 X1.931 Y3.039 E0.2855
G1 X1.413 Y3.312 E0.3050
G1 X0.851 Y3.499 E0.3247
G1 X0.267 Y3.591 E0.3444
G1 X-0.325 Y3.587 E0.3641
G1 X-0.908 Y3.485 E0.3838
G1 X-1.466 Y3.290 E0.4034
G1 X-1.985 Y3.005 E0.4231
G1 X-2.451 Y2.640 E0.4428
G1 X-2.850 Y2.203 E0.4625
G1 X-3.172 Y1.706 E0.4822
G1 X-3.409 Y1.164 E0.5019
G1 X-3.553 Y0.590 E0.5215
G1 X-3.602 Y0.000 E0.5412
G1 X-3.553 Y-0.590 E0.5609
G1 X-3.409 Y-1.164 E0.5806
G1 X-3.172 Y-1.706 E0.6003
G1 X-2.850 Y-2.203 E0.6200
G1 X-2.451 Y-2.640 E0.6397
G1 X-1.985 Y-3.005 E0.6593
G1 X-1.466 Y-3.290 E0.6790
G1 X-0.908 Y-3.485 E0.6987
G1 X-0.325 Y-3.587 E0.7184
G1 X0.267 Y-3.591 E0.7381
G1 X0.474 Y-3.559 E0.7450
;segType:Perimeter
G0 X-1.027 Y-3.650 F4800
G1 X-0.301 Y-3.987 E0.7716 F3600
G1 X0.297 Y-3.992 E0.7915
G1 X0.946 Y-3.889 E0.8134
G1 X1.570 Y-3.681 E0.8353
G1 X2.152 Y-3.374 E0.8571
G1 X2.675 Y-2.976 E0.8790
G1 X3.126 Y-2.498 E0.9009
G1 X3.493 Y-1.952 E0.9227
G1 X3.766 Y-1.354 E0.9446
G1 X3.936 Y-0.719 E0.9665
G1 X4.001 Y-0.065 E0.9884
G1 X3.957 Y0.591 E1.0102
G1 X3.806 Y1.231 E1.0321
G1 X3.553 Y1.838 E1.0540
G1 X3.204 Y2.395 E1.0758
G1 X2.769 Y2.886 E1.0976
G1 X2.150 Y3.375 E1.1239
G1 X1.570 Y3.681 E1.1457
G1 X0.946 Y3.889 E1.1676
G1 X0.297 Y3.992 E1.1894
G1 X-0.361 Y3.987 E1.2113
G1 X-1.009 Y3.874 E1.2332
G1 X-1.630 Y3.656 E1.2551
G1 X-2.207 Y3.340 E1.2769
G1 X-2.724 Y2.934 E1.2988
G1 X-3.167 Y2.448 E1.3207
G1 X-3.526 Y1.896 E1.3426
G1 X-3.789 Y1.293 E1.3645
G1 X-3.949 Y0.656 E1.3863
G1 X-4.003 Y0.000 E1.4082
G1 X-3.949 Y-0.656 E1.4301
G1 X-3.789 Y-1.293 E1.4520
G1 X-3.526 Y-1.896 E1.4738
G1 X-3.167 Y-2.448 E1.4957
G1 X-2.724 Y-2.934 E1.5176
G1 X-2.207 Y-3.340 E1.5395
G1 X-1.630 Y-3.656 E1.5614
G1 X-1.009 Y-3.874 E1.5832
G1 X-0.420 Y-3.976 E1.6031
G0 X0.354 Y-3.775 F4800
;segType:Infill
G0 X0.969 Y-0.969
G1 X-0.969 Y0.969 E1.7124 F3600
;segType:HShell
G0 X-0.828 Y-3.132 F4800
G1 X-3.119 Y-0.841 E1.8202 F3600
G0 X-3.227 Y-0.167 F4800
G1 X-0.166 Y-3.228 E1.9641 F3600
G0 X0.380 Y-3.209 F4800
G1 X-3.209 Y0.381 E2.1330 F3600
G0 X-3.116 Y0.853 F4800
G1 X0.856 Y-3.118 E2.3198 F3600
G0 X1.279 Y-2.976 F4800
G1 X-0.381 Y-1.316 E2.3979 F3600
G0 X0.221 Y-1.352 F4800
G1 X1.649 Y-2.780 E2.4650 F3600
G0 X1.983 Y-2.548 F4800
G1 X0.648 Y-1.213 E2.5278 F3600
G0 X0.969 Y-0.969 F4800
G1 X2.284 Y-2.284 E2.5897 F3600
G0 X2.554 Y-1.988 F4800
G1 X1.210 Y-0.645 E2.6529 F3600
G0 X1.355 Y-0.223 F4800
G1 X2.781 Y-1.650 E2.7200 F3600
G0 X2.968 Y-1.271 F4800
G1 X1.322 Y0.375 E2.7974 F3600
G0 X2.603 Y1.922 F4800
G1 X2.001 Y2.524 E2.8257 F3600
G0 X0.835 Y3.125 F4800
G1 X3.117 Y0.843 E2.9331 F3600
G0 X3.223 Y0.171 F4800
G1 X0.164 Y3.230 E3.0770 F3600
G0 X-0.383 Y3.211 F4800
G1 X3.206 Y-0.378 E3.2458 F3600
G0 X3.114 Y-0.851 F4800
G1 X-0.858 Y3.121 E3.4326 F3600
G0 X-1.277 Y2.974 F4800
G1 X0.381 Y1.316 E3.5106 F3600
G0 X-0.221 Y1.352 F4800
G1 X-1.648 Y2.779 E3.5777 F3600
G0 X-1.983 Y2.549 F4800
G1 X-0.648 Y1.213 E3.6405 F3600
G0 X-0.969 Y0.969 F4800
G1 X-2.286 Y2.286 E3.7025 F3600
G0 X-2.556 Y1.990 F4800
G1 X-1.210 Y0.645 E3.7658 F3600
G0 X-1.355 Y0.223 F4800
G1 X-2.780 Y1.649 E3.8329 F3600
G0 X-2.969 Y1.272 F4800
G1 X-1.322 Y-0.375 E3.9103 F3600
G0 X-2.602 Y-1.924 F4800
G1 X-1.952 Y-2.573 E3.9409 F3600
; ------------------------------------
; Layer #10
; ------------------------------------
M106 S255 ;set fan speed
G21 ; mm
G90 ; abs
G92 E0 ;reset extr
;segType:Loop
G0 F4800 E-1.0000
G0 Z2.200
G0 X1.421 Y-0.999
G0 E0.0000
G1 X1.575 Y-0.752 E0.0097 F3600
G1 X1.702 Y-0.383 E0.0227
G1 X1.745 Y0.006 E0.0357
G1 X1.700 Y0.394 E0.0487
G1 X1.570 Y0.762 E0.0617
G1 X1.361 Y1.092 E0.0747
G1 X1.084 Y1.368 E0.0876
G1 X0.752 Y1.575 E0.1006
G1 X0.383 Y1.702 E0.1136
G1 X-0.005 Y1.745 E0.1266
G1 X-0.394 Y1.700 E0.1396
G1 X-0.762 Y1.570 E0.1526
G1 X-1.092 Y1.361 E0.1656
G1 X-1.368 Y1.084 E0.1786
G1 X-1.575 Y0.752 E0.1916
G1 X-1.702 Y0.383 E0.2046
G1 X-1.745 Y-0.006 E0.2176
G1 X-1.700 Y-0.394 E0.2306
G1 X-1.570 Y-0.762 E0.2436
G1 X-1.361 Y-1.092 E0.2566
G1 X-1.084 Y-1.368 E0.2696
G1 X-0.752 Y-1.575 E0.2826
G1 X-0.383 Y-1.702 E0.2956
G1 X0.005 Y-1.745 E0.3086
G1 X0.394 Y-1.700 E0.3216
G1 X0.762 Y-1.570 E0.3346
G1 X1.092 Y-1.361 E0.3476
G1 X1.297 Y-1.155 E0.3573
;segType:Perimeter
G0 X0.191 Y-1.962 F4800
G1 X0.989 Y-1.900 E0.3839 F3600
G1 X1.344 Y-1.675 E0.3979
G1 X1.683 Y-1.334 E0.4139
G1 X1.938 Y-0.926 E0.4298
G1 X2.095 Y-0.471 E0.4458
G1 X2.148 Y0.007 E0.4618
G1 X2.092 Y0.485 E0.4778
G1 X1.932 Y0.938 E0.4938
G1 X1.675 Y1.344 E0.5098
G1 X1.334 Y1.683 E0.5258
G1 X0.926 Y1.938 E0.5418
G1 X0.471 Y2.095 E0.5578
G1 X-0.007 Y2.148 E0.5738
G1 X-0.485 Y2.092 E0.5898
G1 X-0.938 Y1.932 E0.6058
G1 X-1.344 Y1.675 E0.6218
G1 X-1.683 Y1.334 E0.6378
G1 X-1.938 Y0.926 E0.6538
G1 X-2.095 Y0.471 E0.6698
G1 X-2.148 Y-0.007 E0.6858
G1 X-2.092 Y-0.485 E0.7018
G1 X-1.932 Y-0.938 E0.7178
G1 X-1.675 Y-1.344 E0.7337
G1 X-1.334 Y-1.683 E0.7497
G1 X-0.926 Y-1.938 E0.7657
G1 X-0.471 Y-2.095 E0.7817
G1 X0.007 Y-2.148 E0.7977
G1 X0.485 Y-2.092 E0.8137
G1 X0.881 Y-1.952 E0.8277
G0 X1.424 Y-1.364 F4800
;segType:Infill
G0 X1.285 Y0.471
G1 X-0.472 Y-1.286 E0.9269 F3600
; ------------------------------------
; Layer #11
; ------------------------------------
M106 S255 ;set fan speed
G21 ; mm
G90 ; abs
G92 E0 ;reset extr
;segType:Loop
G0 F4800 E-1.0000
G0 Z2.400
G0 X1.426 Y-0.989
G0 E0.0000
G1 X1.578 Y-0.741 E0.0097 F3600
G1 X1.703 Y-0.372 E0.0226
G1 X1.743 Y0.017 E0.0356
G1 X1.696 Y0.404 E0.0486
G1 X1.563 Y0.771 E0.0616
G1 X1.353 Y1.100 E0.0746
G1 X1.074 Y1.373 E0.0876
G1 X0.741 Y1.578 E0.1005
G1 X0.372 Y1.703 E0.1135
G1 X-0.017 Y1.743 E0.1265
G1 X-0.404 Y1.696 E0.1395
G1 X-0.771 Y1.563 E0.1525
G1 X-1.100 Y1.353 E0.1655
G1 X-1.373 Y1.074 E0.1785
G1 X-1.578 Y0.741 E0.1914
G1 X-1.703 Y0.372 E0.2044
G1 X-1.743 Y-0.017 E0.2174
G1 X-1.696 Y-0.404 E0.2304
G1 X-1.563 Y-0.771 E0.2434
G1 X-1.353 Y-1.100 E0.2564
G1 X-1.074 Y-1.373 E0.2693
G1 X-0.741 Y-1.578 E0.2823
G1 X-0.372 Y-1.703 E0.2953
G1 X0.017 Y-1.743 E0.3083
G1 X0.404 Y-1.696 E0.3213
G1 X0.771 Y-1.563 E0.3343
G1 X1.100 Y-1.353 E0.3473
G1 X1.303 Y-1.145 E0.3569
;segType:Perimeter
G0 X0.203 Y-1.960 F4800
G1 X1.000 Y-1.892 E0.3835 F3600
G1 X1.354 Y-1.665 E0.3975
G1 X1.690 Y-1.322 E0.4135
G1 X1.942 Y-0.912 E0.4295
G1 X2.097 Y-0.458 E0.4455
G1 X2.146 Y0.020 E0.4614
G1 X2.087 Y0.498 E0.4774
G1 X1.924 Y0.949 E0.4934
G1 X1.665 Y1.354 E0.5094
G1 X1.322 Y1.690 E0.5254
G1 X0.912 Y1.942 E0.5414
G1 X0.458 Y2.097 E0.5573
G1 X-0.020 Y2.146 E0.5733
G1 X-0.498 Y2.087 E0.5893
G1 X-0.949 Y1.924 E0.6053
G1 X-1.354 Y1.665 E0.6213
G1 X-1.690 Y1.322 E0.6372
G1 X-1.942 Y0.912 E0.6532
G1 X-2.097 Y0.458 E0.6692
G1 X-2.146 Y-0.020 E0.6852
G1 X-2.087 Y-0.498 E0.7012
G1 X-1.924 Y-0.949 E0.7172
G1 X-1.665 Y-1.354 E0.7331
G1 X-1.322 Y-1.690 E0.7491
G1 X-0.912 Y-1.942 E0.7651
G1 X-0.458 Y-2.097 E0.7811
G1 X0.020 Y-2.146 E0.7971
G1 X0.498 Y-2.087 E0.8131
G1 X0.893 Y-1.945 E0.8270
G0 X1.431 Y-1.353 F4800
;segType:Infill
G0 X-0.968 Y0.968
G1 X0.968 Y-0.968 E0.9363 F3600
; ------------------------------------
; Layer #12
; ------------------------------------
M106 S255 ;set fan speed
G21 ; mm
G90 ; abs
G92 E0 ;reset extr
;segType:Loop
G0 F4800 E-1.0000
G0 Z2.600
G0 X1.431 Y-0.979
G0 E0.0000
G1 X1.581 Y-0.731 E0.0096 F3600
G1 X1.704 Y-0.360 E0.0226
G1 X1.742 Y0.028 E0.0356
G1 X1.692 Y0.415 E0.0486
G1 X1.557 Y0.781 E0.0615
G1 X1.344 Y1.108 E0.0745
G1 X1.064 Y1.379 E0.0875
G1 X0.731 Y1.581 E0.1005
G1 X0.360 Y1.704 E0.1134
G1 X-0.028 Y1.742 E0.1264
G1 X-0.415 Y1.692 E0.1394
G1 X-0.781 Y1.557 E0.1524
G1 X-1.108 Y1.344 E0.1653
G1 X-1.379 Y1.064 E0.1783
G1 X-1.581 Y0.731 E0.1913
G1 X-1.704 Y0.360 E0.2043
G1 X-1.742 Y-0.028 E0.2172
G1 X-1.692 Y-0.415 E0.2302
G1 X-1.557 Y-0.781 E0.2432
G1 X-1.344 Y-1.108 E0.2561
G1 X-1.064 Y-1.379 E0.2691
G1 X-0.731 Y-1.581 E0.2821
G1 X-0.360 Y-1.704 E0.2951
G1 X0.028 Y-1.742 E0.3080
G1 X0.415 Y-1.692 E0.3210
G1 X0.781 Y-1.557 E0.3340
G1 X1.108 Y-1.344 E0.3470
G1 X1.309 Y-1.136 E0.3566
;segType:Perimeter
G0 X0.215 Y-1.957 F4800
G1 X1.011 Y-1.884 E0.3832 F3600
G1 X1.363 Y-1.655 E0.3972
G1 X1.698 Y-1.310 E0.4132
G1 X1.947 Y-0.900 E0.4291
G1 X2.098 Y-0.444 E0.4451
G1 X2.144 Y0.034 E0.4611
G1 X2.083 Y0.510 E0.4770
G1 X1.917 Y0.961 E0.4930
G1 X1.655 Y1.363 E0.5090
G1 X1.310 Y1.698 E0.5250
G1 X0.900 Y1.947 E0.5409
G1 X0.444 Y2.098 E0.5569
G1 X-0.034 Y2.144 E0.5729
G1 X-0.510 Y2.083 E0.5888
G1 X-0.961 Y1.917 E0.6048
G1 X-1.363 Y1.655 E0.6208
G1 X-1.698 Y1.310 E0.6368
G1 X-1.947 Y0.900 E0.6527
G1 X-2.098 Y0.444 E0.6687
G1 X-2.144 Y-0.034 E0.6847
G1 X-2.083 Y-0.510 E0.7006
G1 X-1.917 Y-0.961 E0.7166
G1 X-1.655 Y-1.363 E0.7326
G1 X-1.310 Y-1.698 E0.7486
G1 X-0.900 Y-1.947 E0.7645
G1 X-0.444 Y-2.098 E0.7805
G1 X0.034 Y-2.144 E0.7965
G1 X0.510 Y-2.083 E0.8124
G1 X0.905 Y-1.938 E0.8264
G0 X1.439 Y-1.343 F4800
;segType:Infill
G0 X-0.472 Y-1.286
G1 X1.285 Y0.471 E0.9256 F3600
; ------------------------------------
; Layer #13
; ------------------------------------
M106 S255 ;set fan speed
G21 ; mm
G90 ; abs
G92 E0 ;reset extr
;segType:Loop
G0 F4800 E-1.0000
G0 Z2.800
G0 X1.436 Y-0.969
G0 E0.0000
G1 X1.585 Y-0.720 E0.0096 F3600
G1 X1.705 Y-0.349 E0.0226
G1 X1.740 Y0.039 E0.0356
G1 X1.688 Y0.425 E0.0485
G1 X1.551 Y0.790 E0.0615
G1 X1.336 Y1.115 E0.0744
G1 X1.054 Y1.385 E0.0874
G1 X0.720 Y1.585 E0.1004
G1 X0.349 Y1.705 E0.1133
G1 X-0.039 Y1.740 E0.1263
G1 X-0.425 Y1.688 E0.1393
G1 X-0.790 Y1.551 E0.1522
G1 X-1.115 Y1.336 E0.1652
G1 X-1.385 Y1.054 E0.1782
G1 X-1.585 Y0.720 E0.1911
G1 X-1.705 Y0.349 E0.2041
G1 X-1.740 Y-0.039 E0.2170
G1 X-1.688 Y-0.425 E0.2300
G1 X-1.551 Y-0.790 E0.2430
G1 X-1.336 Y-1.115 E0.2559
G1 X-1.054 Y-1.385 E0.2689
G1 X-0.720 Y-1.585 E0.2819
G1 X-0.349 Y-1.705 E0.2948
G1 X0.039 Y-1.740 E0.3078
G1 X0.425 Y-1.688 E0.3207
G1 X0.790 Y-1.551 E0.3337
G1 X1.115 Y-1.336 E0.3467
G1 X1.316 Y-1.127 E0.3563
;segType:Perimeter
G0 X0.227 Y-1.954 F4800
G1 X1.023 Y-1.876 E0.3829 F3600
G1 X1.373 Y-1.645 E0.3969
G1 X1.705 Y-1.298 E0.4128
G1 X1.951 Y-0.887 E0.4288
G1 X2.099 Y-0.430 E0.4448
G1 X2.142 Y0.048 E0.4607
G1 X2.078 Y0.523 E0.4767
G1 X1.910 Y0.973 E0.4927
G1 X1.645 Y1.373 E0.5086
G1 X1.298 Y1.705 E0.5246
G1 X0.887 Y1.951 E0.5405
G1 X0.430 Y2.099 E0.5565
G1 X-0.048 Y2.142 E0.5725
G1 X-0.523 Y2.078 E0.5884
G1 X-0.973 Y1.910 E0.6044
G1 X-1.373 Y1.645 E0.6203
G1 X-1.705 Y1.298 E0.6363
G1 X-1.951 Y0.887 E0.6523
G1 X-2.099 Y0.430 E0.6682
G1 X-2.142 Y-0.048 E0.6842
G1 X-2.078 Y-0.523 E0.7001
G1 X-1.910 Y-0.973 E0.7161
G1 X-1.645 Y-1.373 E0.7321
G1 X-1.298 Y-1.705 E0.7480
G1 X-0.887 Y-1.951 E0.7640
G1 X-0.430 Y-2.099 E0.7799
G1 X0.048 Y-2.142 E0.7959
G1 X0.523 Y-2.078 E0.8119
G1 X0.917 Y-1.931 E0.8258
G0 X1.447 Y-1.332 F4800
;segType:Infill
G0 X0.968 Y-0.968
G1 X-0.968 Y0.968 E0.9351 F3600
; ------------------------------------
; Layer #14
; ------------------------------------
M106 S255 ;set fan speed
G21 ; mm
G90 ; abs
G92 E0 ;reset extr
;segType:Loop
G0 F4800 E-1.0000
G0 Z3.000
G0 X1.441 Y-0.959
G0 E0.0000
G1 X1.588 Y-0.709 E0.0096 F3600
G1 X1.706 Y-0.338 E0.0226
G1 X1.738 Y0.050 E0.0355
G1 X1.684 Y0.436 E0.0485
G1 X1.545 Y0.799 E0.0614
G1 X1.328 Y1.123 E0.0744
G1 X1.045 Y1.390 E0.0873
G1 X0.709 Y1.588 E0.1003
G1 X0.338 Y1.706 E0.1133
G1 X-0.050 Y1.738 E0.1262
G1 X-0.436 Y1.684 E0.1392
G1 X-0.799 Y1.545 E0.1521
G1 X-1.123 Y1.328 E0.1651
G1 X-1.390 Y1.045 E0.1780
G1 X-1.588 Y0.709 E0.1910
G1 X-1.706 Y0.338 E0.2039
G1 X-1.738 Y-0.050 E0.2169
G1 X-1.684 Y-0.436 E0.2298
G1 X-1.545 Y-0.799 E0.2428
G1 X-1.328 Y-1.123 E0.2557
G1 X-1.045 Y-1.390 E0.2687
G1 X-0.709 Y-1.588 E0.2816
G1 X-0.338 Y-1.706 E0.2946
G1 X0.050 Y-1.738 E0.3076
G1 X0.436 Y-1.684 E0.3205
G1 X0.799 Y-1.545 E0.3335
G1 X1.123 Y-1.328 E0.3464
G1 X1.322 Y-1.118 E0.3560
;segType:Perimeter
G0 X0.238 Y-1.951 F4800
G1 X1.034 Y-1.869 E0.3826 F3600
G1 X1.383 Y-1.636 E0.3966
G1 X1.712 Y-1.287 E0.4126
G1 X1.956 Y-0.874 E0.4285
G1 X2.101 Y-0.416 E0.4445
G1 X2.141 Y0.062 E0.4604
G1 X2.073 Y0.536 E0.4764
G1 X1.902 Y0.984 E0.4923
G1 X1.636 Y1.383 E0.5083
G1 X1.287 Y1.712 E0.5242
G1 X0.874 Y1.956 E0.5402
G1 X0.416 Y2.101 E0.5561
G1 X-0.062 Y2.141 E0.5721
G1 X-0.536 Y2.073 E0.5880
G1 X-0.984 Y1.902 E0.6040
G1 X-1.383 Y1.636 E0.6199
G1 X-1.712 Y1.287 E0.6359
G1 X-1.956 Y0.874 E0.6518
G1 X-2.101 Y0.416 E0.6678
G1 X-2.141 Y-0.062 E0.6837
G1 X-2.073 Y-0.536 E0.6997
G1 X-1.902 Y-0.984 E0.7156
G1 X-1.636 Y-1.383 E0.7316
G1 X-1.287 Y-1.712 E0.7475
G1 X-0.874 Y-1.956 E0.7635
G1 X-0.416 Y-2.101 E0.7794
G1 X0.062 Y-2.141 E0.7954
G1 X0.536 Y-2.073 E0.8113
G1 X0.928 Y-1.924 E0.8253
G0 X1.455 Y-1.322 F4800
;segType:Infill
G0 X1.285 Y0.471
G1 X-0.472 Y-1.286 E0.9244 F3600
; ------------------------------------
; Layer #15
; ------------------------------------
M106 S255 ;set fan speed
G21 ; mm
G90 ; abs
G92 E0 ;reset extr
;segType:Loop
G0 F4800 E-1.0000
G0 Z3.200
G0 X1.418 Y-1.004
G0 E0.0000
G1 X1.573 Y-0.758 E0.0097 F3600
G1 X1.702 Y-0.388 E0.0227
G1 X1.746 Y0.000 E0.0357
G1 X1.702 Y0.388 E0.0487
G1 X1.573 Y0.757 E0.0617
G1 X1.365 Y1.089 E0.0747
G1 X1.089 Y1.365 E0.0877
G1 X0.757 Y1.573 E0.1007
G1 X0.388 Y1.702 E0.1137
G1 X0.000 Y1.746 E0.1267
G1 X-0.388 Y1.702 E0.1397
G1 X-0.757 Y1.573 E0.1527
G1 X-1.089 Y1.365 E0.1657
G1 X-1.365 Y1.089 E0.1787
G1 X-1.573 Y0.758 E0.1917
G1 X-1.702 Y0.388 E0.2047
G1 X-1.746 Y0.000 E0.2177
G1 X-1.702 Y-0.388 E0.2307
G1 X-1.573 Y-0.758 E0.2437
G1 X-1.365 Y-1.089 E0.2567
G1 X-1.089 Y-1.365 E0.2697
G1 X-0.757 Y-1.573 E0.2827
G1 X-0.388 Y-1.702 E0.2957
G1 X0.000 Y-1.746 E0.3087
G1 X0.388 Y-1.702 E0.3217
G1 X0.757 Y-1.573 E0.3347
G1 X1.089 Y-1.365 E0.3478
G1 X1.294 Y-1.159 E0.3574
;segType:Perimeter
G0 X0.185 Y-1.964 F4800
G1 X0.983 Y-1.904 E0.3840 F3600
G1 X1.340 Y-1.680 E0.3980
G1 X1.680 Y-1.340 E0.4140
G1 X1.936 Y-0.932 E0.4300
G1 X2.095 Y-0.478 E0.4460
G1 X2.148 Y0.000 E0.4620
G1 X2.094 Y0.478 E0.4780
G1 X1.936 Y0.932 E0.4940
G1 X1.680 Y1.340 E0.5100
G1 X1.340 Y1.680 E0.5260
G1 X0.932 Y1.936 E0.5420
G1 X0.478 Y2.094 E0.5580
G1 X0.000 Y2.148 E0.5740
G1 X-0.478 Y2.094 E0.5900
G1 X-0.932 Y1.936 E0.6060
G1 X-1.340 Y1.680 E0.6220
G1 X-1.680 Y1.340 E0.6380
G1 X-1.936 Y0.932 E0.6540
G1 X-2.094 Y0.478 E0.6701
G1 X-2.148 Y0.000 E0.6861
G1 X-2.094 Y-0.478 E0.7021
G1 X-1.936 Y-0.932 E0.7181
G1 X-1.680 Y-1.340 E0.7341
G1 X-1.340 Y-1.680 E0.7501
G1 X-0.932 Y-1.936 E0.7661
G1 X-0.478 Y-2.094 E0.7821
G1 X0.000 Y-2.148 E0.7981
G1 X0.478 Y-2.095 E0.8141
G1 X0.875 Y-1.955 E0.8281
G0 X1.420 Y-1.369 F4800
;segType:Infill
G0 X-0.968 Y0.968
G1 X0.968 Y-0.968 E0.9373 F3600
; ------------------------------------
; Layer #16
; ------------------------------------
M106 S255 ;set fan speed
G21 ; mm
G90 ; abs
G92 E0 ;reset extr
;segType:Loop
G0 F4800 E-1.0000
G0 Z3.400
G0 X1.418 Y-1.004
G0 E0.0000
G1 X1.573 Y-0.758 E0.0097 F3600
G1 X1.702 Y-0.388 E0.0227
G1 X1.746 Y0.000 E0.0357
G1 X1.702 Y0.388 E0.0487
G1 X1.573 Y0.757 E0.0617
G1 X1.365 Y1.089 E0.0747
G1 X1.089 Y1.365 E0.0877
G1 X0.757 Y1.573 E0.1007
G1 X0.388 Y1.702 E0.1137
G1 X0.000 Y1.746 E0.1267
G1 X-0.388 Y1.702 E0.1397
G1 X-0.757 Y1.573 E0.1527
G1 X-1.089 Y1.365 E0.1657
G1 X-1.365 Y1.089 E0.1787
G1 X-1.573 Y0.758 E0.1917
G1 X-1.702 Y0.388 E0.2047
G1 X-1.746 Y0.000 E0.2177
G1 X-1.702 Y-0.388 E0.2307
G1 X-1.573 Y-0.758 E0.2437
G1 X-1.365 Y-1.089 E0.2567
G1 X-1.089 Y-1.365 E0.2697
G1 X-0.757 Y-1.573 E0.2827
G1 X-0.388 Y-1.702 E0.2957
G1 X0.000 Y-1.746 E0.3087
G1 X0.388 Y-1.702 E0.3217
G1 X0.757 Y-1.573 E0.3347
G1 X1.089 Y-1.365 E0.3478
G1 X1.294 Y-1.159 E0.3574
;segType:Perimeter
G0 X0.185 Y-1.964 F4800
G1 X0.983 Y-1.904 E0.3840 F3600
G1 X1.340 Y-1.680 E0.3980
G1 X1.680 Y-1.340 E0.4140
G1 X1.936 Y-0.932 E0.4300
G1 X2.095 Y-0.478 E0.4460
G1 X2.148 Y0.000 E0.4620
G1 X2.094 Y0.478 E0.4780
G1 X1.936 Y0.932 E0.4940
G1 X1.680 Y1.340 E0.5100
G1 X1.340 Y1.680 E0.5260
G1 X0.932 Y1.936 E0.5420
G1 X0.478 Y2.094 E0.5580
G1 X0.000 Y2.148 E0.5740
G1 X-0.478 Y2.094 E0.5900
G1 X-0.932 Y1.936 E0.6060
G1 X-1.340 Y1.680 E0.6220
G1 X-1.680 Y1.340 E0.6380
G1 X-1.936 Y0.932 E0.6540
G1 X-2.094 Y0.478 E0.6701
G1 X-2.148 Y0.000 E0.6861
G1 X-2.094 Y-0.478 E0.7021
G1 X-1.936 Y-0.932 E0.7181
G1 X-1.680 Y-1.340 E0.7341
G1 X-1.340 Y-1.680 E0.7501
G1 X-0.932 Y-1.936 E0.7661
G1 X-0.478 Y-2.094 E0.7821
G1 X0.000 Y-2.148 E0.7981
G1 X0.478 Y-2.095 E0.8141
G1 X0.875 Y-1.955 E0.8281
G0 X1.420 Y-1.369 F4800
;segType:Infill
G0 X-0.472 Y-1.286
G1 X1.285 Y0.471 E0.9272 F3600
; ------------------------------------
; Layer #17
; ------------------------------------
M106 S255 ;set fan speed
G21 ; mm
G90 ; abs
G92 E0 ;reset extr
;segType:Loop
G0 F4800 E-1.0000
G0 Z3.600
G0 X1.418 Y-1.004
G0 E0.0000
G1 X1.573 Y-0.758 E0.0097 F3600
G1 X1.702 Y-0.388 E0.0227
G1 X1.746 Y0.000 E0.0357
G1 X1.702 Y0.388 E0.0487
G1 X1.573 Y0.757 E0.0617
G1 X1.365 Y1.089 E0.0747
G1 X1.089 Y1.365 E0.0877
G1 X0.757 Y1.573 E0.1007
G1 X0.388 Y1.702 E0.1137
G1 X0.000 Y1.746 E0.1267
G1 X-0.388 Y1.702 E0.1397
G1 X-0.757 Y1.573 E0.1527
G1 X-1.089 Y1.365 E0.1657
G1 X-1.365 Y1.089 E0.1787
G1 X-1.573 Y0.758 E0.1917
G1 X-1.702 Y0.388 E0.2047
G1 X-1.746 Y0.000 E0.2177
G1 X-1.702 Y-0.388 E0.2307
G1 X-1.573 Y-0.758 E0.2437
G1 X-1.365 Y-1.089 E0.2567
G1 X-1.089 Y-1.365 E0.2697
G1 X-0.757 Y-1.573 E0.2827
G1 X-0.388 Y-1.702 E0.2957
G1 X0.000 Y-1.746 E0.3087
G1 X0.388 Y-1.702 E0.3217
G1 X0.757 Y-1.573 E0.3347
G1 X1.089 Y-1.365 E0.3478
G1 X1.294 Y-1.159 E0.3574
;segType:Perimeter
G0 X0.185 Y-1.964 F4800
G1 X0.983 Y-1.904 E0.3840 F3600
G1 X1.340 Y-1.680 E0.3980
G1 X1.680 Y-1.340 E0.4140
G1 X1.936 Y-0.932 E0.4300
G1 X2.095 Y-0.478 E0.4460
G1 X2.148 Y0.000 E0.4620
G1 X2.094 Y0.478 E0.4780
G1 X1.936 Y0.932 E0.4940
G1 X1.680 Y1.340 E0.5100
G1 X1.340 Y1.680 E0.5260
G1 X0.932 Y1.936 E0.5420
G1 X0.478 Y2.094 E0.5580
G1 X0.000 Y2.148 E0.5740
G1 X-0.478 Y2.094 E0.5900
G1 X-0.932 Y1.936 E0.6060
G1 X-1.340 Y1.680 E0.6220
G1 X-1.680 Y1.340 E0.6380
G1 X-1.936 Y0.932 E0.6540
G1 X-2.094 Y0.478 E0.6701
G1 X-2.148 Y0.000 E0.6861
G1 X-2.094 Y-0.478 E0.7021
G1 X-1.936 Y-0.932 E0.7181
G1 X-1.680 Y-1.340 E0.7341
G1 X-1.340 Y-1.680 E0.7501
G1 X-0.932 Y-1.936 E0.7661
G1 X-0.478 Y-2.094 E0.7821
G1 X0.000 Y-2.148 E0.7981
G1 X0.478 Y-2.095 E0.8141
G1 X0.875 Y-1.955 E0.8281
G0 X1.420 Y-1.369 F4800
;segType:Infill
G0 X0.968 Y-0.968
G1 X-0.968 Y0.968 E0.9373 F3600
; ------------------------------------
; Layer #18
; ------------------------------------
M106 S255 ;set fan speed
G21 ; mm
G90 ; abs
G92 E0 ;reset extr
;segType:Loop
G0 F4800 E-1.0000
G0 Z3.800
G0 X1.418 Y-1.004
G0 E0.0000
G1 X1.573 Y-0.758 E0.0097 F3600
G1 X1.702 Y-0.388 E0.0227
G1 X1.746 Y0.000 E0.0357
G1 X1.702 Y0.388 E0.0487
G1 X1.573 Y0.757 E0.0617
G1 X1.365 Y1.089 E0.0747
G1 X1.089 Y1.365 E0.0877
G1 X0.757 Y1.573 E0.1007
G1 X0.388 Y1.702 E0.1137
G1 X0.000 Y1.746 E0.1267
G1 X-0.388 Y1.702 E0.1397
G1 X-0.757 Y1.573 E0.1527
G1 X-1.089 Y1.365 E0.1657
G1 X-1.365 Y1.089 E0.1787
G1 X-1.573 Y0.758 E0.1917
G1 X-1.702 Y0.388 E0.2047
G1 X-1.746 Y0.000 E0.2177
G1 X-1.702 Y-0.388 E0.2307
G1 X-1.573 Y-0.758 E0.2437
G1 X-1.365 Y-1.089 E0.2567
G1 X-1.089 Y-1.365 E0.2697
G1 X-0.757 Y-1.573 E0.2827
G1 X-0.388 Y-1.702 E0.2957
G1 X0.000 Y-1.746 E0.3087
G1 X0.388 Y-1.702 E0.3217
G1 X0.757 Y-1.573 E0.3347
G1 X1.089 Y-1.365 E0.3478
G1 X1.294 Y-1.159 E0.3574
;segType:Perimeter
G0 X0.185 Y-1.964 F4800
G1 X0.983 Y-1.904 E0.3840 F3600
G1 X1.340 Y-1.680 E0.3980
G1 X1.680 Y-1.340 E0.4140
G1 X1.936 Y-0.932 E0.4300
G1 X2.095 Y-0.478 E0.4460
G1 X2.148 Y0.000 E0.4620
G1 X2.094 Y0.478 E0.4780
G1 X1.936 Y0.932 E0.4940
G1 X1.680 Y1.340 E0.5100
G1 X1.340 Y1.680 E0.5260
G1 X0.932 Y1.936 E0.5420
G1 X0.478 Y2.094 E0.5580
G1 X0.000 Y2.148 E0.5740
G1 X-0.478 Y2.094 E0.5900
G1 X-0.932 Y1.936 E0.6060
G1 X-1.340 Y1.680 E0.6220
G1 X-1.680 Y1.340 E0.6380
G1 X-1.936 Y0.932 E0.6540
G1 X-2.094 Y0.478 E0.6701
G1 X-2.148 Y0.000 E0.6861
G1 X-2.094 Y-0.478 E0.7021
G1 X-1.936 Y-0.932 E0.7181
G1 X-1.680 Y-1.340 E0.7341
G1 X-1.340 Y-1.680 E0.7501
G1 X-0.932 Y-1.936 E0.7661
G1 X-0.478 Y-2.094 E0.7821
G1 X0.000 Y-2.148 E0.7981
G1 X0.478 Y-2.095 E0.8141
G1 X0.875 Y-1.955 E0.8281
G0 X1.420 Y-1.369 F4800
;segType:Infill
G0 X1.285 Y0.471
G1 X-0.472 Y-1.286 E0.9272 F3600
; ------------------------------------
; Layer #19
; ------------------------------------
M106 S255 ;set fan speed
G21 ; mm
G90 ; abs
G92 E0 ;reset extr
;segType:Loop
G0 F4800 E-1.0000
G0 Z4.000
G0 X1.418 Y-1.004
G0 E0.0000
G1 X1.573 Y-0.758 E0.0097 F3600
G1 X1.702 Y-0.388 E0.0227
G1 X1.746 Y0.000 E0.0357
G1 X1.702 Y0.388 E0.0487
G1 X1.573 Y0.757 E0.0617
G1 X1.365 Y1.089 E0.0747
G1 X1.089 Y1.365 E0.0877
G1 X0.757 Y1.573 E0.1007
G1 X0.388 Y1.702 E0.1137
G1 X0.000 Y1.746 E0.1267
G1 X-0.388 Y1.702 E0.1397
G1 X-0.757 Y1.573 E0.1527
G1 X-1.089 Y1.365 E0.1657
G1 X-1.365 Y1.089 E0.1787
G1 X-1.573 Y0.758 E0.1917
G1 X-1.702 Y0.388 E0.2047
G1 X-1.746 Y0.000 E0.2177
G1 X-1.702 Y-0.388 E0.2307
G1 X-1.573 Y-0.758 E0.2437
G1 X-1.365 Y-1.089 E0.2567
G1 X-1.089 Y-1.365 E0.2697
G1 X-0.757 Y-1.573 E0.2827
G1 X-0.388 Y-1.702 E0.2957
G1 X0.000 Y-1.746 E0.3087
G1 X0.388 Y-1.702 E0.3217
G1 X0.757 Y-1.573 E0.3347
G1 X1.089 Y-1.365 E0.3478
G1 X1.294 Y-1.159 E0.3574
;segType:Perimeter
G0 X0.185 Y-1.964 F4800
G1 X0.983 Y-1.904 E0.3840 F3600
G1 X1.340 Y-1.680 E0.3980
G1 X1.680 Y-1.340 E0.4140
G1 X1.936 Y-0.932 E0.4300
G1 X2.095 Y-0.478 E0.4460
G1 X2.148 Y0.000 E0.4620
G1 X2.094 Y0.478 E0.4780
G1 X1.936 Y0.932 E0.4940
G1 X1.680 Y1.340 E0.5100
G1 X1.340 Y1.680 E0.5260
G1 X0.932 Y1.936 E0.5420
G1 X0.478 Y2.094 E0.5580
G1 X0.000 Y2.148 E0.5740
G1 X-0.478 Y2.094 E0.5900
G1 X-0.932 Y1.936 E0.6060
G1 X-1.340 Y1.680 E0.6220
G1 X-1.680 Y1.340 E0.6380
G1 X-1.936 Y0.932 E0.6540
G1 X-2.094 Y0.478 E0.6700
G1 X-2.148 Y0.000 E0.6861
G1 X-2.094 Y-0.478 E0.7021
G1 X-1.936 Y-0.932 E0.7181
G1 X-1.680 Y-1.340 E0.7341
G1 X-1.340 Y-1.680 E0.7501
G1 X-0.932 Y-1.936 E0.7661
G1 X-0.478 Y-2.094 E0.7821
G1 X0.000 Y-2.148 E0.7981
G1 X0.478 Y-2.095 E0.8141
G1 X0.875 Y-1.955 E0.8281
G0 X1.420 Y-1.369 F4800
;segType:Infill
G0 X-0.972 Y0.972
G1 X0.972 Y-0.972 E0.9378 F3600
; ------------------------------------
; Layer #20
; ------------------------------------
M106 S255 ;set fan speed
G21 ; mm
G90 ; abs
G92 E0 ;reset extr
;segType:Loop
G0 F4800 E-1.0000
G0 Z4.200
G0 X1.418 Y-1.004
G0 E0.0000
G1 X1.573 Y-0.758 E0.0097 F3600
G1 X1.702 Y-0.388 E0.0227
G1 X1.746 Y0.000 E0.0357
G1 X1.702 Y0.388 E0.0487
G1 X1.573 Y0.757 E0.0617
G1 X1.365 Y1.089 E0.0747
G1 X1.089 Y1.365 E0.0877
G1 X0.757 Y1.573 E0.1007
G1 X0.388 Y1.702 E0.1137
G1 X0.000 Y1.746 E0.1267
G1 X-0.388 Y1.702 E0.1397
G1 X-0.757 Y1.573 E0.1527
G1 X-1.089 Y1.365 E0.1657
G1 X-1.365 Y1.089 E0.1787
G1 X-1.573 Y0.758 E0.1917
G1 X-1.702 Y0.388 E0.2047
G1 X-1.746 Y0.000 E0.2177
G1 X-1.702 Y-0.388 E0.2307
G1 X-1.573 Y-0.758 E0.2437
G1 X-1.365 Y-1.089 E0.2567
G1 X-1.089 Y-1.365 E0.2697
G1 X-0.757 Y-1.573 E0.2827
G1 X-0.388 Y-1.702 E0.2957
G1 X0.000 Y-1.746 E0.3087
G1 X0.388 Y-1.702 E0.3217
G1 X0.757 Y-1.573 E0.3347
G1 X1.089 Y-1.365 E0.3478
G1 X1.294 Y-1.159 E0.3574
;segType:Perimeter
G0 X0.185 Y-1.964 F4800
G1 X0.983 Y-1.904 E0.3840 F3600
G1 X1.340 Y-1.680 E0.3980
G1 X1.680 Y-1.340 E0.4140
G1 X1.936 Y-0.932 E0.4300
G1 X2.095 Y-0.478 E0.4460
G1 X2.148 Y0.000 E0.4620
G1 X2.094 Y0.478 E0.4780
G1 X1.936 Y0.932 E0.4940
G1 X1.680 Y1.340 E0.5100
G1 X1.340 Y1.680 E0.5260
G1 X0.932 Y1.936 E0.5420
G1 X0.478 Y2.094 E0.5580
G1 X0.000 Y2.148 E0.5740
G1 X-0.478 Y2.094 E0.5900
G1 X-0.932 Y1.936 E0.6060
G1 X-1.340 Y1.680 E0.6220
G1 X-1.680 Y1.340 E0.6380
G1 X-1.936 Y0.932 E0.6540
G1 X-2.094 Y0.478 E0.6700
G1 X-2.148 Y0.000 E0.6861
G1 X-2.094 Y-0.478 E0.7021
G1 X-1.936 Y-0.932 E0.7181
G1 X-1.680 Y-1.340 E0.7341
G1 X-1.340 Y-1.680 E0.7501
G1 X-0.932 Y-1.936 E0.7661
G1 X-0.478 Y-2.094 E0.7821
G1 X0.000 Y-2.148 E0.7981
G1 X0.478 Y-2.095 E0.8141
G1 X0.875 Y-1.955 E0.8281
G0 X1.420 Y-1.369 F4800
;segType:Infill
G0 X-0.476 Y-1.290
G1 X1.290 Y0.476 E0.9277 F3600
; ------------------------------------
; Layer #21
; ------------------------------------
M106 S255 ;set fan speed
G21 ; mm
G90 ; abs
G92 E0 ;reset extr
;segType:Loop
G0 F4800 E-1.0000
G0 Z4.400
G0 X1.418 Y-1.004
G0 E0.0000
G1 X1.573 Y-0.758 E0.0097 F3600
G1 X1.702 Y-0.388 E0.0227
G1 X1.746 Y0.000 E0.0357
G1 X1.702 Y0.388 E0.0487
G1 X1.573 Y0.757 E0.0617
G1 X1.365 Y1.089 E0.0747
G1 X1.089 Y1.365 E0.0877
G1 X0.757 Y1.573 E0.1007
G1 X0.388 Y1.702 E0.1137
G1 X0.000 Y1.746 E0.1267
G1 X-0.388 Y1.702 E0.1397
G1 X-0.757 Y1.573 E0.1527
G1 X-1.089 Y1.365 E0.1657
G1 X-1.365 Y1.089 E0.1787
G1 X-1.573 Y0.758 E0.1917
G1 X-1.702 Y0.388 E0.2047
G1 X-1.746 Y0.000 E0.2177
G1 X-1.702 Y-0.388 E0.2307
G1 X-1.573 Y-0.758 E0.2437
G1 X-1.365 Y-1.089 E0.2567
G1 X-1.089 Y-1.365 E0.2697
G1 X-0.757 Y-1.573 E0.2827
G1 X-0.388 Y-1.702 E0.2957
G1 X0.000 Y-1.746 E0.3087
G1 X0.388 Y-1.702 E0.3217
G1 X0.757 Y-1.573 E0.3347
G1 X1.089 Y-1.365 E0.3478
G1 X1.294 Y-1.159 E0.3574
;segType:Perimeter
G0 X0.185 Y-1.964 F4800
G1 X0.983 Y-1.904 E0.3840 F3600
G1 X1.340 Y-1.680 E0.3980
G1 X1.680 Y-1.340 E0.4140
G1 X1.936 Y-0.932 E0.4300
G1 X2.095 Y-0.478 E0.4460
G1 X2.148 Y0.000 E0.4620
G1 X2.094 Y0.478 E0.4780
G1 X1.936 Y0.932 E0.4940
G1 X1.680 Y1.340 E0.5100
G1 X1.340 Y1.680 E0.5260
G1 X0.932 Y1.936 E0.5420
G1 X0.478 Y2.094 E0.5580
G1 X0.000 Y2.148 E0.5740
G1 X-0.478 Y2.094 E0.5900
G1 X-0.932 Y1.936 E0.6060
G1 X-1.340 Y1.680 E0.6220
G1 X-1.680 Y1.340 E0.6380
G1 X-1.936 Y0.932 E0.6540
G1 X-2.094 Y0.478 E0.6701
G1 X-2.148 Y0.000 E0.6861
G1 X-2.094 Y-0.478 E0.7021
G1 X-1.936 Y-0.932 E0.7181
G1 X-1.680 Y-1.340 E0.7341
G1 X-1.340 Y-1.680 E0.7501
G1 X-0.932 Y-1.936 E0.7661
G1 X-0.478 Y-2.094 E0.7821
G1 X0.000 Y-2.148 E0.7981
G1 X0.478 Y-2.095 E0.8141
G1 X0.875 Y-1.955 E0.8281
G0 X1.420 Y-1.369 F4800
;segType:Infill
G0 X0.972 Y-0.972
G1 X-0.972 Y0.972 E0.9378 F3600
; ------------------------------------
; Layer #22
; ------------------------------------
M106 S255 ;set fan speed
G21 ; mm
G90 ; abs
G92 E0 ;reset extr
;segType:Loop
G0 F4800 E-1.0000
G0 Z4.600
G0 X1.418 Y-1.004
G0 E0.0000
G1 X1.573 Y-0.758 E0.0097 F3600
G1 X1.702 Y-0.388 E0.0227
G1 X1.746 Y0.000 E0.0357
G1 X1.702 Y0.388 E0.0487
G1 X1.573 Y0.757 E0.0617
G1 X1.365 Y1.089 E0.0747
G1 X1.089 Y1.365 E0.0877
G1 X0.757 Y1.573 E0.1007
G1 X0.388 Y1.702 E0.1137
G1 X0.000 Y1.746 E0.1267
G1 X-0.388 Y1.702 E0.1397
G1 X-0.757 Y1.573 E0.1527
G1 X-1.089 Y1.365 E0.1657
G1 X-1.365 Y1.089 E0.1787
G1 X-1.573 Y0.758 E0.1917
G1 X-1.702 Y0.388 E0.2047
G1 X-1.746 Y0.000 E0.2177
G1 X-1.702 Y-0.388 E0.2307
G1 X-1.573 Y-0.758 E0.2437
G1 X-1.365 Y-1.089 E0.2567
G1 X-1.089 Y-1.365 E0.2697
G1 X-0.757 Y-1.573 E0.2827
G1 X-0.388 Y-1.702 E0.2957
G1 X0.000 Y-1.746 E0.3087
G1 X0.388 Y-1.702 E0.3217
G1 X0.757 Y-1.573 E0.3347
G1 X1.089 Y-1.365 E0.3478
G1 X1.294 Y-1.159 E0.3574
;segType:Perimeter
G0 X0.185 Y-1.964 F4800
G1 X0.983 Y-1.904 E0.3840 F3600
G1 X1.340 Y-1.680 E0.3980
G1 X1.680 Y-1.340 E0.4140
G1 X1.936 Y-0.932 E0.4300
G1 X2.095 Y-0.478 E0.4460
G1 X2.148 Y0.000 E0.4620
G1 X2.094 Y0.478 E0.4780
G1 X1.936 Y0.932 E0.4940
G1 X1.680 Y1.340 E0.5100
G1 X1.340 Y1.680 E0.5260
G1 X0.932 Y1.936 E0.5420
G1 X0.478 Y2.094 E0.5580
G1 X0.000 Y2.148 E0.5740
G1 X-0.478 Y2.094 E0.5900
G1 X-0.932 Y1.936 E0.6060
G1 X-1.340 Y1.680 E0.6220
G1 X-1.680 Y1.340 E0.6380
G1 X-1.936 Y0.932 E0.6540
G1 X-2.094 Y0.478 E0.6700
G1 X-2.148 Y0.000 E0.6861
G1 X-2.094 Y-0.478 E0.7021
G1 X-1.936 Y-0.932 E0.7181
G1 X-1.680 Y-1.340 E0.7341
G1 X-1.340 Y-1.680 E0.7501
G1 X-0.932 Y-1.936 E0.7661
G1 X-0.478 Y-2.094 E0.7821
G1 X0.000 Y-2.148 E0.7981
G1 X0.478 Y-2.095 E0.8141
G1 X0.875 Y-1.955 E0.8281
G0 X1.420 Y-1.369 F4800
;segType:Infill
G0 X1.290 Y0.476
G1 X-0.476 Y-1.290 E0.9277 F3600
; ------------------------------------
; Layer #23
; ------------------------------------
M106 S255 ;set fan speed
G21 ; mm
G90 ; abs
G92 E0 ;reset extr
;segType:Loop
G0 F4800 E-1.0000
G0 Z4.800
G0 X1.418 Y-1.004
G0 E0.0000
G1 X1.573 Y-0.758 E0.0097 F3600
G1 X1.702 Y-0.388 E0.0227
G1 X1.746 Y0.000 E0.0357
G1 X1.702 Y0.388 E0.0487
G1 X1.573 Y0.757 E0.0617
G1 X1.365 Y1.089 E0.0747
G1 X1.089 Y1.365 E0.0877
G1 X0.757 Y1.573 E0.1007
G1 X0.388 Y1.702 E0.1137
G1 X0.000 Y1.746 E0.1267
G1 X-0.388 Y1.702 E0.1397
G1 X-0.757 Y1.573 E0.1527
G1 X-1.089 Y1.365 E0.1657
G1 X-1.365 Y1.089 E0.1787
G1 X-1.573 Y0.758 E0.1917
G1 X-1.702 Y0.388 E0.2047
G1 X-1.746 Y0.000 E0.2177
G1 X-1.702 Y-0.388 E0.2307
G1 X-1.573 Y-0.758 E0.2437
G1 X-1.365 Y-1.089 E0.2567
G1 X-1.089 Y-1.365 E0.2697
G1 X-0.757 Y-1.573 E0.2827
G1 X-0.388 Y-1.702 E0.2957
G1 X0.000 Y-1.746 E0.3087
G1 X0.388 Y-1.702 E0.3217
G1 X0.757 Y-1.573 E0.3347
G1 X1.089 Y-1.365 E0.3478
G1 X1.294 Y-1.159 E0.3574
;segType:Perimeter
G0 X0.185 Y-1.964 F4800
G1 X0.983 Y-1.904 E0.3840 F3600
G1 X1.340 Y-1.680 E0.3980
G1 X1.680 Y-1.340 E0.4140
G1 X1.936 Y-0.932 E0.4300
G1 X2.095 Y-0.478 E0.4460
G1 X2.148 Y0.000 E0.4620
G1 X2.094 Y0.478 E0.4780
G1 X1.936 Y0.932 E0.4940
G1 X1.680 Y1.340 E0.5100
G1 X1.340 Y1.680 E0.5260
G1 X0.932 Y1.936 E0.5420
G1 X0.478 Y2.094 E0.5580
G1 X0.000 Y2.148 E0.5740
G1 X-0.478 Y2.094 E0.5900
G1 X-0.932 Y1.936 E0.6060
G1 X-1.340 Y1.680 E0.6220
G1 X-1.680 Y1.340 E0.6380
G1 X-1.936 Y0.932 E0.6540
G1 X-2.094 Y0.478 E0.6700
G1 X-2.148 Y0.000 E0.6861
G1 X-2.094 Y-0.478 E0.7021
G1 X-1.936 Y-0.932 E0.7181
G1 X-1.680 Y-1.340 E0.7341
G1 X-1.340 Y-1.680 E0.7501
G1 X-0.932 Y-1.936 E0.7661
G1 X-0.478 Y-2.094 E0.7821
G1 X0.000 Y-2.148 E0.7981
G1 X0.478 Y-2.095 E0.8141
G1 X0.875 Y-1.955 E0.8281
G0 X1.420 Y-1.369 F4800
;segType:Infill
G0 X-0.972 Y0.972
G1 X0.972 Y-0.972 E0.9378 F3600
; ------------------------------------
; Layer #24
; ------------------------------------
M106 S255 ;set fan speed
G21 ; mm
G90 ; abs
G92 E0 ;reset extr
;segType:Loop
G0 F4800 E-1.0000
G0 Z5.000
G0 X1.418 Y-1.004
G0 E0.0000
G1 X1.573 Y-0.758 E0.0097 F3600
G1 X1.702 Y-0.388 E0.0227
G1 X1.746 Y0.000 E0.0357
G1 X1.702 Y0.388 E0.0487
G1 X1.573 Y0.757 E0.0617
G1 X1.365 Y1.089 E0.0747
G1 X1.089 Y1.365 E0.0877
G1 X0.757 Y1.573 E0.1007
G1 X0.388 Y1.702 E0.1137
G1 X0.000 Y1.746 E0.1267
G1 X-0.388 Y1.702 E0.1397
G1 X-0.757 Y1.573 E0.1527
G1 X-1.089 Y1.365 E0.1657
G1 X-1.365 Y1.089 E0.1787
G1 X-1.573 Y0.758 E0.1917
G1 X-1.702 Y0.388 E0.2047
G1 X-1.746 Y0.000 E0.2177
G1 X-1.702 Y-0.388 E0.2307
G1 X-1.573 Y-0.758 E0.2437
G1 X-1.365 Y-1.089 E0.2567
G1 X-1.089 Y-1.365 E0.2697
G1 X-0.757 Y-1.573 E0.2827
G1 X-0.388 Y-1.702 E0.2957
G1 X0.000 Y-1.746 E0.3087
G1 X0.388 Y-1.702 E0.3217
G1 X0.757 Y-1.573 E0.3347
G1 X1.089 Y-1.365 E0.3478
G1 X1.294 Y-1.159 E0.3574
;segType:Perimeter
G0 X0.185 Y-1.964 F4800
G1 X0.983 Y-1.904 E0.3840 F3600
G1 X1.340 Y-1.680 E0.3980
G1 X1.680 Y-1.340 E0.4140
G1 X1.936 Y-0.932 E0.4300
G1 X2.095 Y-0.478 E0.4460
G1 X2.148 Y0.000 E0.4620
G1 X2.094 Y0.478 E0.4780
G1 X1.936 Y0.932 E0.4940
G1 X1.680 Y1.340 E0.5100
G1 X1.340 Y1.680 E0.5260
G1 X0.932 Y1.936 E0.5420
G1 X0.478 Y2.094 E0.5580
G1 X0.000 Y2.148 E0.5740
G1 X-0.478 Y2.094 E0.5900
G1 X-0.932 Y1.936 E0.6060
G1 X-1.340 Y1.680 E0.6220
G1 X-1.680 Y1.340 E0.6380
G1 X-1.936 Y0.932 E0.6540
G1 X-2.094 Y0.478 E0.6701
G1 X-2.148 Y0.000 E0.6861
G1 X-2.094 Y-0.478 E0.7021
G1 X-1.936 Y-0.932 E0.7181
G1 X-1.680 Y-1.340 E0.7341
G1 X-1.340 Y-1.680 E0.7501
G1 X-0.932 Y-1.936 E0.7661
G1 X-0.478 Y-2.094 E0.7821
G1 X0.000 Y-2.148 E0.7981
G1 X0.478 Y-2.095 E0.8141
G1 X0.875 Y-1.955 E0.8281
G0 X1.420 Y-1.369 F4800
;segType:Infill
G0 X-0.476 Y-1.290
G1 X1.290 Y0.476 E0.9277 F3600
; ------------------------------------
; Layer #25
; ------------------------------------
M106 S255 ;set fan speed
G21 ; mm
G90 ; abs
G92 E0 ;reset extr
;segType:Loop
G0 F4800 E-1.0000
G0 Z5.200
G0 X1.418 Y-1.004
G0 E0.0000
G1 X1.573 Y-0.758 E0.0097 F3600
G1 X1.702 Y-0.388 E0.0227
G1 X1.746 Y0.000 E0.0357
G1 X1.702 Y0.388 E0.0487
G1 X1.573 Y0.757 E0.0617
G1 X1.365 Y1.089 E0.0747
G1 X1.089 Y1.365 E0.0877
G1 X0.757 Y1.573 E0.1007
G1 X0.388 Y1.702 E0.1137
G1 X0.000 Y1.746 E0.1267
G1 X-0.388 Y1.702 E0.1397
G1 X-0.757 Y1.573 E0.1527
G1 X-1.089 Y1.365 E0.1657
G1 X-1.365 Y1.089 E0.1787
G1 X-1.573 Y0.758 E0.1917
G1 X-1.702 Y0.388 E0.2047
G1 X-1.746 Y0.000 E0.2177
G1 X-1.702 Y-0.388 E0.2307
G1 X-1.573 Y-0.758 E0.2437
G1 X-1.365 Y-1.089 E0.2567
G1 X-1.089 Y-1.365 E0.2697
G1 X-0.757 Y-1.573 E0.2827
G1 X-0.388 Y-1.702 E0.2957
G1 X0.000 Y-1.746 E0.3087
G1 X0.388 Y-1.702 E0.3217
G1 X0.757 Y-1.573 E0.3347
G1 X1.089 Y-1.365 E0.3478
G1 X1.294 Y-1.159 E0.3574
;segType:Perimeter
G0 X0.185 Y-1.964 F4800
G1 X0.983 Y-1.904 E0.3840 F3600
G1 X1.340 Y-1.680 E0.3980
G1 X1.680 Y-1.340 E0.4140
G1 X1.936 Y-0.932 E0.4300
G1 X2.095 Y-0.478 E0.4460
G1 X2.148 Y0.000 E0.4620
G1 X2.094 Y0.478 E0.4780
G1 X1.936 Y0.932 E0.4940
G1 X1.680 Y1.340 E0.5100
G1 X1.340 Y1.680 E0.5260
G1 X0.932 Y1.936 E0.5420
G1 X0.478 Y2.094 E0.5580
G1 X0.000 Y2.148 E0.5740
G1 X-0.478 Y2.094 E0.5900
G1 X-0.932 Y1.936 E0.6060
G1 X-1.340 Y1.680 E0.6220
G1 X-1.680 Y1.340 E0.6380
G1 X-1.936 Y0.932 E0.6540
G1 X-2.094 Y0.478 E0.6700
G1 X-2.148 Y0.000 E0.6861
G1 X-2.094 Y-0.478 E0.7021
G1 X-1.936 Y-0.932 E0.7181
G1 X-1.680 Y-1.340 E0.7341
G1 X-1.340 Y-1.680 E0.7501
G1 X-0.932 Y-1.936 E0.7661
G1 X-0.478 Y-2.094 E0.7821
G1 X0.000 Y-2.148 E0.7981
G1 X0.478 Y-2.095 E0.8141
G1 X0.875 Y-1.955 E0.8281
G0 X1.420 Y-1.369 F4800
;segType:Infill
G0 X0.972 Y-0.972
G1 X-0.972 Y0.972 E0.9378 F3600
; ------------------------------------
; Layer #26
; ------------------------------------
M106 S255 ;set fan speed
G21 ; mm
G90 ; abs
G92 E0 ;reset extr
;segType:Loop
G0 F4800 E-1.0000
G0 Z5.400
G0 X1.418 Y-1.004
G0 E0.0000
G1 X1.573 Y-0.758 E0.0097 F3600
G1 X1.702 Y-0.388 E0.0227
G1 X1.746 Y0.000 E0.0357
G1 X1.702 Y0.388 E0.0487
G1 X1.573 Y0.757 E0.0617
G1 X1.365 Y1.089 E0.0747
G1 X1.089 Y1.365 E0.0877
G1 X0.757 Y1.573 E0.1007
G1 X0.388 Y1.702 E0.1137
G1 X0.000 Y1.746 E0.1267
G1 X-0.388 Y1.702 E0.1397
G1 X-0.757 Y1.573 E0.1527
G1 X-1.089 Y1.365 E0.1657
G1 X-1.365 Y1.089 E0.1787
G1 X-1.573 Y0.758 E0.1917
G1 X-1.702 Y0.388 E0.2047
G1 X-1.746 Y0.000 E0.2177
G1 X-1.702 Y-0.388 E0.2307
G1 X-1.573 Y-0.758 E0.2437
G1 X-1.365 Y-1.089 E0.2567
G1 X-1.089 Y-1.365 E0.2697
G1 X-0.757 Y-1.573 E0.2827
G1 X-0.388 Y-1.702 E0.2957
G1 X0.000 Y-1.746 E0.3087
G1 X0.388 Y-1.702 E0.3217
G1 X0.757 Y-1.573 E0.3347
G1 X1.089 Y-1.365 E0.3478
G1 X1.294 Y-1.159 E0.3574
;segType:Perimeter
G0 X0.185 Y-1.964 F4800
G1 X0.983 Y-1.904 E0.3840 F3600
G1 X1.340 Y-1.680 E0.3980
G1 X1.680 Y-1.340 E0.4140
G1 X1.936 Y-0.932 E0.4300
G1 X2.095 Y-0.478 E0.4460
G1 X2.148 Y0.000 E0.4620
G1 X2.094 Y0.478 E0.4780
G1 X1.936 Y0.932 E0.4940
G1 X1.680 Y1.340 E0.5100
G1 X1.340 Y1.680 E0.5260
G1 X0.932 Y1.936 E0.5420
G1 X0.478 Y2.094 E0.5580
G1 X0.000 Y2.148 E0.5740
G1 X-0.478 Y2.094 E0.5900
G1 X-0.932 Y1.936 E0.6060
G1 X-1.340 Y1.680 E0.6220
G1 X-1.680 Y1.340 E0.6380
G1 X-1.936 Y0.932 E0.6540
G1 X-2.094 Y0.478 E0.6701
G1 X-2.148 Y0.000 E0.6861
G1 X-2.094 Y-0.478 E0.7021
G1 X-1.936 Y-0.932 E0.7181
G1 X-1.680 Y-1.340 E0.7341
G1 X-1.340 Y-1.680 E0.7501
G1 X-0.932 Y-1.936 E0.7661
G1 X-0.478 Y-2.094 E0.7821
G1 X0.000 Y-2.148 E0.7981
G1 X0.478 Y-2.095 E0.8141
G1 X0.875 Y-1.955 E0.8281
G0 X1.420 Y-1.369 F4800
;segType:Infill
G0 X1.290 Y0.476
G1 X-0.476 Y-1.290 E0.9277 F3600
; ------------------------------------
; Layer #27
; ------------------------------------
M106 S255 ;set fan speed
G21 ; mm
G90 ; abs
G92 E0 ;reset extr
;segType:Loop
G0 F4800 E-1.0000
G0 Z5.600
G0 X1.418 Y-1.004
G0 E0.0000
G1 X1.573 Y-0.758 E0.0097 F3600
G1 X1.702 Y-0.388 E0.0227
G1 X1.746 Y0.000 E0.0357
G1 X1.702 Y0.388 E0.0487
G1 X1.573 Y0.757 E0.0617
G1 X1.365 Y1.089 E0.0747
G1 X1.089 Y1.365 E0.0877
G1 X0.757 Y1.573 E0.1007
G1 X0.388 Y1.702 E0.1137
G1 X0.000 Y1.746 E0.1267
G1 X-0.388 Y1.702 E0.1397
G1 X-0.757 Y1.573 E0.1527
G1 X-1.089 Y1.365 E0.1657
G1 X-1.365 Y1.089 E0.1787
G1 X-1.573 Y0.758 E0.1917
G1 X-1.702 Y0.388 E0.2047
G1 X-1.746 Y0.000 E0.2177
G1 X-1.702 Y-0.388 E0.2307
G1 X-1.573 Y-0.758 E0.2437
G1 X-1.365 Y-1.089 E0.2567
G1 X-1.089 Y-1.365 E0.2697
G1 X-0.757 Y-1.573 E0.2827
G1 X-0.388 Y-1.702 E0.2957
G1 X0.000 Y-1.746 E0.3087
G1 X0.388 Y-1.702 E0.3217
G1 X0.757 Y-1.573 E0.3347
G1 X1.089 Y-1.365 E0.3478
G1 X1.294 Y-1.159 E0.3574
;segType:Perimeter
G0 X0.185 Y-1.964 F4800
G1 X0.983 Y-1.904 E0.3840 F3600
G1 X1.340 Y-1.680 E0.3980
G1 X1.680 Y-1.340 E0.4140
G1 X1.936 Y-0.932 E0.4300
G1 X2.095 Y-0.478 E0.4460
G1 X2.148 Y0.000 E0.4620
G1 X2.094 Y0.478 E0.4780
G1 X1.936 Y0.932 E0.4940
G1 X1.680 Y1.340 E0.5100
G1 X1.340 Y1.680 E0.5260
G1 X0.932 Y1.936 E0.5420
G1 X0.478 Y2.094 E0.5580
G1 X0.000 Y2.148 E0.5740
G1 X-0.478 Y2.094 E0.5900
G1 X-0.932 Y1.936 E0.6060
G1 X-1.340 Y1.680 E0.6220
G1 X-1.680 Y1.340 E0.6380
G1 X-1.936 Y0.932 E0.6540
G1 X-2.094 Y0.478 E0.6700
G1 X-2.148 Y0.000 E0.6861
G1 X-2.094 Y-0.478 E0.7021
G1 X-1.936 Y-0.932 E0.7181
G1 X-1.680 Y-1.340 E0.7341
G1 X-1.340 Y-1.680 E0.7501
G1 X-0.932 Y-1.936 E0.7661
G1 X-0.478 Y-2.094 E0.7821
G1 X0.000 Y-2.148 E0.7981
G1 X0.478 Y-2.095 E0.8141
G1 X0.875 Y-1.955 E0.8281
G0 X1.420 Y-1.369 F4800
;segType:Infill
G0 X-0.972 Y0.972
G1 X0.972 Y-0.972 E0.9378 F3600
; ------------------------------------
; Layer #28
; ------------------------------------
M106 S255 ;set fan speed
G21 ; mm
G90 ; abs
G92 E0 ;reset extr
;segType:Loop
G0 F4800 E-1.0000
G0 Z5.800
G0 X1.418 Y-1.004
G0 E0.0000
G1 X1.573 Y-0.758 E0.0097 F3600
G1 X1.702 Y-0.388 E0.0227
G1 X1.746 Y0.000 E0.0357
G1 X1.702 Y0.388 E0.0487
G1 X1.573 Y0.757 E0.0617
G1 X1.365 Y1.089 E0.0747
G1 X1.089 Y1.365 E0.0877
G1 X0.757 Y1.573 E0.1007
G1 X0.388 Y1.702 E0.1137
G1 X0.000 Y1.746 E0.1267
G1 X-0.388 Y1.702 E0.1397
G1 X-0.757 Y1.573 E0.1527
G1 X-1.089 Y1.365 E0.1657
G1 X-1.365 Y1.089 E0.1787
G1 X-1.573 Y0.758 E0.1917
G1 X-1.702 Y0.388 E0.2047
G1 X-1.746 Y0.000 E0.2177
G1 X-1.702 Y-0.388 E0.2307
G1 X-1.573 Y-0.758 E0.2437
G1 X-1.365 Y-1.089 E0.2567
G1 X-1.089 Y-1.365 E0.2697
G1 X-0.757 Y-1.573 E0.2827
G1 X-0.388 Y-1.702 E0.2957
G1 X0.000 Y-1.746 E0.3087
G1 X0.388 Y-1.702 E0.3217
G1 X0.757 Y-1.573 E0.3347
G1 X1.089 Y-1.365 E0.3478
G1 X1.294 Y-1.159 E0.3574
;segType:Perimeter
G0 X0.185 Y-1.964 F4800
G1 X0.983 Y-1.904 E0.3840 F3600
G1 X1.340 Y-1.680 E0.3980
G1 X1.680 Y-1.340 E0.4140
G1 X1.936 Y-0.932 E0.4300
G1 X2.095 Y-0.478 E0.4460
G1 X2.148 Y0.000 E0.4620
G1 X2.094 Y0.478 E0.4780
G1 X1.936 Y0.932 E0.4940
G1 X1.680 Y1.340 E0.5100
G1 X1.340 Y1.680 E0.5260
G1 X0.932 Y1.936 E0.5420
G1 X0.478 Y2.094 E0.5580
G1 X0.000 Y2.148 E0.5740
G1 X-0.478 Y2.094 E0.5900
G1 X-0.932 Y1.936 E0.6060
G1 X-1.340 Y1.680 E0.6220
G1 X-1.680 Y1.340 E0.6380
G1 X-1.936 Y0.932 E0.6540
G1 X-2.094 Y0.478 E0.6700
G1 X-2.148 Y0.000 E0.6861
G1 X-2.094 Y-0.478 E0.7021
G1 X-1.936 Y-0.932 E0.7181
G1 X-1.680 Y-1.340 E0.7341
G1 X-1.340 Y-1.680 E0.7501
G1 X-0.932 Y-1.936 E0.7661
G1 X-0.478 Y-2.094 E0.7821
G1 X0.000 Y-2.148 E0.7981
G1 X0.478 Y-2.095 E0.8141
G1 X0.875 Y-1.955 E0.8281
G0 X1.420 Y-1.369 F4800
;segType:Infill
G0 X-0.476 Y-1.290
G1 X1.290 Y0.476 E0.9277 F3600
; ------------------------------------
; Layer #29
; ------------------------------------
M106 S255 ;set fan speed
G21 ; mm
G90 ; abs
G92 E0 ;reset extr
;segType:Loop
G0 F4800 E-1.0000
G0 Z6.000
G0 X1.418 Y-1.004
G0 E0.0000
G1 X1.573 Y-0.758 E0.0097 F3600
G1 X1.702 Y-0.388 E0.0227
G1 X1.746 Y0.000 E0.0357
G1 X1.702 Y0.388 E0.0487
G1 X1.573 Y0.757 E0.0617
G1 X1.365 Y1.089 E0.0747
G1 X1.089 Y1.365 E0.0877
G1 X0.757 Y1.573 E0.1007
G1 X0.388 Y1.702 E0.1137
G1 X0.000 Y1.746 E0.1267
G1 X-0.388 Y1.702 E0.1397
G1 X-0.757 Y1.573 E0.1527
G1 X-1.089 Y1.365 E0.1657
G1 X-1.365 Y1.089 E0.1787
G1 X-1.573 Y0.758 E0.1917
G1 X-1.702 Y0.388 E0.2047
G1 X-1.746 Y0.000 E0.2177
G1 X-1.702 Y-0.388 E0.2307
G1 X-1.573 Y-0.758 E0.2437
G1 X-1.365 Y-1.089 E0.2567
G1 X-1.089 Y-1.365 E0.2697
G1 X-0.757 Y-1.573 E0.2827
G1 X-0.388 Y-1.702 E0.2957
G1 X0.000 Y-1.746 E0.3087
G1 X0.388 Y-1.702 E0.3217
G1 X0.757 Y-1.573 E0.3347
G1 X1.089 Y-1.365 E0.3478
G1 X1.294 Y-1.159 E0.3574
;segType:Perimeter
G0 X0.185 Y-1.964 F4800
G1 X0.983 Y-1.904 E0.3840 F3600
G1 X1.340 Y-1.680 E0.3980
G1 X1.680 Y-1.340 E0.4140
G1 X1.936 Y-0.932 E0.4300
G1 X2.095 Y-0.478 E0.4460
G1 X2.148 Y0.000 E0.4620
G1 X2.094 Y0.478 E0.4780
G1 X1.936 Y0.932 E0.4940
G1 X1.680 Y1.340 E0.5100
G1 X1.340 Y1.680 E0.5260
G1 X0.932 Y1.936 E0.5420
G1 X0.478 Y2.094 E0.5580
G1 X0.000 Y2.148 E0.5740
G1 X-0.478 Y2.094 E0.5900
G1 X-0.932 Y1.936 E0.6060
G1 X-1.340 Y1.680 E0.6220
G1 X-1.680 Y1.340 E0.6380
G1 X-1.936 Y0.932 E0.6540
G1 X-2.094 Y0.478 E0.6701
G1 X-2.148 Y0.000 E0.6861
G1 X-2.094 Y-0.478 E0.7021
G1 X-1.936 Y-0.932 E0.7181
G1 X-1.680 Y-1.340 E0.7341
G1 X-1.340 Y-1.680 E0.7501
G1 X-0.932 Y-1.936 E0.7661
G1 X-0.478 Y-2.094 E0.7821
G1 X0.000 Y-2.148 E0.7981
G1 X0.478 Y-2.095 E0.8141
G1 X0.875 Y-1.955 E0.8281
G0 X1.420 Y-1.369 F4800
;segType:Infill
G0 X0.972 Y-0.972
G1 X-0.972 Y0.972 E0.9378 F3600
; ------------------------------------
; Layer #30
; ------------------------------------
M106 S255 ;set fan speed
G21 ; mm
G90 ; abs
G92 E0 ;reset extr
;segType:Loop
G0 F4800 E-1.0000
G0 Z6.200
G0 X1.418 Y-1.004
G0 E0.0000
G1 X1.573 Y-0.758 E0.0097 F3600
G1 X1.702 Y-0.388 E0.0227
G1 X1.746 Y0.000 E0.0357
G1 X1.702 Y0.388 E0.0487
G1 X1.573 Y0.757 E0.0617
G1 X1.365 Y1.089 E0.0747
G1 X1.089 Y1.365 E0.0877
G1 X0.757 Y1.573 E0.1007
G1 X0.388 Y1.702 E0.1137
G1 X0.000 Y1.746 E0.1267
G1 X-0.388 Y1.702 E0.1397
G1 X-0.757 Y1.573 E0.1527
G1 X-1.089 Y1.365 E0.1657
G1 X-1.365 Y1.089 E0.1787
G1 X-1.573 Y0.758 E0.1917
G1 X-1.702 Y0.388 E0.2047
G1 X-1.746 Y0.000 E0.2177
G1 X-1.702 Y-0.388 E0.2307
G1 X-1.573 Y-0.758 E0.2437
G1 X-1.365 Y-1.089 E0.2567
G1 X-1.089 Y-1.365 E0.2697
G1 X-0.757 Y-1.573 E0.2827
G1 X-0.388 Y-1.702 E0.2957
G1 X0.000 Y-1.746 E0.3087
G1 X0.388 Y-1.702 E0.3217
G1 X0.757 Y-1.573 E0.3347
G1 X1.089 Y-1.365 E0.3478
G1 X1.294 Y-1.159 E0.3574
;segType:Perimeter
G0 X0.185 Y-1.964 F4800
G1 X0.983 Y-1.904 E0.3840 F3600
G1 X1.340 Y-1.680 E0.3980
G1 X1.680 Y-1.340 E0.4140
G1 X1.936 Y-0.932 E0.4300
G1 X2.095 Y-0.478 E0.4460
G1 X2.148 Y0.000 E0.4620
G1 X2.094 Y0.478 E0.4780
G1 X1.936 Y0.932 E0.4940
G1 X1.680 Y1.340 E0.5100
G1 X1.340 Y1.680 E0.5260
G1 X0.932 Y1.936 E0.5420
G1 X0.478 Y2.094 E0.5580
G1 X0.000 Y2.148 E0.5740
G1 X-0.478 Y2.094 E0.5900
G1 X-0.932 Y1.936 E0.6060
G1 X-1.340 Y1.680 E0.6220
G1 X-1.680 Y1.340 E0.6380
G1 X-1.936 Y0.932 E0.6540
G1 X-2.094 Y0.478 E0.6700
G1 X-2.148 Y0.000 E0.6861
G1 X-2.094 Y-0.478 E0.7021
G1 X-1.936 Y-0.932 E0.7181
G1 X-1.680 Y-1.340 E0.7341
G1 X-1.340 Y-1.680 E0.7501
G1 X-0.932 Y-1.936 E0.7661
G1 X-0.478 Y-2.094 E0.7821
G1 X0.000 Y-2.148 E0.7981
G1 X0.478 Y-2.095 E0.8141
G1 X0.875 Y-1.955 E0.8281
G0 X1.420 Y-1.369 F4800
;segType:Infill
G0 X1.290 Y0.476
G1 X-0.476 Y-1.290 E0.9277 F3600
; ------------------------------------
; Layer #31
; ------------------------------------
M106 S255 ;set fan speed
G21 ; mm
G90 ; abs
G92 E0 ;reset extr
;segType:Loop
G0 F4800 E-1.0000
G0 Z6.400
G0 X1.418 Y-1.004
G0 E0.0000
G1 X1.573 Y-0.758 E0.0097 F3600
G1 X1.702 Y-0.388 E0.0227
G1 X1.746 Y0.000 E0.0357
G1 X1.702 Y0.388 E0.0487
G1 X1.573 Y0.757 E0.0617
G1 X1.365 Y1.089 E0.0747
G1 X1.089 Y1.365 E0.0877
G1 X0.757 Y1.573 E0.1007
G1 X0.388 Y1.702 E0.1137
G1 X0.000 Y1.746 E0.1267
G1 X-0.388 Y1.702 E0.1397
G1 X-0.757 Y1.573 E0.1527
G1 X-1.089 Y1.365 E0.1657
G1 X-1.365 Y1.089 E0.1787
G1 X-1.573 Y0.758 E0.1917
G1 X-1.702 Y0.388 E0.2047
G1 X-1.746 Y0.000 E0.2177
G1 X-1.702 Y-0.388 E0.2307
G1 X-1.573 Y-0.758 E0.2437
G1 X-1.365 Y-1.089 E0.2567
G1 X-1.089 Y-1.365 E0.2697
G1 X-0.757 Y-1.573 E0.2827
G1 X-0.388 Y-1.702 E0.2957
G1 X0.000 Y-1.746 E0.3087
G1 X0.388 Y-1.702 E0.3217
G1 X0.757 Y-1.573 E0.3347
G1 X1.089 Y-1.365 E0.3478
G1 X1.294 Y-1.159 E0.3574
;segType:Perimeter
G0 X0.185 Y-1.964 F4800
G1 X0.983 Y-1.904 E0.3840 F3600
G1 X1.340 Y-1.680 E0.3980
G1 X1.680 Y-1.340 E0.4140
G1 X1.936 Y-0.932 E0.4300
G1 X2.095 Y-0.478 E0.4460
G1 X2.148 Y0.000 E0.4620
G1 X2.094 Y0.478 E0.4780
G1 X1.936 Y0.932 E0.4940
G1 X1.680 Y1.340 E0.5100
G1 X1.340 Y1.680 E0.5260
G1 X0.932 Y1.936 E0.5420
G1 X0.478 Y2.094 E0.5580
G1 X0.000 Y2.148 E0.5740
G1 X-0.478 Y2.094 E0.5900
G1 X-0.932 Y1.936 E0.6060
G1 X-1.340 Y1.680 E0.6220
G1 X-1.680 Y1.340 E0.6380
G1 X-1.936 Y0.932 E0.6540
G1 X-2.094 Y0.478 E0.6701
G1 X-2.148 Y0.000 E0.6861
G1 X-2.094 Y-0.478 E0.7021
G1 X-1.936 Y-0.932 E0.7181
G1 X-1.680 Y-1.340 E0.7341
G1 X-1.340 Y-1.680 E0.7501
G1 X-0.932 Y-1.936 E0.7661
G1 X-0.478 Y-2.094 E0.7821
G1 X0.000 Y-2.148 E0.7981
G1 X0.478 Y-2.095 E0.8141
G1 X0.875 Y-1.955 E0.8281
G0 X1.420 Y-1.369 F4800
;segType:Infill
G0 X-0.972 Y0.972
G1 X0.972 Y-0.972 E0.9378 F3600
; ------------------------------------
; Layer #32
; ------------------------------------
M106 S255 ;set fan speed
G21 ; mm
G90 ; abs
G92 E0 ;reset extr
;segType:Loop
G0 F4800 E-1.0000
G0 Z6.600
G0 X1.418 Y-1.004
G0 E0.0000
G1 X1.573 Y-0.758 E0.0097 F3600
G1 X1.702 Y-0.388 E0.0227
G1 X1.746 Y0.000 E0.0357
G1 X1.702 Y0.388 E0.0487
G1 X1.573 Y0.757 E0.0617
G1 X1.365 Y1.089 E0.0747
G1 X1.089 Y1.365 E0.0877
G1 X0.757 Y1.573 E0.1007
G1 X0.388 Y1.702 E0.1137
G1 X0.000 Y1.746 E0.1267
G1 X-0.388 Y1.702 E0.1397
G1 X-0.757 Y1.573 E0.1527
G1 X-1.089 Y1.365 E0.1657
G1 X-1.365 Y1.089 E0.1787
G1 X-1.573 Y0.758 E0.1917
G1 X-1.702 Y0.388 E0.2047
G1 X-1.746 Y0.000 E0.2177
G1 X-1.702 Y-0.388 E0.2307
G1 X-1.573 Y-0.758 E0.2437
G1 X-1.365 Y-1.089 E0.2567
G1 X-1.089 Y-1.365 E0.2697
G1 X-0.757 Y-1.573 E0.2827
G1 X-0.388 Y-1.702 E0.2957
G1 X0.000 Y-1.746 E0.3087
G1 X0.388 Y-1.702 E0.3217
G1 X0.757 Y-1.573 E0.3347
G1 X1.089 Y-1.365 E0.3478
G1 X1.294 Y-1.159 E0.3574
;segType:Perimeter
G0 X0.185 Y-1.964 F4800
G1 X0.983 Y-1.904 E0.3840 F3600
G1 X1.340 Y-1.680 E0.3980
G1 X1.680 Y-1.340 E0.4140
G1 X1.936 Y-0.932 E0.4300
G1 X2.095 Y-0.478 E0.4460
G1 X2.148 Y0.000 E0.4620
G1 X2.094 Y0.478 E0.4780
G1 X1.936 Y0.932 E0.4940
G1 X1.680 Y1.340 E0.5100
G1 X1.340 Y1.680 E0.5260
G1 X0.932 Y1.936 E0.5420
G1 X0.478 Y2.094 E0.5580
G1 X0.000 Y2.148 E0.5740
G1 X-0.478 Y2.094 E0.5900
G1 X-0.932 Y1.936 E0.6060
G1 X-1.340 Y1.680 E0.6220
G1 X-1.680 Y1.340 E0.6380
G1 X-1.936 Y0.932 E0.6540
G1 X-2.094 Y0.478 E0.6700
G1 X-2.148 Y0.000 E0.6861
G1 X-2.094 Y-0.478 E0.7021
G1 X-1.936 Y-0.932 E0.7181
G1 X-1.680 Y-1.340 E0.7341
G1 X-1.340 Y-1.680 E0.7501
G1 X-0.932 Y-1.936 E0.7661
G1 X-0.478 Y-2.094 E0.7821
G1 X0.000 Y-2.148 E0.7981
G1 X0.478 Y-2.095 E0.8141
G1 X0.875 Y-1.955 E0.8281
G0 X1.420 Y-1.369 F4800
;segType:Infill
G0 X-0.476 Y-1.290
G1 X1.290 Y0.476 E0.9277 F3600
; ------------------------------------
; Layer #33
; ------------------------------------
M106 S255 ;set fan speed
G21 ; mm
G90 ; abs
G92 E0 ;reset extr
;segType:Loop
G0 F4800 E-1.0000
G0 Z6.800
G0 X1.418 Y-1.004
G0 E0.0000
G1 X1.573 Y-0.758 E0.0097 F3600
G1 X1.702 Y-0.388 E0.0227
G1 X1.746 Y0.000 E0.0357
G1 X1.702 Y0.388 E0.0487
G1 X1.573 Y0.757 E0.0617
G1 X1.365 Y1.089 E0.0747
G1 X1.089 Y1.365 E0.0877
G1 X0.757 Y1.573 E0.1007
G1 X0.388 Y1.702 E0.1137
G1 X0.000 Y1.746 E0.1267
G1 X-0.388 Y1.702 E0.1397
G1 X-0.757 Y1.573 E0.1527
G1 X-1.089 Y1.365 E0.1657
G1 X-1.365 Y1.089 E0.1787
G1 X-1.573 Y0.758 E0.1917
G1 X-1.702 Y0.388 E0.2047
G1 X-1.746 Y0.000 E0.2177
G1 X-1.702 Y-0.388 E0.2307
G1 X-1.573 Y-0.758 E0.2437
G1 X-1.365 Y-1.089 E0.2567
G1 X-1.089 Y-1.365 E0.2697
G1 X-0.757 Y-1.573 E0.2827
G1 X-0.388 Y-1.702 E0.2957
G1 X0.000 Y-1.746 E0.3087
G1 X0.388 Y-1.702 E0.3217
G1 X0.757 Y-1.573 E0.3347
G1 X1.089 Y-1.365 E0.3478
G1 X1.294 Y-1.159 E0.3574
;segType:Perimeter
G0 X0.185 Y-1.964 F4800
G1 X0.983 Y-1.904 E0.3840 F3600
G1 X1.340 Y-1.680 E0.3980
G1 X1.680 Y-1.340 E0.4140
G1 X1.936 Y-0.932 E0.4300
G1 X2.095 Y-0.478 E0.4460
G1 X2.148 Y0.000 E0.4620
G1 X2.094 Y0.478 E0.4780
G1 X1.936 Y0.932 E0.4940
G1 X1.680 Y1.340 E0.5100
G1 X1.340 Y1.680 E0.5260
G1 X0.932 Y1.936 E0.5420
G1 X0.478 Y2.094 E0.5580
G1 X0.000 Y2.148 E0.5740
G1 X-0.478 Y2.094 E0.5900
G1 X-0.932 Y1.936 E0.6060
G1 X-1.340 Y1.680 E0.6220
G1 X-1.680 Y1.340 E0.6380
G1 X-1.936 Y0.932 E0.6540
G1 X-2.094 Y0.478 E0.6700
G1 X-2.148 Y0.000 E0.6861
G1 X-2.094 Y-0.478 E0.7021
G1 X-1.936 Y-0.932 E0.7181
G1 X-1.680 Y-1.340 E0.7341
G1 X-1.340 Y-1.680 E0.7501
G1 X-0.932 Y-1.936 E0.7661
G1 X-0.478 Y-2.094 E0.7821
G1 X0.000 Y-2.148 E0.7981
G1 X0.478 Y-2.095 E0.8141
G1 X0.875 Y-1.955 E0.8281
G0 X1.420 Y-1.369 F4800
;segType:Infill
G0 X0.972 Y-0.972
G1 X-0.972 Y0.972 E0.9378 F3600
; ------------------------------------
; Layer #34
; ------------------------------------
M106 S255 ;set fan speed
G21 ; mm
G90 ; abs
G92 E0 ;reset extr
;segType:Loop
G0 F4800 E-1.0000
G0 Z7.000
G0 X1.418 Y-1.004
G0 E0.0000
G1 X1.573 Y-0.758 E0.0097 F3600
G1 X1.702 Y-0.388 E0.0227
G1 X1.746 Y0.000 E0.0357
G1 X1.702 Y0.388 E0.0487
G1 X1.573 Y0.757 E0.0617
G1 X1.365 Y1.089 E0.0747
G1 X1.089 Y1.365 E0.0877
G1 X0.757 Y1.573 E0.1007
G1 X0.388 Y1.702 E0.1137
G1 X0.000 Y1.746 E0.1267
G1 X-0.388 Y1.702 E0.1397
G1 X-0.757 Y1.573 E0.1527
G1 X-1.089 Y1.365 E0.1657
G1 X-1.365 Y1.089 E0.1787
G1 X-1.573 Y0.758 E0.1917
G1 X-1.702 Y0.388 E0.2047
G1 X-1.746 Y0.000 E0.2177
G1 X-1.702 Y-0.388 E0.2307
G1 X-1.573 Y-0.758 E0.2437
G1 X-1.365 Y-1.089 E0.2567
G1 X-1.089 Y-1.365 E0.2697
G1 X-0.757 Y-1.573 E0.2827
G1 X-0.388 Y-1.702 E0.2957
G1 X0.000 Y-1.746 E0.3087
G1 X0.388 Y-1.702 E0.3217
G1 X0.757 Y-1.573 E0.3347
G1 X1.089 Y-1.365 E0.3478
G1 X1.294 Y-1.159 E0.3574
;segType:Perimeter
G0 X0.185 Y-1.964 F4800
G1 X0.983 Y-1.904 E0.3840 F3600
G1 X1.340 Y-1.680 E0.3980
G1 X1.680 Y-1.340 E0.4140
G1 X1.936 Y-0.932 E0.4300
G1 X2.095 Y-0.478 E0.4460
G1 X2.148 Y0.000 E0.4620
G1 X2.094 Y0.478 E0.4780
G1 X1.936 Y0.932 E0.4940
G1 X1.680 Y1.340 E0.5100
G1 X1.340 Y1.680 E0.5260
G1 X0.932 Y1.936 E0.5420
G1 X0.478 Y2.094 E0.5580
G1 X0.000 Y2.148 E0.5740
G1 X-0.478 Y2.094 E0.5900
G1 X-0.932 Y1.936 E0.6060
G1 X-1.340 Y1.680 E0.6220
G1 X-1.680 Y1.340 E0.6380
G1 X-1.936 Y0.932 E0.6540
G1 X-2.094 Y0.478 E0.6701
G1 X-2.148 Y0.000 E0.6861
G1 X-2.094 Y-0.478 E0.7021
G1 X-1.936 Y-0.932 E0.7181
G1 X-1.680 Y-1.340 E0.7341
G1 X-1.340 Y-1.680 E0.7501
G1 X-0.932 Y-1.936 E0.7661
G1 X-0.478 Y-2.094 E0.7821
G1 X0.000 Y-2.148 E0.7981
G1 X0.478 Y-2.095 E0.8141
G1 X0.875 Y-1.955 E0.8281
G0 X1.420 Y-1.369 F4800
;segType:Infill
G0 X1.290 Y0.476
G1 X-0.476 Y-1.290 E0.9277 F3600
; ------------------------------------
; Layer #35
; ------------------------------------
M106 S255 ;set fan speed
G21 ; mm
G90 ; abs
G92 E0 ;reset extr
;segType:Loop
G0 F4800 E-1.0000
G0 Z7.200
G0 X1.418 Y-1.004
G0 E0.0000
G1 X1.573 Y-0.758 E0.0097 F3600
G1 X1.702 Y-0.388 E0.0227
G1 X1.746 Y0.000 E0.0357
G1 X1.702 Y0.388 E0.0487
G1 X1.573 Y0.757 E0.0617
G1 X1.365 Y1.089 E0.0747
G1 X1.089 Y1.365 E0.0877
G1 X0.757 Y1.573 E0.1007
G1 X0.388 Y1.702 E0.1137
G1 X0.000 Y1.746 E0.1267
G1 X-0.388 Y1.702 E0.1397
G1 X-0.757 Y1.573 E0.1527
G1 X-1.089 Y1.365 E0.1657
G1 X-1.365 Y1.089 E0.1787
G1 X-1.573 Y0.758 E0.1917
G1 X-1.702 Y0.388 E0.2047
G1 X-1.746 Y0.000 E0.2177
G1 X-1.702 Y-0.388 E0.2307
G1 X-1.573 Y-0.758 E0.2437
G1 X-1.365 Y-1.089 E0.2567
G1 X-1.089 Y-1.365 E0.2697
G1 X-0.757 Y-1.573 E0.2827
G1 X-0.388 Y-1.702 E0.2957
G1 X0.000 Y-1.746 E0.3087
G1 X0.388 Y-1.702 E0.3217
G1 X0.757 Y-1.573 E0.3347
G1 X1.089 Y-1.365 E0.3478
G1 X1.294 Y-1.159 E0.3574
;segType:Perimeter
G0 X0.185 Y-1.964 F4800
G1 X0.983 Y-1.904 E0.3840 F3600
G1 X1.340 Y-1.680 E0.3980
G1 X1.680 Y-1.340 E0.4140
G1 X1.936 Y-0.932 E0.4300
G1 X2.095 Y-0.478 E0.4460
G1 X2.148 Y0.000 E0.4620
G1 X2.094 Y0.478 E0.4780
G1 X1.936 Y0.932 E0.4940
G1 X1.680 Y1.340 E0.5100
G1 X1.340 Y1.680 E0.5260
G1 X0.932 Y1.936 E0.5420
G1 X0.478 Y2.094 E0.5580
G1 X0.000 Y2.148 E0.5740
G1 X-0.478 Y2.094 E0.5900
G1 X-0.932 Y1.936 E0.6060
G1 X-1.340 Y1.680 E0.6220
G1 X-1.680 Y1.340 E0.6380
G1 X-1.936 Y0.932 E0.6540
G1 X-2.094 Y0.478 E0.6700
G1 X-2.148 Y0.000 E0.6861
G1 X-2.094 Y-0.478 E0.7021
G1 X-1.936 Y-0.932 E0.7181
G1 X-1.680 Y-1.340 E0.7341
G1 X-1.340 Y-1.680 E0.7501
G1 X-0.932 Y-1.936 E0.7661
G1 X-0.478 Y-2.094 E0.7821
G1 X0.000 Y-2.148 E0.7981
G1 X0.478 Y-2.095 E0.8141
G1 X0.875 Y-1.955 E0.8281
G0 X1.420 Y-1.369 F4800
;segType:Infill
G0 X-0.972 Y0.972
G1 X0.972 Y-0.972 E0.9378 F3600
; ------------------------------------
; Layer #36
; ------------------------------------
M106 S255 ;set fan speed
G21 ; mm
G90 ; abs
G92 E0 ;reset extr
;segType:Loop
G0 F4800 E-1.0000
G0 Z7.400
G0 X1.418 Y-1.004
G0 E0.0000
G1 X1.573 Y-0.758 E0.0097 F3600
G1 X1.702 Y-0.388 E0.0227
G1 X1.746 Y0.000 E0.0357
G1 X1.702 Y0.388 E0.0487
G1 X1.573 Y0.757 E0.0617
G1 X1.365 Y1.089 E0.0747
G1 X1.089 Y1.365 E0.0877
G1 X0.757 Y1.573 E0.1007
G1 X0.388 Y1.702 E0.1137
G1 X0.000 Y1.746 E0.1267
G1 X-0.388 Y1.702 E0.1397
G1 X-0.757 Y1.573 E0.1527
G1 X-1.089 Y1.365 E0.1657
G1 X-1.365 Y1.089 E0.1787
G1 X-1.573 Y0.758 E0.1917
G1 X-1.702 Y0.388 E0.2047
G1 X-1.746 Y0.000 E0.2177
G1 X-1.702 Y-0.388 E0.2307
G1 X-1.573 Y-0.758 E0.2437
G1 X-1.365 Y-1.089 E0.2567
G1 X-1.089 Y-1.365 E0.2697
G1 X-0.757 Y-1.573 E0.2827
G1 X-0.388 Y-1.702 E0.2957
G1 X0.000 Y-1.746 E0.3087
G1 X0.388 Y-1.702 E0.3217
G1 X0.757 Y-1.573 E0.3347
G1 X1.089 Y-1.365 E0.3478
G1 X1.294 Y-1.159 E0.3574
;segType:Perimeter
G0 X0.185 Y-1.964 F4800
G1 X0.983 Y-1.904 E0.3840 F3600
G1 X1.340 Y-1.680 E0.3980
G1 X1.680 Y-1.340 E0.4140
G1 X1.936 Y-0.932 E0.4300
G1 X2.095 Y-0.478 E0.4460
G1 X2.148 Y0.000 E0.4620
G1 X2.094 Y0.478 E0.4780
G1 X1.936 Y0.932 E0.4940
G1 X1.680 Y1.340 E0.5100
G1 X1.340 Y1.680 E0.5260
G1 X0.932 Y1.936 E0.5420
G1 X0.478 Y2.094 E0.5580
G1 X0.000 Y2.148 E0.5740
G1 X-0.478 Y2.094 E0.5900
G1 X-0.932 Y1.936 E0.6060
G1 X-1.340 Y1.680 E0.6220
G1 X-1.680 Y1.340 E0.6380
G1 X-1.936 Y0.932 E0.6540
G1 X-2.094 Y0.478 E0.6701
G1 X-2.148 Y0.000 E0.6861
G1 X-2.094 Y-0.478 E0.7021
G1 X-1.936 Y-0.932 E0.7181
G1 X-1.680 Y-1.340 E0.7341
G1 X-1.340 Y-1.680 E0.7501
G1 X-0.932 Y-1.936 E0.7661
G1 X-0.478 Y-2.094 E0.7821
G1 X0.000 Y-2.148 E0.7981
G1 X0.478 Y-2.095 E0.8141
G1 X0.875 Y-1.955 E0.8281
G0 X1.420 Y-1.369 F4800
;segType:Infill
G0 X-0.471 Y-1.285
G1 X1.286 Y0.472 E0.9272 F3600
; ------------------------------------
; Layer #37
; ------------------------------------
M106 S255 ;set fan speed
G21 ; mm
G90 ; abs
G92 E0 ;reset extr
;segType:Loop
G0 F4800 E-1.0000
G0 Z7.600
G0 X1.418 Y-1.004
G0 E0.0000
G1 X1.573 Y-0.758 E0.0097 F3600
G1 X1.702 Y-0.388 E0.0227
G1 X1.746 Y0.000 E0.0357
G1 X1.702 Y0.388 E0.0487
G1 X1.573 Y0.757 E0.0617
G1 X1.365 Y1.089 E0.0747
G1 X1.089 Y1.365 E0.0877
G1 X0.757 Y1.573 E0.1007
G1 X0.388 Y1.702 E0.1137
G1 X0.000 Y1.746 E0.1267
G1 X-0.388 Y1.702 E0.1397
G1 X-0.757 Y1.573 E0.1527
G1 X-1.089 Y1.365 E0.1657
G1 X-1.365 Y1.089 E0.1787
G1 X-1.573 Y0.758 E0.1917
G1 X-1.702 Y0.388 E0.2047
G1 X-1.746 Y0.000 E0.2177
G1 X-1.702 Y-0.388 E0.2307
G1 X-1.573 Y-0.758 E0.2437
G1 X-1.365 Y-1.089 E0.2567
G1 X-1.089 Y-1.365 E0.2697
G1 X-0.757 Y-1.573 E0.2827
G1 X-0.388 Y-1.702 E0.2957
G1 X0.000 Y-1.746 E0.3087
G1 X0.388 Y-1.702 E0.3217
G1 X0.757 Y-1.573 E0.3347
G1 X1.089 Y-1.365 E0.3478
G1 X1.294 Y-1.159 E0.3574
;segType:Perimeter
G0 X0.185 Y-1.964 F4800
G1 X0.983 Y-1.904 E0.3840 F3600
G1 X1.340 Y-1.680 E0.3980
G1 X1.680 Y-1.340 E0.4140
G1 X1.936 Y-0.932 E0.4300
G1 X2.095 Y-0.478 E0.4460
G1 X2.148 Y0.000 E0.4620
G1 X2.094 Y0.478 E0.4780
G1 X1.936 Y0.932 E0.4940
G1 X1.680 Y1.340 E0.5100
G1 X1.340 Y1.680 E0.5260
G1 X0.932 Y1.936 E0.5420
G1 X0.478 Y2.094 E0.5580
G1 X0.000 Y2.148 E0.5740
G1 X-0.478 Y2.094 E0.5900
G1 X-0.932 Y1.936 E0.6060
G1 X-1.340 Y1.680 E0.6220
G1 X-1.680 Y1.340 E0.6380
G1 X-1.936 Y0.932 E0.6540
G1 X-2.094 Y0.478 E0.6700
G1 X-2.148 Y0.000 E0.6861
G1 X-2.094 Y-0.478 E0.7021
G1 X-1.936 Y-0.932 E0.7181
G1 X-1.680 Y-1.340 E0.7341
G1 X-1.340 Y-1.680 E0.7501
G1 X-0.932 Y-1.936 E0.7661
G1 X-0.478 Y-2.094 E0.7821
G1 X0.000 Y-2.148 E0.7981
G1 X0.478 Y-2.095 E0.8141
G1 X0.875 Y-1.955 E0.8281
G0 X1.420 Y-1.369 F4800
;segType:Infill
G0 X0.968 Y-0.968
G1 X-0.968 Y0.968 E0.9373 F3600
; ------------------------------------
; Layer #38
; ------------------------------------
M106 S255 ;set fan speed
G21 ; mm
G90 ; abs
G92 E0 ;reset extr
;segType:Loop
G0 F4800 E-1.0000
G0 Z7.800
G0 X1.418 Y-1.004
G0 E0.0000
G1 X1.573 Y-0.758 E0.0097 F3600
G1 X1.702 Y-0.388 E0.0227
G1 X1.746 Y0.000 E0.0357
G1 X1.702 Y0.388 E0.0487
G1 X1.573 Y0.757 E0.0617
G1 X1.365 Y1.089 E0.0747
G1 X1.089 Y1.365 E0.0877
G1 X0.757 Y1.573 E0.1007
G1 X0.388 Y1.702 E0.1137
G1 X0.000 Y1.746 E0.1267
G1 X-0.388 Y1.702 E0.1397
G1 X-0.757 Y1.573 E0.1527
G1 X-1.089 Y1.365 E0.1657
G1 X-1.365 Y1.089 E0.1787
G1 X-1.573 Y0.758 E0.1917
G1 X-1.702 Y0.388 E0.2047
G1 X-1.746 Y0.000 E0.2177
G1 X-1.702 Y-0.388 E0.2307
G1 X-1.573 Y-0.758 E0.2437
G1 X-1.365 Y-1.089 E0.2567
G1 X-1.089 Y-1.365 E0.2697
G1 X-0.757 Y-1.573 E0.2827
G1 X-0.388 Y-1.702 E0.2957
G1 X0.000 Y-1.746 E0.3087
G1 X0.388 Y-1.702 E0.3217
G1 X0.757 Y-1.573 E0.3347
G1 X1.089 Y-1.365 E0.3478
G1 X1.294 Y-1.159 E0.3574
;segType:Perimeter
G0 X0.185 Y-1.964 F4800
G1 X0.983 Y-1.904 E0.3840 F3600
G1 X1.340 Y-1.680 E0.3980
G1 X1.680 Y-1.340 E0.4140
G1 X1.936 Y-0.932 E0.4300
G1 X2.095 Y-0.478 E0.4460
G1 X2.148 Y0.000 E0.4620
G1 X2.094 Y0.478 E0.4780
G1 X1.936 Y0.932 E0.4940
G1 X1.680 Y1.340 E0.5100
G1 X1.340 Y1.680 E0.5260
G1 X0.932 Y1.936 E0.5420
G1 X0.478 Y2.094 E0.5580
G1 X0.000 Y2.148 E0.5740
G1 X-0.478 Y2.094 E0.5900
G1 X-0.932 Y1.936 E0.6060
G1 X-1.340 Y1.680 E0.6220
G1 X-1.680 Y1.340 E0.6380
G1 X-1.936 Y0.932 E0.6540
G1 X-2.094 Y0.478 E0.6700
G1 X-2.148 Y0.000 E0.6861
G1 X-2.094 Y-0.478 E0.7021
G1 X-1.936 Y-0.932 E0.7181
G1 X-1.680 Y-1.340 E0.7341
G1 X-1.340 Y-1.680 E0.7501
G1 X-0.932 Y-1.936 E0.7661
G1 X-0.478 Y-2.094 E0.7821
G1 X0.000 Y-2.148 E0.7981
G1 X0.478 Y-2.095 E0.8141
G1 X0.875 Y-1.955 E0.8281
G0 X1.420 Y-1.369 F4800
;segType:Infill
G0 X1.286 Y0.472
G1 X-0.471 Y-1.285 E0.9272 F3600
; ------------------------------------
; Layer #39
; ------------------------------------
M106 S255 ;set fan speed
G21 ; mm
G90 ; abs
G92 E0 ;reset extr
;segType:Loop
G0 F4800 E-1.0000
G0 Z8.000
G0 X1.418 Y-1.004
G0 E0.0000
G1 X1.573 Y-0.758 E0.0097 F3600
G1 X1.702 Y-0.388 E0.0227
G1 X1.746 Y0.000 E0.0357
G1 X1.702 Y0.388 E0.0487
G1 X1.573 Y0.757 E0.0617
G1 X1.365 Y1.089 E0.0747
G1 X1.089 Y1.365 E0.0877
G1 X0.757 Y1.573 E0.1007
G1 X0.388 Y1.702 E0.1137
G1 X0.000 Y1.746 E0.1267
G1 X-0.388 Y1.702 E0.1397
G1 X-0.757 Y1.573 E0.1527
G1 X-1.089 Y1.365 E0.1657
G1 X-1.365 Y1.089 E0.1787
G1 X-1.573 Y0.758 E0.1917
G1 X-1.702 Y0.388 E0.2047
G1 X-1.746 Y0.000 E0.2177
G1 X-1.702 Y-0.388 E0.2307
G1 X-1.573 Y-0.758 E0.2437
G1 X-1.365 Y-1.089 E0.2567
G1 X-1.089 Y-1.365 E0.2697
G1 X-0.757 Y-1.573 E0.2827
G1 X-0.388 Y-1.702 E0.2957
G1 X0.000 Y-1.746 E0.3087
G1 X0.388 Y-1.702 E0.3217
G1 X0.757 Y-1.573 E0.3347
G1 X1.089 Y-1.365 E0.3478
G1 X1.294 Y-1.159 E0.3574
;segType:Perimeter
G0 X0.185 Y-1.964 F4800
G1 X0.983 Y-1.904 E0.3840 F3600
G1 X1.340 Y-1.680 E0.3980
G1 X1.680 Y-1.340 E0.4140
G1 X1.936 Y-0.932 E0.4300
G1 X2.095 Y-0.478 E0.4460
G1 X2.148 Y0.000 E0.4620
G1 X2.094 Y0.478 E0.4780
G1 X1.936 Y0.932 E0.4940
G1 X1.680 Y1.340 E0.5100
G1 X1.340 Y1.680 E0.5260
G1 X0.932 Y1.936 E0.5420
G1 X0.478 Y2.094 E0.5580
G1 X0.000 Y2.148 E0.5740
G1 X-0.478 Y2.094 E0.5900
G1 X-0.932 Y1.936 E0.6060
G1 X-1.340 Y1.680 E0.6220
G1 X-1.680 Y1.340 E0.6380
G1 X-1.936 Y0.932 E0.6540
G1 X-2.094 Y0.478 E0.6701
G1 X-2.148 Y0.000 E0.6861
G1 X-2.094 Y-0.478 E0.7021
G1 X-1.936 Y-0.932 E0.7181
G1 X-1.680 Y-1.340 E0.7341
G1 X-1.340 Y-1.680 E0.7501
G1 X-0.932 Y-1.936 E0.7661
G1 X-0.478 Y-2.094 E0.7821
G1 X0.000 Y-2.148 E0.7981
G1 X0.478 Y-2.095 E0.8141
G1 X0.875 Y-1.955 E0.8281
G0 X1.420 Y-1.369 F4800
;segType:Infill
G0 X-0.968 Y0.968
G1 X0.968 Y-0.968 E0.9373 F3600
; ------------------------------------
; Layer #40
; ------------------------------------
M106 S255 ;set fan speed
G21 ; mm
G90 ; abs
G92 E0 ;reset extr
;segType:Loop
G0 F4800 E-1.0000
G0 Z8.200
G0 X1.384 Y-1.040
G0 E0.0000
G1 X1.545 Y-0.799 E0.0096 F3600
G1 X1.684 Y-0.436 E0.0226
G1 X1.738 Y-0.050 E0.0355
G1 X1.706 Y0.338 E0.0485
G1 X1.588 Y0.709 E0.0614
G1 X1.390 Y1.045 E0.0744
G1 X1.123 Y1.328 E0.0873
G1 X0.799 Y1.545 E0.1003
G1 X0.436 Y1.684 E0.1133
G1 X0.050 Y1.738 E0.1262
G1 X-0.338 Y1.706 E0.1392
G1 X-0.709 Y1.588 E0.1521
G1 X-1.045 Y1.390 E0.1651
G1 X-1.328 Y1.123 E0.1780
G1 X-1.545 Y0.799 E0.1910
G1 X-1.684 Y0.436 E0.2039
G1 X-1.738 Y0.050 E0.2169
G1 X-1.706 Y-0.338 E0.2298
G1 X-1.588 Y-0.709 E0.2428
G1 X-1.390 Y-1.045 E0.2557
G1 X-1.123 Y-1.328 E0.2687
G1 X-0.799 Y-1.545 E0.2816
G1 X-0.436 Y-1.684 E0.2946
G1 X-0.050 Y-1.738 E0.3076
G1 X0.338 Y-1.706 E0.3205
G1 X0.709 Y-1.588 E0.3335
G1 X1.045 Y-1.390 E0.3464
G1 X1.255 Y-1.192 E0.3560
;segType:Perimeter
G0 X0.126 Y-1.962 F4800
G1 X0.925 Y-1.925 E0.3826 F3600
G1 X1.287 Y-1.712 E0.3966
G1 X1.636 Y-1.383 E0.4126
G1 X1.902 Y-0.984 E0.4285
G1 X2.073 Y-0.536 E0.4445
G1 X2.141 Y-0.062 E0.4604
G1 X2.101 Y0.416 E0.4764
G1 X1.956 Y0.874 E0.4923
G1 X1.712 Y1.287 E0.5083
G1 X1.383 Y1.636 E0.5242
G1 X0.984 Y1.902 E0.5402
G1 X0.536 Y2.073 E0.5561
G1 X0.062 Y2.141 E0.5721
G1 X-0.416 Y2.101 E0.5880
G1 X-0.874 Y1.956 E0.6040
G1 X-1.287 Y1.712 E0.6199
G1 X-1.636 Y1.383 E0.6359
G1 X-1.902 Y0.984 E0.6518
G1 X-2.073 Y0.536 E0.6678
G1 X-2.141 Y0.062 E0.6837
G1 X-2.101 Y-0.416 E0.6997
G1 X-1.956 Y-0.874 E0.7156
G1 X-1.712 Y-1.287 E0.7316
G1 X-1.383 Y-1.636 E0.7475
G1 X-0.984 Y-1.902 E0.7635
G1 X-0.536 Y-2.073 E0.7794
G1 X-0.062 Y-2.141 E0.7954
G1 X0.416 Y-2.101 E0.8113
G1 X0.816 Y-1.974 E0.8253
G0 X1.377 Y-1.403 F4800
;segType:Infill
G0 X-0.471 Y-1.285
G1 X1.286 Y0.472 E0.9244 F3600
; ------------------------------------
; Layer #41
; ------------------------------------
M106 S255 ;set fan speed
G21 ; mm
G90 ; abs
G92 E0 ;reset extr
;segType:Loop
G0 F4800 E-1.0000
G0 Z8.400
G0 X1.391 Y-1.032
G0 E0.0000
G1 X1.551 Y-0.790 E0.0096 F3600
G1 X1.688 Y-0.425 E0.0226
G1 X1.740 Y-0.039 E0.0356
G1 X1.705 Y0.349 E0.0485
G1 X1.585 Y0.720 E0.0615
G1 X1.385 Y1.054 E0.0744
G1 X1.115 Y1.336 E0.0874
G1 X0.790 Y1.551 E0.1004
G1 X0.425 Y1.688 E0.1133
G1 X0.039 Y1.740 E0.1263
G1 X-0.349 Y1.705 E0.1393
G1 X-0.720 Y1.585 E0.1522
G1 X-1.054 Y1.385 E0.1652
G1 X-1.336 Y1.115 E0.1782
G1 X-1.551 Y0.790 E0.1911
G1 X-1.688 Y0.425 E0.2041
G1 X-1.740 Y0.039 E0.2170
G1 X-1.705 Y-0.349 E0.2300
G1 X-1.585 Y-0.720 E0.2430
G1 X-1.385 Y-1.054 E0.2559
G1 X-1.115 Y-1.336 E0.2689
G1 X-0.790 Y-1.551 E0.2819
G1 X-0.425 Y-1.688 E0.2948
G1 X-0.039 Y-1.740 E0.3078
G1 X0.349 Y-1.705 E0.3208
G1 X0.720 Y-1.585 E0.3337
G1 X1.054 Y-1.385 E0.3467
G1 X1.264 Y-1.184 E0.3563
;segType:Perimeter
G0 X0.139 Y-1.962 F4800
G1 X0.938 Y-1.920 E0.3829 F3600
G1 X1.298 Y-1.705 E0.3969
G1 X1.645 Y-1.373 E0.4128
G1 X1.910 Y-0.973 E0.4288
G1 X2.078 Y-0.523 E0.4448
G1 X2.142 Y-0.048 E0.4607
G1 X2.099 Y0.430 E0.4767
G1 X1.951 Y0.887 E0.4927
G1 X1.705 Y1.298 E0.5086
G1 X1.373 Y1.645 E0.5246
G1 X0.973 Y1.910 E0.5405
G1 X0.523 Y2.078 E0.5565
G1 X0.048 Y2.142 E0.5725
G1 X-0.430 Y2.099 E0.5884
G1 X-0.887 Y1.951 E0.6044
G1 X-1.298 Y1.705 E0.6203
G1 X-1.645 Y1.373 E0.6363
G1 X-1.910 Y0.973 E0.6523
G1 X-2.078 Y0.523 E0.6682
G1 X-2.142 Y0.048 E0.6842
G1 X-2.099 Y-0.430 E0.7001
G1 X-1.951 Y-0.887 E0.7161
G1 X-1.705 Y-1.298 E0.7321
G1 X-1.373 Y-1.645 E0.7480
G1 X-0.973 Y-1.910 E0.7640
G1 X-0.523 Y-2.078 E0.7800
G1 X-0.048 Y-2.142 E0.7959
G1 X0.430 Y-2.099 E0.8119
G1 X0.830 Y-1.970 E0.8258
G0 X1.387 Y-1.395 F4800
;segType:HShell
G0 X-0.375 Y-1.322
G1 X-1.316 Y-0.381 E0.8701 F3600
G0 X-1.352 Y0.221 F4800
G1 X0.223 Y-1.355 E0.9442 F3600
G0 X0.645 Y-1.210 F4800
G1 X-1.213 Y0.648 E1.0316 F3600
G0 X-0.969 Y0.969 F4800
G1 X0.969 Y-0.969 E1.1227 F3600
G0 X1.213 Y-0.648 F4800
G1 X-0.645 Y1.210 E1.2101 F3600
G0 X-0.223 Y1.355 F4800
G1 X1.352 Y-0.221 E1.2842 F3600
G0 X1.316 Y0.381 F4800
G1 X0.375 Y1.322 E1.3285 F3600
; ------------------------------------
; Layer #42
; ------------------------------------
M106 S255 ;set fan speed
G21 ; mm
G90 ; abs
G92 E0 ;reset extr
;segType:Loop
G0 F4800 E-1.0000
G0 Z8.600
G0 X1.399 Y-1.024
G0 E0.0000
G1 X1.557 Y-0.781 E0.0096 F3600
G1 X1.692 Y-0.415 E0.0226
G1 X1.742 Y-0.028 E0.0356
G1 X1.704 Y0.360 E0.0486
G1 X1.581 Y0.731 E0.0615
G1 X1.379 Y1.064 E0.0745
G1 X1.108 Y1.344 E0.0875
G1 X0.781 Y1.557 E0.1005
G1 X0.415 Y1.692 E0.1134
G1 X0.028 Y1.742 E0.1264
G1 X-0.360 Y1.704 E0.1394
G1 X-0.731 Y1.581 E0.1524
G1 X-1.064 Y1.379 E0.1653
G1 X-1.344 Y1.108 E0.1783
G1 X-1.557 Y0.781 E0.1913
G1 X-1.692 Y0.415 E0.2042
G1 X-1.742 Y0.028 E0.2172
G1 X-1.704 Y-0.360 E0.2302
G1 X-1.581 Y-0.731 E0.2432
G1 X-1.379 Y-1.064 E0.2561
G1 X-1.108 Y-1.344 E0.2691
G1 X-0.781 Y-1.557 E0.2821
G1 X-0.415 Y-1.692 E0.2951
G1 X-0.028 Y-1.742 E0.3080
G1 X0.360 Y-1.704 E0.3210
G1 X0.731 Y-1.581 E0.3340
G1 X1.064 Y-1.379 E0.3470
G1 X1.273 Y-1.177 E0.3566
;segType:Perimeter
G0 X0.152 Y-1.963 F4800
G1 X0.951 Y-1.915 E0.3832 F3600
G1 X1.310 Y-1.698 E0.3972
G1 X1.655 Y-1.363 E0.4132
G1 X1.917 Y-0.961 E0.4291
G1 X2.083 Y-0.510 E0.4451
G1 X2.144 Y-0.034 E0.4611
G1 X2.098 Y0.444 E0.4770
G1 X1.947 Y0.900 E0.4930
G1 X1.698 Y1.310 E0.5090
G1 X1.363 Y1.655 E0.5250
G1 X0.961 Y1.917 E0.5409
G1 X0.510 Y2.083 E0.5569
G1 X0.034 Y2.144 E0.5729
G1 X-0.444 Y2.098 E0.5888
G1 X-0.900 Y1.947 E0.6048
G1 X-1.310 Y1.698 E0.6208
G1 X-1.655 Y1.363 E0.6368
G1 X-1.917 Y0.961 E0.6527
G1 X-2.083 Y0.510 E0.6687
G1 X-2.144 Y0.034 E0.6847
G1 X-2.098 Y-0.444 E0.7006
G1 X-1.947 Y-0.900 E0.7166
G1 X-1.698 Y-1.310 E0.7326
G1 X-1.363 Y-1.655 E0.7486
G1 X-0.961 Y-1.917 E0.7645
G1 X-0.510 Y-2.083 E0.7805
G1 X-0.034 Y-2.144 E0.7965
G1 X0.444 Y-2.098 E0.8124
G1 X0.843 Y-1.965 E0.8264
G0 X1.396 Y-1.388 F4800
;segType:HShell
G0 X1.377 Y-0.002
G1 X0.002 Y-1.377 E0.8911 F3600
G0 X-0.473 Y-1.287 F4800
G1 X1.287 Y0.473 E0.9739 F3600
G0 X1.091 Y0.843 F4800
G1 X-0.841 Y-1.089 E1.0648 F3600
G0 X-1.118 Y-0.800 F4800
G1 X0.798 Y1.116 E1.1549 F3600
G0 X0.422 Y1.305 F4800
G1 X-1.305 Y-0.421 E1.2361 F3600
G0 X-1.372 Y0.077 F4800
G1 X-0.079 Y1.370 E1.2969 F3600
; ------------------------------------
; Layer #43
; ------------------------------------
M106 S255 ;set fan speed
G21 ; mm
G90 ; abs
G92 E0 ;reset extr
;segType:Loop
G0 F4800 E-1.0000
G0 Z8.800
G0 X1.407 Y-1.016
G0 E0.0000
G1 X1.563 Y-0.771 E0.0097 F3600
G1 X1.696 Y-0.404 E0.0226
G1 X1.743 Y-0.017 E0.0356
G1 X1.703 Y0.372 E0.0486
G1 X1.578 Y0.741 E0.0616
G1 X1.373 Y1.074 E0.0746
G1 X1.100 Y1.353 E0.0876
G1 X0.771 Y1.563 E0.1006
G1 X0.404 Y1.696 E0.1135
G1 X0.017 Y1.743 E0.1265
G1 X-0.372 Y1.703 E0.1395
G1 X-0.741 Y1.578 E0.1525
G1 X-1.074 Y1.373 E0.1655
G1 X-1.353 Y1.100 E0.1785
G1 X-1.563 Y0.771 E0.1914
G1 X-1.696 Y0.404 E0.2044
G1 X-1.743 Y0.017 E0.2174
G1 X-1.703 Y-0.372 E0.2304
G1 X-1.578 Y-0.741 E0.2434
G1 X-1.373 Y-1.074 E0.2564
G1 X-1.100 Y-1.353 E0.2693
G1 X-0.771 Y-1.563 E0.2823
G1 X-0.404 Y-1.696 E0.2953
G1 X-0.017 Y-1.743 E0.3083
G1 X0.372 Y-1.703 E0.3213
G1 X0.741 Y-1.578 E0.3343
G1 X1.074 Y-1.373 E0.3472
G1 X1.281 Y-1.170 E0.3569
;segType:Perimeter
G0 X0.165 Y-1.963 F4800
G1 X0.964 Y-1.911 E0.3835 F3600
G1 X1.322 Y-1.690 E0.3975
G1 X1.665 Y-1.354 E0.4135
G1 X1.924 Y-0.949 E0.4295
G1 X2.087 Y-0.498 E0.4455
G1 X2.146 Y-0.020 E0.4614
G1 X2.097 Y0.458 E0.4774
G1 X1.942 Y0.912 E0.4934
G1 X1.690 Y1.322 E0.5094
G1 X1.354 Y1.665 E0.5254
G1 X0.949 Y1.924 E0.5414
G1 X0.498 Y2.087 E0.5573
G1 X0.020 Y2.146 E0.5733
G1 X-0.458 Y2.097 E0.5893
G1 X-0.912 Y1.942 E0.6053
G1 X-1.322 Y1.690 E0.6213
G1 X-1.665 Y1.354 E0.6372
G1 X-1.924 Y0.949 E0.6532
G1 X-2.087 Y0.498 E0.6692
G1 X-2.146 Y0.020 E0.6852
G1 X-2.097 Y-0.458 E0.7012
G1 X-1.942 Y-0.912 E0.7172
G1 X-1.690 Y-1.322 E0.7331
G1 X-1.354 Y-1.665 E0.7491
G1 X-0.949 Y-1.924 E0.7651
G1 X-0.498 Y-2.087 E0.7811
G1 X-0.020 Y-2.146 E0.7971
