;FLAVOR:Marlin
;TIME:186
;Filament used: 0.0634104m
;Layer height: 0.2
;Generated with Cura_SteamEngine 3.2.1
M82 ;absolute extrusion mode
; info: M303 E0 S200 C8 ; Pid auto-tune 

M140 S60; Start heating up the base
G28 ; Home to top 3 endstops
; Autolevel and adjust first layer
; Adjust this value to fit your own printer!  (positive is thicker)
; This default value is intentionally very high to accommodate the
; variety of print heads used with this printer.  Many of you will
; need tiny values like Z0 or Z0.1.  Use feeler gauges to dial this
; in as accurately as possible.
G29 Z10

; Squirt and wipe ;
M109 S220 ; Wait for the temp to hit 220
G00 X125 Y-60 Z0.1 ;
G92 E0 ;
G01 E25 F100 ; Extrude a little bit to replace oozage from auto levelling
G01 X90 Y-50 F6000 ;
G01 Z5 ;

; Set the extruder to the requested print temperature
M104 S210

;LAYER_COUNT:45
;LAYER:0
M107
G0 F2400 X-1.928 Y9.833 Z0.3
;TYPE:SKIRT
G1 F1800 X-2.691 Y9.679 E0.02718
G1 X-3.434 Y9.448 E0.05436
G1 X-4.216 Y9.108 E0.08414
G1 X-4.803 Y8.813 E0.10708
G1 X-5.48 Y8.429 E0.13426
G1 X-6.113 Y7.977 E0.16142
G1 X-6.775 Y7.385 E0.19244
G1 X-7.418 Y6.738 E0.2243
G1 X-7.937 Y6.158 E0.25148
G1 X-8.395 Y5.529 E0.27865
G1 X-8.814 Y4.799 E0.30804
G1 X-9.122 Y4.186 E0.332
G1 X-9.435 Y3.473 E0.3592
G1 X-9.673 Y2.733 E0.38634
G1 X-9.831 Y1.996 E0.41267
G1 X-9.958 Y1.212 E0.4404
G1 X-10.042 Y0.439 E0.46756
G1 X-10.047 Y-.339 E0.49473
G1 X-9.958 Y-1.205 E0.52513
G1 X-9.832 Y-1.986 E0.55276
G1 X-9.669 Y-2.747 E0.57994
G1 X-9.429 Y-3.487 E0.60711
G1 X-9.062 Y-4.298 E0.63819
G1 X-8.687 Y-5.013 E0.66639
G1 X-8.291 Y-5.683 E0.69357
G1 X-7.828 Y-6.309 E0.72076
G1 X-7.231 Y-6.953 E0.75143
G1 X-6.674 Y-7.489 E0.77842
G1 X-6.087 Y-7.999 E0.80558
G1 X-5.45 Y-8.446 E0.83276
G1 X-5.046 Y-8.683 E0.84912
G1 X-4.567 Y-8.944 E0.86817
G1 X-3.866 Y-9.28 E0.89531
G1 X-2.885 Y-9.614 E0.9315
G1 X-2.244 Y-9.784 E0.95466
G1 X-1.482 Y-9.944 E0.98186
G1 X-.374 Y-10.037 E1.02069
G1 X0.15 Y-10.042 E1.03899
G1 X0.927 Y-10.009 E1.06615
G1 X1.868 Y-9.861 E1.09941
G1 X2.524 Y-9.715 E1.12288
G1 X3.274 Y-9.507 E1.15007
G1 X3.998 Y-9.224 E1.17721
G1 X4.657 Y-8.886 E1.20308
G1 X5.345 Y-8.49 E1.2308
G1 X5.998 Y-8.068 E1.25795
G1 X6.605 Y-7.581 E1.28513
G1 X6.966 Y-7.237 E1.30255
G1 X7.33 Y-6.867 E1.32067
G1 X7.846 Y-6.285 E1.34783
G1 X8.428 Y-5.447 E1.38347
G1 X8.785 Y-4.851 E1.40773
G1 X9.15 Y-4.164 E1.4349
G1 X9.443 Y-3.443 E1.46208
G1 X9.694 Y-2.546 E1.49461
G1 X9.883 Y-1.664 E1.52611
G1 X10.007 Y-.896 E1.55328
G1 X10.051 Y-.119 E1.58045
G1 X10.013 Y0.678 E1.60832
G1 X9.946 Y1.347 E1.6318
G1 X9.829 Y2.116 E1.65896
G1 X9.634 Y2.869 E1.68613
G1 X9.377 Y3.562 E1.71194
G1 X9.065 Y4.294 E1.73973
G1 X8.724 Y4.993 E1.76689
G1 X8.312 Y5.654 E1.79409
G1 X7.633 Y6.495 E1.83184
G1 X7.01 Y7.162 E1.86372
G1 X6.45 Y7.702 E1.89088
G1 X5.838 Y8.183 E1.91807
G1 X4.884 Y8.755 E1.95691
G1 X4.142 Y9.129 E1.98593
G1 X3.43 Y9.443 E2.01311
G1 X2.689 Y9.683 E2.04031
G1 X2.068 Y9.821 E2.06253
G1 X1.443 Y9.933 E2.0847
G1 X0.671 Y10.031 E2.11188
G1 X-.107 Y10.049 E2.13906
G1 X-1.006 Y9.97 E2.17057
G1 X-1.928 Y9.833 E2.20313
G0 F2400 X-1.877 Y9.487
G1 F1800 X-2.622 Y9.335 E2.22968
G1 X-3.347 Y9.107 E2.25622
G1 X-4.059 Y8.796 E2.28335
G1 X-4.646 Y8.501 E2.3063
G1 X-5.306 Y8.124 E2.33284
G1 X-5.923 Y7.68 E2.35939
G1 X-6.527 Y7.138 E2.38773
G1 X-7.17 Y6.491 E2.41959
G1 X-7.676 Y5.924 E2.44613
G1 X-8.121 Y5.308 E2.47266
G1 X-8.501 Y4.642 E2.49944
G1 X-8.809 Y4.029 E2.5234
G1 X-9.114 Y3.333 E2.54994
G1 X-9.344 Y2.608 E2.5765
G1 X-9.485 Y1.94 E2.60035
G1 X-9.612 Y1.156 E2.62808
G1 X-9.694 Y0.401 E2.6546
G1 X-9.696 Y-.359 E2.68115
G1 X-9.613 Y-1.15 E2.70892
G1 X-9.487 Y-1.931 E2.73655
G1 X-9.326 Y-2.674 E2.7631
G1 X-9.089 Y-3.396 E2.78964
G1 X-8.752 Y-4.136 E2.81803
G1 X-8.377 Y-4.851 E2.84623
G1 X-7.989 Y-5.504 E2.87276
G1 X-7.535 Y-6.114 E2.89931
G1 X-6.989 Y-6.701 E2.92731
G1 X-6.432 Y-7.237 E2.95431
G1 X-5.857 Y-7.734 E2.98085
G1 X-5.234 Y-8.169 E3.00738
G1 X-4.879 Y-8.375 E3.02172
G1 X-4.4 Y-8.636 E3.04077
G1 X-3.714 Y-8.964 E3.06732
G1 X-2.795 Y-9.276 E3.10122
G1 X-2.154 Y-9.446 E3.12438
G1 X-1.41 Y-9.601 E3.15092
G1 X-.371 Y-9.687 E3.18733
G1 X0.153 Y-9.692 E3.20563
G1 X0.912 Y-9.659 E3.23216
G1 X1.792 Y-9.519 E3.26328
G1 X2.448 Y-9.373 E3.28675
G1 X3.18 Y-9.17 E3.31328
G1 X3.886 Y-8.89 E3.3398
G1 X4.482 Y-8.583 E3.36321
G1 X5.17 Y-8.187 E3.39094
G1 X5.808 Y-7.774 E3.41748
G1 X6.399 Y-7.296 E3.44402
G1 X6.716 Y-6.992 E3.45936
G1 X7.08 Y-6.622 E3.47749
G1 X7.584 Y-6.053 E3.50403
G1 X8.128 Y-5.268 E3.53739
G1 X8.485 Y-4.672 E3.56165
G1 X8.841 Y-4 E3.58821
G1 X9.124 Y-3.295 E3.61474
G1 X9.352 Y-2.473 E3.64453
G1 X9.541 Y-1.591 E3.67603
G1 X9.661 Y-.84 E3.70259
G1 X9.701 Y-0.081 E3.72913
G1 X9.665 Y0.643 E3.75445
G1 X9.598 Y1.312 E3.77793
G1 X9.483 Y2.063 E3.80446
G1 X9.289 Y2.798 E3.83101
G1 X9.055 Y3.425 E3.85438
G1 X8.743 Y4.157 E3.88217
G1 X8.409 Y4.839 E3.90869
G1 X8.005 Y5.483 E3.93524
G1 X7.377 Y6.256 E3.97002
G1 X6.754 Y6.923 E4.0019
G1 X6.207 Y7.45 E4.02842
G1 X5.607 Y7.917 E4.05498
G1 X4.726 Y8.443 E4.09081
G1 X3.984 Y8.817 E4.11983
G1 X3.288 Y9.123 E4.14638
G1 X2.564 Y9.354 E4.17292
G1 X2.006 Y9.477 E4.19288
G1 X1.381 Y9.589 E4.21505
G1 X0.627 Y9.683 E4.24159
G1 X-.133 Y9.698 E4.26813
G1 X-.955 Y9.624 E4.29696
G1 X-1.877 Y9.487 E4.32951
G0 F2400 X-1.825 Y9.14
G1 F1800 X-2.552 Y8.992 E4.35542
G1 X-3.258 Y8.766 E4.38131
G1 X-3.902 Y8.483 E4.40587
G1 X-4.489 Y8.188 E4.42882
G1 X-5.133 Y7.82 E4.45472
G1 X-5.733 Y7.384 E4.48062
G1 X-6.278 Y6.891 E4.50629
G1 X-6.921 Y6.244 E4.53814
G1 X-7.415 Y5.691 E4.56404
G1 X-7.846 Y5.088 E4.58992
G1 X-8.188 Y4.485 E4.61413
G1 X-8.496 Y3.872 E4.63809
G1 X-8.793 Y3.192 E4.66401
G1 X-9.015 Y2.485 E4.68989
G1 X-9.14 Y1.884 E4.71132
G1 X-9.267 Y1.1 E4.73906
G1 X-9.345 Y0.363 E4.76494
G1 X-9.345 Y-.378 E4.79082
G1 X-9.267 Y-1.094 E4.81597
G1 X-9.141 Y-1.875 E4.8436
G1 X-8.984 Y-2.599 E4.86947
G1 X-8.749 Y-3.303 E4.89539
G1 X-8.442 Y-3.973 E4.92113
G1 X-8.067 Y-4.688 E4.94933
G1 X-7.688 Y-5.325 E4.97521
G1 X-7.243 Y-5.918 E5.0011
G1 X-6.746 Y-6.449 E5.0265
G1 X-6.189 Y-6.985 E5.0535
G1 X-5.628 Y-7.469 E5.07938
G1 X-4.711 Y-8.068 E5.11763
G1 X-4.232 Y-8.329 E5.13668
G1 X-3.563 Y-8.648 E5.16256
G1 X-2.705 Y-8.937 E5.19418
G1 X-2.064 Y-9.107 E5.21734
G1 X-1.339 Y-9.258 E5.2432
G1 X-.368 Y-9.337 E5.27722
G1 X0.156 Y-9.342 E5.29552
G1 X0.897 Y-9.309 E5.32143
G1 X1.716 Y-9.178 E5.35039
G1 X2.372 Y-9.032 E5.37386
G1 X3.085 Y-8.832 E5.39973
G1 X3.774 Y-8.556 E5.42565
G1 X4.308 Y-8.279 E5.44665
G1 X4.996 Y-7.883 E5.47438
G1 X5.617 Y-7.48 E5.50023
G1 X6.192 Y-7.011 E5.52614
G1 X6.467 Y-6.746 E5.53948
G1 X6.831 Y-6.376 E5.55761
G1 X7.322 Y-5.821 E5.58349
G1 X7.828 Y-5.088 E5.61459
G1 X8.185 Y-4.492 E5.63885
G1 X8.531 Y-3.836 E5.66476
G1 X8.804 Y-3.147 E5.69064
G1 X9.009 Y-2.4 E5.71769
G1 X9.198 Y-1.518 E5.74919
G1 X9.314 Y-.785 E5.77511
G1 X9.351 Y-0.045 E5.80098
G1 X9.317 Y0.608 E5.82382
G1 X9.25 Y1.277 E5.8473
G1 X9.136 Y2.01 E5.87321
G1 X8.944 Y2.726 E5.8991
G1 X8.733 Y3.288 E5.92006
G1 X8.421 Y4.02 E5.94785
G1 X8.094 Y4.685 E5.97373
G1 X7.698 Y5.311 E5.9996
G1 X7.121 Y6.017 E6.03144
G1 X6.498 Y6.684 E6.06331
G1 X5.964 Y7.198 E6.0892
G1 X5.377 Y7.651 E6.11509
G1 X4.568 Y8.13 E6.14793
G1 X3.826 Y8.504 E6.17695
G1 X3.147 Y8.802 E6.20284
G1 X2.44 Y9.024 E6.22872
G1 X1.945 Y9.132 E6.24641
G1 X1.32 Y9.244 E6.26859
G1 X0.584 Y9.335 E6.29449
G1 X-.157 Y9.347 E6.32037
G1 X-.903 Y9.277 E6.34654
G1 X-1.825 Y9.14 E6.37909
G0 F2400 X-1.774 Y8.794
G1 F1800 X-2.481 Y8.649 E6.40429
G1 X-3.168 Y8.426 E6.42952
G1 X-3.745 Y8.17 E6.45156
G1 X-4.332 Y7.875 E6.47451
G1 X-4.958 Y7.516 E6.49971
G1 X-5.541 Y7.089 E6.52495
G1 X-6.03 Y6.645 E6.54801
G1 X-6.673 Y5.998 E6.57987
G1 X-7.153 Y5.458 E6.6051
G1 X-7.571 Y4.868 E6.63035
G1 X-7.875 Y4.327 E6.65202
G1 X-8.183 Y3.714 E6.67598
G1 X-8.471 Y3.052 E6.70119
G1 X-8.685 Y2.362 E6.72642
G1 X-8.794 Y1.828 E6.74546
G1 X-8.921 Y1.044 E6.77319
G1 X-8.997 Y0.326 E6.79841
G1 X-8.993 Y-.396 E6.82362
G1 X-8.922 Y-1.038 E6.84618
G1 X-8.796 Y-1.819 E6.87381
G1 X-8.641 Y-2.525 E6.89905
G1 X-8.41 Y-3.209 E6.92426
G1 X-8.132 Y-3.811 E6.94742
G1 X-7.757 Y-4.526 E6.97562
G1 X-7.387 Y-5.146 E7.00083
G1 X-6.951 Y-5.721 E7.02603
G1 X-6.503 Y-6.197 E7.04886
G1 X-5.946 Y-6.733 E7.07586
G1 X-5.399 Y-7.204 E7.10107
G1 X-4.544 Y-7.761 E7.1367
G1 X-4.065 Y-8.022 E7.15575
G1 X-3.413 Y-8.332 E7.18097
G1 X-2.616 Y-8.599 E7.21032
G1 X-1.975 Y-8.769 E7.23348
G1 X-1.267 Y-8.915 E7.25872
G1 X-.364 Y-8.987 E7.29036
G1 X0.16 Y-8.992 E7.30866
G1 X0.881 Y-8.959 E7.33387
G1 X1.64 Y-8.836 E7.36072
G1 X2.296 Y-8.69 E7.38419
G1 X2.991 Y-8.494 E7.40941
G1 X3.66 Y-8.223 E7.43462
G1 X4.133 Y-7.976 E7.45325
G1 X4.821 Y-7.58 E7.48097
G1 X5.426 Y-7.186 E7.50619
G1 X6.217 Y-6.501 E7.54273
G1 X6.581 Y-6.131 E7.56086
G1 X7.059 Y-5.589 E7.58609
G1 X7.528 Y-4.908 E7.61497
G1 X7.885 Y-4.312 E7.63923
G1 X8.221 Y-3.673 E7.66445
G1 X8.484 Y-3 E7.68968
G1 X8.667 Y-2.326 E7.71407
G1 X8.856 Y-1.444 E7.74557
G1 X8.968 Y-.731 E7.77078
G1 X9.001 Y-0.009 E7.79602
G1 X8.969 Y0.573 E7.81638
G1 X8.902 Y1.242 E7.83986
G1 X8.79 Y1.956 E7.8651
G1 X8.6 Y2.653 E7.89033
G1 X8.411 Y3.15 E7.90889
G1 X8.099 Y3.882 E7.93668
G1 X7.78 Y4.53 E7.96191
G1 X7.391 Y5.139 E7.98714
G1 X6.865 Y5.778 E8.01605
G1 X6.242 Y6.445 E8.04792
G1 X5.721 Y6.945 E8.07314
G1 X5.148 Y7.384 E8.09835
G1 X4.411 Y7.818 E8.12822
G1 X3.669 Y8.192 E8.15724
G1 X3.007 Y8.481 E8.18246
G1 X2.317 Y8.695 E8.20769
G1 X1.883 Y8.788 E8.22319
G1 X1.258 Y8.9 E8.24537
G1 X0.541 Y8.988 E8.2706
G1 X-.181 Y8.996 E8.29581
G1 X-.852 Y8.931 E8.31936
G1 X-1.774 Y8.794 E8.35191
G0 F2400 X-1.723 Y8.448
G1 F1800 X-2.411 Y8.305 E8.37645
G1 X-3.078 Y8.085 E8.40098
G1 X-3.588 Y7.857 E8.42049
G1 X-4.175 Y7.562 E8.44343
G1 X-4.784 Y7.212 E8.46796
G1 X-5.349 Y6.794 E8.4925
G1 X-5.782 Y6.398 E8.513
G1 X-6.425 Y5.751 E8.54485
G1 X-6.891 Y5.225 E8.56939
G1 X-7.294 Y4.65 E8.59392
G1 X-7.563 Y4.17 E8.61313
G1 X-7.871 Y3.557 E8.63709
G1 X-8.15 Y2.913 E8.6616
G1 X-8.354 Y2.24 E8.68616
G1 X-8.449 Y1.772 E8.70284
G1 X-8.576 Y0.988 E8.73057
G1 X-8.648 Y0.29 E8.75508
G1 X-8.641 Y-.413 E8.77963
G1 X-8.576 Y-.983 E8.79967
G1 X-8.45 Y-1.764 E8.82729
G1 X-8.299 Y-2.45 E8.85183
G1 X-8.071 Y-3.114 E8.87634
G1 X-7.823 Y-3.648 E8.89691
G1 X-7.448 Y-4.363 E8.9251
G1 X-7.086 Y-4.966 E8.94966
G1 X-6.659 Y-5.523 E8.97417
G1 X-6.261 Y-5.944 E8.99441
G1 X-5.704 Y-6.48 E9.0214
G1 X-5.171 Y-6.938 E9.04594
G1 X-4.377 Y-7.453 E9.079
G1 X-3.898 Y-7.714 E9.09805
G1 X-3.262 Y-8.015 E9.12262
G1 X-2.526 Y-8.261 E9.14972
G1 X-1.885 Y-8.431 E9.17288
G1 X-1.197 Y-8.572 E9.19741
G1 X-.361 Y-8.637 E9.22669
G1 X0.163 Y-8.642 E9.24499
G1 X0.865 Y-8.608 E9.26954
G1 X1.563 Y-8.495 E9.29423
G1 X2.219 Y-8.349 E9.3177
G1 X2.895 Y-8.157 E9.34224
G1 X3.545 Y-7.89 E9.36678
G1 X3.958 Y-7.673 E9.38307
G1 X4.646 Y-7.277 E9.4108
G1 X5.234 Y-6.892 E9.43534
G1 X5.968 Y-6.256 E9.46926
G1 X6.332 Y-5.886 E9.48739
G1 X6.795 Y-5.357 E9.51194
G1 X7.227 Y-4.728 E9.53859
G1 X7.584 Y-4.132 E9.56285
G1 X7.911 Y-3.51 E9.58739
G1 X8.164 Y-2.855 E9.61191
G1 X8.325 Y-2.253 E9.63367
G1 X8.514 Y-1.371 E9.66518
G1 X8.622 Y-.677 E9.6897
G1 X8.65 Y0.025 E9.71424
G1 X8.62 Y0.538 E9.73219
G1 X8.553 Y1.207 E9.75567
G1 X8.444 Y1.901 E9.7802
G1 X8.256 Y2.578 E9.80474
G1 X8.09 Y3.013 E9.821
G1 X7.778 Y3.745 E9.84879
G1 X7.466 Y4.375 E9.87334
G1 X7.084 Y4.965 E9.89788
G1 X6.61 Y5.539 E9.92388
G1 X5.987 Y6.206 E9.95576
G1 X5.479 Y6.691 E9.98028
G1 X4.919 Y7.116 E10.00484
G1 X4.253 Y7.505 E10.03177
G1 X3.511 Y7.879 E10.06079
G1 X2.867 Y8.159 E10.08531
G1 X2.195 Y8.364 E10.10985
G1 X1.821 Y8.443 E10.1232
G1 X1.196 Y8.555 E10.14537
G1 X0.499 Y8.64 E10.1699
G1 X-.204 Y8.644 E10.19445
G1 X-.801 Y8.585 E10.2154
G1 X-1.723 Y8.448 E10.24795
G1 F4200 E5.24795
G1 F300 Z1.3
G0 F2400 X-.544 Y1.888 Z1.3
;TYPE:WALL-INNER
G1 F300 Z0.3
G1 F4200 E10.24795
G1 F1800 X-.841 Y1.775 E10.25905
G1 X-1.115 Y1.616 E10.27011
G1 X-1.362 Y1.415 E10.28123
G1 X-1.568 Y1.182 E10.29209
G1 X-1.74 Y0.911 E10.3033
G1 X-1.861 Y0.624 E10.31418
G1 X-1.938 Y0.312 E10.3254
G1 X-1.964 Y0.00 E10.33634
G1 X-1.938 Y-.312 E10.34727
G1 X-1.861 Y-.624 E10.35849
G1 X-1.74 Y-.911 E10.36937
G1 X-1.568 Y-1.182 E10.38058
G1 X-1.362 Y-1.415 E10.39144
G1 X-1.115 Y-1.616 E10.40256
G1 X-.841 Y-1.775 E10.41363
G1 X-.544 Y-1.888 E10.42472
G1 X-.245 Y-1.948 E10.43538
G1 X0.082 Y-1.961 E10.4468
G1 X0.392 Y-1.923 E10.45771
G1 X0.698 Y-1.836 E10.46882
G1 X0.984 Y-1.699 E10.4799
G1 X1.243 Y-1.521 E10.49087
G1 X1.466 Y-1.306 E10.50169
G1 X1.661 Y-1.047 E10.51301
G1 X1.806 Y-.77 E10.52393
G1 X1.907 Y-.468 E10.53505
G1 X1.957 Y-.161 E10.54591
G1 X1.957 Y0.161 E10.55716
G1 X1.907 Y0.468 E10.56802
G1 X1.806 Y0.77 E10.57914
G1 X1.661 Y1.047 E10.59006
G1 X1.466 Y1.306 E10.60138
G1 X1.243 Y1.521 E10.6122
G1 X0.984 Y1.699 E10.62318
G1 X0.698 Y1.836 E10.63425
G1 X0.392 Y1.923 E10.64536
G1 X0.082 Y1.961 E10.65627
G1 X-.245 Y1.948 E10.6677
G1 X-.544 Y1.888 E10.67835
G1 F4200 E5.67835
G0 F2400 X-.517 Y1.792
G0 X0.373 Y-1.825
G0 X0.467 Y-2.266
;TYPE:WALL-OUTER
G1 F4200 E10.67835
G1 F1800 X0.821 Y-2.165 E10.6912
G1 X1.159 Y-2.004 E10.70428
G1 X1.465 Y-1.793 E10.71726
G1 X1.731 Y-1.537 E10.73015
G1 X1.957 Y-1.237 E10.74327
G1 X2.129 Y-.909 E10.7562
G1 X2.247 Y-.555 E10.76924
G1 X2.307 Y-.186 E10.78229
G1 X2.307 Y0.186 E10.79528
G1 X2.247 Y0.555 E10.80834
G1 X2.129 Y0.909 E10.82137
G1 X1.957 Y1.237 E10.8343
G1 X1.731 Y1.537 E10.84742
G1 X1.465 Y1.793 E10.86031
G1 X1.159 Y2.004 E10.8733
G1 X0.821 Y2.165 E10.88637
G1 X0.467 Y2.266 E10.89923
G1 X0.093 Y2.312 E10.91239
G1 X-.284 Y2.297 E10.92556
G1 X-.64 Y2.225 E10.93825
G1 X-.996 Y2.09 E10.95154
G1 X-1.315 Y1.905 E10.96442
G1 X-1.604 Y1.67 E10.97743
G1 X-1.849 Y1.392 E10.99037
G1 X-2.05 Y1.075 E11.00348
G1 X-2.195 Y0.733 E11.01645
G1 X-2.285 Y0.369 E11.02955
G1 X-2.315 Y0.00 E11.04248
G1 X-2.285 Y-.369 E11.05541
G1 X-2.195 Y-.733 E11.0685
G1 X-2.05 Y-1.075 E11.08147
G1 X-1.849 Y-1.392 E11.09458
G1 X-1.604 Y-1.67 E11.10752
G1 X-1.315 Y-1.905 E11.12053
G1 X-.996 Y-2.09 E11.13341
G1 X-.64 Y-2.225 E11.14671
G1 X-.284 Y-2.297 E11.15939
G1 X0.093 Y-2.312 E11.17257
G1 X0.467 Y-2.266 E11.18573
G0 F2400 X0.635 Y-2.218
G0 X0.529 Y-1.849
G0 X0.328 Y-1.588
;TYPE:SKIN
G1 F1800 X0.574 Y-1.518 E11.19466
G1 X0.818 Y-1.401 E11.20411
G1 X1.024 Y-1.259 E11.21285
G1 X1.208 Y-1.081 E11.22179
G1 X1.375 Y-.861 E11.23143
G1 X1.491 Y-.64 E11.24015
G1 X1.575 Y-.385 E11.24953
G1 X1.617 Y-.13 E11.25855
G1 X1.617 Y0.13 E11.26763
G1 X1.575 Y0.385 E11.27666
G1 X1.491 Y0.64 E11.28603
G1 X1.375 Y0.861 E11.29475
G1 X1.208 Y1.081 E11.30439
G1 X1.024 Y1.259 E11.31334
G1 X0.818 Y1.401 E11.32207
G1 X0.574 Y1.518 E11.33152
G1 X0.328 Y1.588 E11.34046
G1 X0.066 Y1.619 E11.34967
G1 X-.202 Y1.61 E11.35903
G1 X-.451 Y1.559 E11.36791
G1 X-.695 Y1.467 E11.37702
G1 X-.923 Y1.334 E11.38624
G1 X-1.125 Y1.17 E11.39532
G1 X-1.294 Y0.978 E11.40425
G1 X-1.44 Y0.749 E11.41374
G1 X-1.538 Y0.518 E11.4225
G1 X-1.602 Y0.254 E11.43199
G1 X-1.624 Y0.00 E11.44089
G1 X-1.602 Y-.254 E11.4498
G1 X-1.538 Y-.518 E11.45928
G1 X-1.44 Y-.749 E11.46805
G1 X-1.294 Y-.978 E11.47753
G1 X-1.125 Y-1.17 E11.48646
G1 X-.923 Y-1.334 E11.49555
G1 X-.695 Y-1.467 E11.50477
G1 X-.451 Y-1.559 E11.51388
G1 X-.202 Y-1.61 E11.52275
G1 X0.066 Y-1.619 E11.53212
G1 X0.328 Y-1.588 E11.54133
G0 F2400 X1.281 Y-.698
G1 F1800 X0.697 Y-1.282 E11.57017
G1 X0.636 Y-1.343
G0 F2400 X0.026 Y-1.458
G1 F1800 X1.458 Y-0.026 E11.6409
G1 X1.519 Y0.035
G0 F2400 X1.4 Y0.41
G1 F1800 X-.412 Y-1.402 E11.73039
G1 X-.473 Y-1.463
G0 F2400 X-.753 Y-1.248
G1 F1800 X1.251 Y0.756 E11.82937
G1 X1.312 Y0.817
G0 F2400 X1.03 Y1.03
G1 F1800 X-1.034 Y-1.034 E11.9313
G1 X-1.095 Y-1.095
G0 F2400 X-1.248 Y-.753
G1 F1800 X0.756 Y1.251 E12.03028
G1 X0.817 Y1.312
G0 F2400 X0.409 Y1.399
G1 F1800 X-1.4 Y-.41 E12.11962
G1 X-1.461 Y-.471
G0 F2400 X-1.463 Y0.021
G1 F1800 X-0.028 Y1.456 E12.1905
G1 X0.033 Y1.517
G0 F2400 X-.7 Y1.279
G1 F1800 X-1.288 Y0.691 E12.21954
M104 S210
G1 X-1.349 Y0.63
G0 F2400 X0.078 Y1.862
G0 X0.095 Y2.386
;TIME_ELAPSED:13.676705
;LAYER:1
M140 S60
M106 S255
G0 F3600 X0.095 Y2.386 Z0.5
;TYPE:WALL-INNER
G1 F1118.1 X-.29 Y2.371 E12.22851
G1 X-.668 Y2.295 E12.23748
G1 X-1.024 Y2.16 E12.24635
