; GCode generated by CraftWare

G28 X0 Y0
G28 Z0

M104 S215 ;set head temp (no wait)
M190 S60 ;set bed temp (wait)
M109 S215 ;set head temp (wait)
; ------------------------------------
; Layer #0
; ------------------------------------
M106 S0 ;turn off fan
G21 ; mm
G90 ; abs
G92 E0 ;reset extr
G0 F1200 Z0.200
;segType:Skirt
G0 F4200 E-5.0000
G0 X-2.625 Y5.414 F3600
G0 F4200 E-4.0000
G1 X-1.969 Y5.961 E-3.9730 F2400
G1 X-1.313 Y6.070 E-3.9520
G1 X1.313 Y6.070 E-3.8690
G1 X1.969 Y5.851 E-3.8472
G1 X2.461 Y5.469 E-3.8275
G1 X5.523 Y2.406 E-3.6906
G1 X5.851 Y1.859 E-3.6705
G1 X6.070 Y1.203 E-3.6486
G1 X6.070 Y-0.984 E-3.5795
G1 X5.851 Y-1.641 E-3.5577
G1 X5.578 Y-2.242 E-3.5368
G1 X2.078 Y-5.742 E-3.3804
G1 X1.094 Y-6.070 E-3.3476
G1 X-1.094 Y-6.070 E-3.2785
G1 X-1.804 Y-5.906 E-3.2554
G1 X-2.351 Y-5.578 E-3.2353
G1 X-5.414 Y-2.516 E-3.0984
G1 X-5.797 Y-2.023 E-3.0787
G1 X-6.179 Y-1.094 E-3.0470
G1 X-6.179 Y1.094 E-2.9779
G1 X-5.961 Y1.750 E-2.9560
G1 X-5.688 Y2.351 E-2.9351
G1 X-2.625 Y5.414 E-2.7983
G0 X-2.625 Y5.851 F3600
G1 X-1.969 Y6.398 E-2.7713 F2400
G1 X-1.313 Y6.508 E-2.7503
G1 X1.313 Y6.508 E-2.6673
G1 X1.969 Y6.289 E-2.6455
G1 X2.461 Y5.906 E-2.6258
G1 X5.961 Y2.406 E-2.4694
G1 X6.289 Y1.859 E-2.4492
G1 X6.508 Y1.203 E-2.4274
G1 X6.508 Y-0.984 E-2.3582
G1 X6.289 Y-1.641 E-2.3364
G1 X6.016 Y-2.242 E-2.3155
G1 X2.078 Y-6.179 E-2.1396
G1 X1.094 Y-6.508 E-2.1068
G1 X-1.094 Y-6.508 E-2.0377
G1 X-1.804 Y-6.344 E-2.0146
G1 X-2.351 Y-6.016 E-1.9945
G1 X-5.851 Y-2.516 E-1.8381
G1 X-6.234 Y-2.023 E-1.8184
G1 X-6.617 Y-1.094 E-1.7866
G1 X-6.617 Y1.094 E-1.7175
G1 X-6.398 Y1.750 E-1.6956
G1 X-6.125 Y2.351 E-1.6748
G1 X-2.625 Y5.851 E-1.5184
G0 X-2.625 Y6.289 F3600
G1 X-1.969 Y6.836 E-1.4914 F2400
G1 X-1.313 Y6.945 E-1.4703
G1 X1.313 Y6.945 E-1.3874
G1 X1.969 Y6.726 E-1.3655
G1 X2.461 Y6.344 E-1.3459
G1 X6.398 Y2.406 E-1.1699
G1 X6.726 Y1.859 E-1.1498
G1 X6.945 Y1.203 E-1.1279
G1 X6.945 Y-0.984 E-1.0588
G1 X6.726 Y-1.641 E-1.0369
G1 X6.453 Y-2.242 E-1.0161
G1 X2.078 Y-6.617 E-0.8206
G1 X1.094 Y-6.945 E-0.7878
G1 X-1.094 Y-6.945 E-0.7186
G1 X-1.804 Y-6.781 E-0.6956
G1 X-2.351 Y-6.453 E-0.6755
G1 X-6.289 Y-2.516 E-0.4995
G1 X-6.672 Y-2.023 E-0.4798
G1 X-7.054 Y-1.094 E-0.4480
G1 X-7.054 Y1.094 E-0.3789
G1 X-6.836 Y1.750 E-0.3571
G1 X-6.563 Y2.351 E-0.3362
G1 X-2.625 Y6.289 E-0.1602
G0 X-2.625 Y6.726 F3600
G1 X-1.969 Y7.273 E-0.1332 F2400
G1 X-1.313 Y7.383 E-0.1122
G1 X1.313 Y7.383 E-0.0293
G1 X1.969 Y7.164 E-0.0074
G1 X2.461 Y6.781 E0.0123
G1 X6.836 Y2.406 E0.2078
G1 X7.164 Y1.859 E0.2279
G1 X7.383 Y1.203 E0.2498
G1 X7.383 Y-0.984 E0.3189
G1 X7.164 Y-1.641 E0.3407
G1 X6.891 Y-2.242 E0.3616
G1 X2.078 Y-7.054 E0.5767
G1 X1.094 Y-7.383 E0.6095
G1 X-1.094 Y-7.383 E0.6786
G1 X-1.804 Y-7.219 E0.7016
G1 X-2.351 Y-6.891 E0.7218
G1 X-6.726 Y-2.516 E0.9173
G1 X-7.109 Y-2.023 E0.9370
G1 X-7.492 Y-1.094 E0.9687
G1 X-7.492 Y1.094 E1.0379
G1 X-7.273 Y1.750 E1.0597
G1 X-7.000 Y2.351 E1.0806
G1 X-2.625 Y6.726 E1.2761
G0 X-2.625 Y7.164 F3600
G1 X-1.969 Y7.711 E1.3031 F2400
G1 X-1.313 Y7.820 E1.3241
G1 X1.313 Y7.820 E1.4070
G1 X1.969 Y7.601 E1.4289
G1 X2.461 Y7.219 E1.4486
G1 X7.273 Y2.406 E1.6636
G1 X7.601 Y1.859 E1.6838
G1 X7.820 Y1.203 E1.7056
G1 X7.820 Y-0.984 E1.7748
G1 X7.601 Y-1.641 E1.7966
G1 X7.328 Y-2.242 E1.8175
G1 X2.078 Y-7.492 E2.0521
G1 X1.094 Y-7.820 E2.0849
G1 X-1.094 Y-7.820 E2.1540
G1 X-1.804 Y-7.656 E2.1770
G1 X-2.351 Y-7.328 E2.1972
G1 X-7.164 Y-2.516 E2.4122
G1 X-7.547 Y-2.023 E2.4319
G1 X-7.929 Y-1.094 E2.4637
G1 X-7.929 Y1.094 E2.5328
G1 X-7.878 Y1.247 E2.5379
;segType:HShell
G0 F4200 E-2.4621
G0 X1.135 Y0.321 F3600
G0 F4200 E-1.4621
G1 X-0.323 Y-1.136 E-1.3969 F2400
G0 X-1.136 Y0.313 F3600
G1 X-0.310 Y1.139 E-1.3600 F2400
G0 X0.265 Y1.148 F3600
G1 X-1.148 Y-0.265 E-1.2969 F2400
G0 X-0.977 Y-0.659 F3600
G1 X0.659 Y0.976 E-1.2238 F2400
G0 X0.948 Y0.700 F3600
G1 X-0.701 Y-0.949 E-1.1502 F2400
;segType:Perimeter
G0 X-0.890 Y-1.575 F3600
G1 X-0.174 Y-1.933 E-1.1249 F1439
G1 X0.078 Y-1.943 E-1.1169
G1 X0.389 Y-1.905 E-1.1070
G1 X0.689 Y-1.818 E-1.0971
G1 X0.972 Y-1.684 E-1.0872
G1 X1.230 Y-1.506 E-1.0774
G1 X1.455 Y-1.289 E-1.0675
G1 X1.643 Y-1.039 E-1.0576
G1 X1.789 Y-0.762 E-1.0477
G1 X1.888 Y-0.465 E-1.0378
G1 X1.938 Y-0.156 E-1.0279
G1 X1.938 Y0.156 E-1.0180
G1 X1.888 Y0.465 E-1.0082
G1 X1.789 Y0.762 E-0.9983
G1 X1.643 Y1.039 E-0.9884
G1 X1.455 Y1.289 E-0.9785
G1 X1.230 Y1.506 E-0.9686
G1 X0.972 Y1.684 E-0.9587
G1 X0.689 Y1.818 E-0.9488
G1 X0.389 Y1.905 E-0.9389
G1 X0.078 Y1.943 E-0.9291
G1 X-0.234 Y1.930 E-0.9192
G1 X-0.541 Y1.868 E-0.9093
G1 X-0.833 Y1.757 E-0.8994
G1 X-1.105 Y1.600 E-0.8895
G1 X-1.347 Y1.402 E-0.8796
G1 X-1.554 Y1.168 E-0.8697
G1 X-1.722 Y0.904 E-0.8599
G1 X-1.844 Y0.616 E-0.8500
G1 X-1.919 Y0.312 E-0.8401
G1 X-1.944 Y0.000 E-0.8302
G1 X-1.919 Y-0.312 E-0.8203
G1 X-1.844 Y-0.616 E-0.8104
G1 X-1.722 Y-0.904 E-0.8005
G1 X-1.554 Y-1.168 E-0.7906
G1 X-1.347 Y-1.402 E-0.7808
G1 X-1.105 Y-1.600 E-0.7709
G1 X-0.833 Y-1.757 E-0.7610
G1 X-0.541 Y-1.868 E-0.7511
G1 X-0.293 Y-1.918 E-0.7431
G0 X0.487 Y-1.742 F3600
;segType:Loop
G0 X0.637 Y-1.400
G1 X0.772 Y-1.336 E-0.7384 F2400
G1 X0.976 Y-1.195 E-0.7306
G1 X1.155 Y-1.023 E-0.7227
G1 X1.304 Y-0.825 E-0.7149
G1 X1.419 Y-0.605 E-0.7070
G1 X1.498 Y-0.369 E-0.6992
G1 X1.538 Y-0.124 E-0.6913
G1 X1.538 Y0.124 E-0.6835
G1 X1.498 Y0.369 E-0.6756
G1 X1.419 Y0.605 E-0.6678
G1 X1.304 Y0.825 E-0.6599
G1 X1.155 Y1.023 E-0.6521
G1 X0.976 Y1.195 E-0.6443
G1 X0.771 Y1.336 E-0.6364
G1 X0.547 Y1.443 E-0.6286
G1 X0.309 Y1.512 E-0.6207
G1 X0.062 Y1.542 E-0.6129
G1 X-0.186 Y1.532 E-0.6050
G1 X-0.429 Y1.482 E-0.5972
G1 X-0.661 Y1.394 E-0.5893
G1 X-0.877 Y1.270 E-0.5815
G1 X-1.069 Y1.113 E-0.5736
G1 X-1.234 Y0.927 E-0.5658
G1 X-1.366 Y0.717 E-0.5580
G1 X-1.464 Y0.488 E-0.5501
G1 X-1.523 Y0.247 E-0.5423
G1 X-1.543 Y0.000 E-0.5344
G1 X-1.523 Y-0.247 E-0.5266
G1 X-1.464 Y-0.488 E-0.5187
G1 X-1.366 Y-0.717 E-0.5109
G1 X-1.234 Y-0.927 E-0.5030
G1 X-1.069 Y-1.113 E-0.4952
G1 X-0.877 Y-1.270 E-0.4873
G1 X-0.661 Y-1.394 E-0.4795
G1 X-0.429 Y-1.482 E-0.4716
G1 X-0.186 Y-1.532 E-0.4638
G1 X0.062 Y-1.542 E-0.4560
G1 X0.309 Y-1.512 E-0.4481
;segType:HShell
G0 X1.157 Y-0.222 F3600
G1 X0.219 Y-1.160 E-0.4062 F2400
; ------------------------------------
; Layer #1
; ------------------------------------
M106 S0 ;turn off fan
G21 ; mm
G90 ; abs
G92 E0 ;reset extr
;segType:HShell
G0 F4200 E-5.0000
G0 F1200 Z0.400
G0 X0.904 Y-1.469 F4800
G0 F4200 E-4.0000
G1 X-1.473 Y0.907 E-3.8882 F3600
G0 X-1.646 Y0.515 F4800
G1 X0.518 Y-1.649 E-3.7864 F3600
G0 X0.028 Y-1.725 F4800
G1 X-1.725 Y0.028 E-3.7040 F3600
G0 X-1.593 Y-0.669 F4800
G1 X-0.675 Y-1.588 E-3.6607 F3600
;segType:Perimeter
G0 X-1.103 Y-2.047 F4800
G1 X-0.414 Y-2.454 E-3.6341 F2159
G1 X-0.075 Y-2.492 E-3.6228
G1 X0.326 Y-2.471 E-3.6094
G1 X0.718 Y-2.387 E-3.5961
G1 X1.091 Y-2.241 E-3.5828
G1 X1.437 Y-2.037 E-3.5694
G1 X1.745 Y-1.780 E-3.5561
G1 X2.008 Y-1.477 E-3.5427
G1 X2.219 Y-1.136 E-3.5294
G1 X2.372 Y-0.765 E-3.5160
G1 X2.464 Y-0.375 E-3.5027
G1 X2.493 Y0.025 E-3.4894
G1 X2.456 Y0.425 E-3.4760
G1 X2.356 Y0.813 E-3.4627
G1 X2.195 Y1.181 E-3.4493
G1 X1.978 Y1.518 E-3.4360
G1 X1.709 Y1.815 E-3.4226
G1 X1.395 Y2.066 E-3.4093
G1 X1.046 Y2.263 E-3.3960
G1 X0.669 Y2.401 E-3.3826
G1 X0.275 Y2.478 E-3.3693
G1 X-0.126 Y2.490 E-3.3559
G1 X-0.523 Y2.437 E-3.3426
G1 X-0.908 Y2.322 E-3.3292
G1 X-1.268 Y2.146 E-3.3159
G1 X-1.596 Y1.915 E-3.3026
G1 X-1.883 Y1.634 E-3.2892
G1 X-2.120 Y1.311 E-3.2759
G1 X-2.303 Y0.954 E-3.2625
G1 X-2.426 Y0.572 E-3.2492
G1 X-2.487 Y0.175 E-3.2358
G1 X-2.482 Y-0.226 E-3.2225
G1 X-2.414 Y-0.621 E-3.2092
G1 X-2.283 Y-1.000 E-3.1958
G1 X-2.093 Y-1.354 E-3.1825
G1 X-1.849 Y-1.672 E-3.1691
G1 X-1.557 Y-1.947 E-3.1558
G1 X-1.224 Y-2.171 E-3.1424
G1 X-0.860 Y-2.340 E-3.1291
G1 X-0.532 Y-2.431 E-3.1177
G0 X0.259 Y-2.311 F4800
;segType:Loop
G0 X0.533 Y-2.018
G1 X0.602 Y-2.003 E-3.1154 F3600
G1 X0.916 Y-1.880 E-3.1042
G1 X1.206 Y-1.709 E-3.0930
G1 X1.464 Y-1.494 E-3.0818
G1 X1.685 Y-1.239 E-3.0706
G1 X1.862 Y-0.953 E-3.0594
G1 X1.990 Y-0.642 E-3.0482
G1 X2.068 Y-0.314 E-3.0370
G1 X2.091 Y0.021 E-3.0258
G1 X2.061 Y0.356 E-3.0146
G1 X1.977 Y0.682 E-3.0034
G1 X1.842 Y0.991 E-2.9922
G1 X1.659 Y1.274 E-2.9810
G1 X1.434 Y1.523 E-2.9698
G1 X1.171 Y1.733 E-2.9587
G1 X0.877 Y1.899 E-2.9475
G1 X0.561 Y2.015 E-2.9363
G1 X0.231 Y2.079 E-2.9251
G1 X-0.105 Y2.089 E-2.9139
G1 X-0.439 Y2.045 E-2.9027
G1 X-0.761 Y1.948 E-2.8915
G1 X-1.064 Y1.801 E-2.8803
G1 X-1.339 Y1.606 E-2.8691
G1 X-1.579 Y1.371 E-2.8579
G1 X-1.779 Y1.100 E-2.8467
G1 X-1.932 Y0.800 E-2.8355
G1 X-2.036 Y0.480 E-2.8243
G1 X-2.086 Y0.147 E-2.8131
G1 X-2.083 Y-0.189 E-2.8019
G1 X-2.026 Y-0.521 E-2.7907
G1 X-1.916 Y-0.839 E-2.7795
G1 X-1.756 Y-1.136 E-2.7683
G1 X-1.551 Y-1.403 E-2.7571
G1 X-1.306 Y-1.634 E-2.7459
G1 X-1.027 Y-1.822 E-2.7348
G1 X-0.722 Y-1.963 E-2.7236
G1 X-0.398 Y-2.053 E-2.7124
G1 X-0.063 Y-2.091 E-2.7012
G1 X0.273 Y-2.074 E-2.6900
G1 X0.337 Y-2.060 E-2.6878
;segType:HShell
G0 X1.222 Y-1.222 F4800
G1 X-1.219 Y1.219 E-2.5729 F3600
G0 X-0.906 Y1.472 F4800
G1 X1.469 Y-0.903 E-2.4612 F3600
G0 X1.650 Y-0.518 F4800
G1 X-0.515 Y1.646 E-2.3594 F3600
G0 X-0.029 Y1.726 F4800
G1 X1.727 Y-0.030 E-2.2768 F3600
G0 X1.587 Y0.676 F4800
G1 X0.673 Y1.590 E-2.2338 F3600
; ------------------------------------
; Layer #2
; ------------------------------------
M106 S255 ;set fan speed
G21 ; mm
G90 ; abs
G92 E0 ;reset extr
;segType:HShell
G0 F4200 E-5.0000
G0 F1200 Z0.600
G0 X2.043 Y-0.468 F4800
G0 F4200 E-4.0000
G1 X0.469 Y-2.042 E-3.9259 F3600
G0 X-0.143 Y-2.088 F4800
G1 X2.092 Y0.147 E-3.8209 F3600
G0 X1.999 Y0.619 F4800
G1 X-0.622 Y-2.001 E-3.6976 F3600
;segType:Perimeter
G0 X-1.001 Y-2.485 F4800
G1 X-0.285 Y-2.843 E-3.6710 F2159
G1 X0.115 Y-2.859 E-3.6577
G1 X0.572 Y-2.803 E-3.6424
G1 X1.015 Y-2.675 E-3.6270
G1 X1.431 Y-2.478 E-3.6117
G1 X1.810 Y-2.216 E-3.5964
G1 X2.141 Y-1.897 E-3.5811
G1 X2.418 Y-1.529 E-3.5658
G1 X2.632 Y-1.122 E-3.5505
G1 X2.778 Y-0.685 E-3.5352
G1 X2.852 Y-0.230 E-3.5198
G1 X2.852 Y0.230 E-3.5045
G1 X2.778 Y0.685 E-3.4892
G1 X2.632 Y1.122 E-3.4739
G1 X2.418 Y1.529 E-3.4586
G1 X2.141 Y1.897 E-3.4433
G1 X1.810 Y2.216 E-3.4280
G1 X1.430 Y2.478 E-3.4126
G1 X1.015 Y2.675 E-3.3973
G1 X0.572 Y2.803 E-3.3820
G1 X0.115 Y2.859 E-3.3667
G1 X-0.345 Y2.840 E-3.3514
G1 X-0.796 Y2.748 E-3.3361
G1 X-1.227 Y2.585 E-3.3208
G1 X-1.625 Y2.355 E-3.3054
G1 X-1.982 Y2.063 E-3.2901
G1 X-2.287 Y1.719 E-3.2748
G1 X-2.533 Y1.329 E-3.2595
G1 X-2.714 Y0.906 E-3.2442
G1 X-2.824 Y0.459 E-3.2289
G1 X-2.861 Y0.000 E-3.2136
G1 X-2.824 Y-0.459 E-3.1982
G1 X-2.714 Y-0.906 E-3.1829
G1 X-2.533 Y-1.329 E-3.1676
G1 X-2.287 Y-1.719 E-3.1523
G1 X-1.982 Y-2.063 E-3.1370
G1 X-1.625 Y-2.355 E-3.1217
G1 X-1.227 Y-2.585 E-3.1064
G1 X-0.796 Y-2.748 E-3.0910
G1 X-0.404 Y-2.828 E-3.0777
G0 X0.377 Y-2.653 F4800
;segType:Loop
G0 X0.588 Y-2.382
G1 X0.872 Y-2.300 E-3.0679 F3600
G1 X1.230 Y-2.130 E-3.0547
G1 X1.556 Y-1.905 E-3.0415
G1 X1.841 Y-1.631 E-3.0284
G1 X2.079 Y-1.315 E-3.0152
G1 X2.263 Y-0.964 E-3.0021
G1 X2.388 Y-0.589 E-2.9889
G1 X2.452 Y-0.198 E-2.9757
G1 X2.452 Y0.198 E-2.9626
G1 X2.388 Y0.589 E-2.9494
G1 X2.263 Y0.964 E-2.9362
G1 X2.079 Y1.315 E-2.9231
G1 X1.841 Y1.631 E-2.9099
G1 X1.556 Y1.905 E-2.8967
G1 X1.230 Y2.130 E-2.8835
G1 X0.872 Y2.300 E-2.8704
G1 X0.492 Y2.410 E-2.8572
G1 X0.099 Y2.458 E-2.8441
G1 X-0.296 Y2.442 E-2.8309
G1 X-0.684 Y2.363 E-2.8177
G1 X-1.055 Y2.222 E-2.8045
G1 X-1.397 Y2.024 E-2.7914
G1 X-1.704 Y1.774 E-2.7782
G1 X-1.966 Y1.478 E-2.7651
G1 X-2.178 Y1.143 E-2.7519
G1 X-2.333 Y0.779 E-2.7387
G1 X-2.428 Y0.395 E-2.7256
G1 X-2.460 Y0.000 E-2.7124
G1 X-2.428 Y-0.395 E-2.6992
G1 X-2.333 Y-0.779 E-2.6861
G1 X-2.178 Y-1.143 E-2.6729
G1 X-1.966 Y-1.478 E-2.6597
G1 X-1.704 Y-1.774 E-2.6466
G1 X-1.397 Y-2.024 E-2.6334
G1 X-1.055 Y-2.222 E-2.6202
G1 X-0.684 Y-2.363 E-2.6071
G1 X-0.296 Y-2.442 E-2.5939
G1 X0.099 Y-2.458 E-2.5807
G1 X0.393 Y-2.422 E-2.5709
;segType:HShell
G0 X-1.015 Y-1.829 F4800
G1 X1.829 Y1.016 E-2.4371 F3600
G0 X1.600 Y1.352 F4800
G1 X-1.350 Y-1.598 E-2.2983 F3600
G0 X-1.631 Y-1.313 F4800
G1 X1.316 Y1.633 E-2.1597 F3600
G0 X0.971 Y1.854 F4800
G1 X-1.858 Y-0.975 E-2.0266 F3600
G0 X-2.015 Y-0.566 F4800
G1 X0.565 Y2.014 E-1.9053 F3600
G0 X0.082 Y2.097 F4800
G1 X-2.092 Y-0.078 E-1.8030 F3600
G0 X-2.015 Y0.565 F4800
G1 X-0.560 Y2.020 E-1.7346 F3600
; ------------------------------------
; Layer #3
; ------------------------------------
M106 S255 ;set fan speed
G21 ; mm
G90 ; abs
G92 E0 ;reset extr
;segType:HShell
G0 F4200 E-5.0000
G0 F1200 Z0.800
G0 X-2.296 Y0.598 F4800
G0 F4200 E-4.0000
G1 X0.599 Y-2.296 E-3.8639 F3600
G0 X0.112 Y-2.375 F4800
G1 X-2.372 Y0.109 E-3.7470 F3600
G0 X-2.317 Y-0.512 F4800
G1 X-0.512 Y-2.316 E-3.6621 F3600
;segType:Perimeter
G0 X-1.050 Y-2.759 F4800
G1 X-0.336 Y-3.120 E-3.6355 F2159
G1 X0.109 Y-3.141 E-3.6207
G1 X0.611 Y-3.082 E-3.6039
G1 X1.098 Y-2.944 E-3.5871
G1 X1.556 Y-2.730 E-3.5702
G1 X1.974 Y-2.445 E-3.5534
G1 X2.340 Y-2.097 E-3.5366
G1 X2.647 Y-1.694 E-3.5198
G1 X2.884 Y-1.248 E-3.5030
G1 X3.047 Y-0.769 E-3.4861
G1 X3.131 Y-0.270 E-3.4693
G1 X3.134 Y0.235 E-3.4525
G1 X3.055 Y0.735 E-3.4357
G1 X2.898 Y1.216 E-3.4189
G1 X2.665 Y1.665 E-3.4020
G1 X2.364 Y2.071 E-3.3852
G1 X2.001 Y2.423 E-3.3684
G1 X1.586 Y2.713 E-3.3516
G1 X1.131 Y2.932 E-3.3348
G1 X0.646 Y3.075 E-3.3179
G1 X0.144 Y3.139 E-3.3011
G1 X-0.361 Y3.122 E-3.2843
G1 X-0.858 Y3.023 E-3.2675
G1 X-1.331 Y2.847 E-3.2507
G1 X-1.771 Y2.596 E-3.2338
G1 X-2.164 Y2.278 E-3.2170
G1 X-2.502 Y1.902 E-3.2002
G1 X-2.774 Y1.476 E-3.1834
G1 X-2.975 Y1.012 E-3.1666
G1 X-3.099 Y0.521 E-3.1497
G1 X-3.142 Y0.017 E-3.1329
G1 X-3.105 Y-0.487 E-3.1161
G1 X-2.986 Y-0.978 E-3.0993
G1 X-2.791 Y-1.445 E-3.0825
G1 X-2.523 Y-1.874 E-3.0656
G1 X-2.189 Y-2.254 E-3.0488
G1 X-1.800 Y-2.576 E-3.0320
G1 X-1.363 Y-2.832 E-3.0152
G1 X-0.891 Y-3.013 E-2.9983
G1 X-0.455 Y-3.105 E-2.9835
G0 X0.327 Y-2.934 F4800
;segType:Loop
G0 X0.629 Y-2.661
G1 X0.958 Y-2.568 E-2.9722 F3600
G1 X1.357 Y-2.381 E-2.9575
G1 X1.722 Y-2.133 E-2.9428
G1 X2.042 Y-1.829 E-2.9282
G1 X2.309 Y-1.478 E-2.9135
G1 X2.516 Y-1.089 E-2.8988
G1 X2.658 Y-0.671 E-2.8841
G1 X2.731 Y-0.236 E-2.8695
G1 X2.733 Y0.205 E-2.8548
G1 X2.665 Y0.641 E-2.8401
G1 X2.528 Y1.060 E-2.8255
G1 X2.325 Y1.452 E-2.8108
G1 X2.062 Y1.806 E-2.7961
G1 X1.745 Y2.114 E-2.7814
G1 X1.384 Y2.366 E-2.7668
G1 X0.986 Y2.558 E-2.7521
G1 X0.563 Y2.683 E-2.7374
G1 X0.125 Y2.738 E-2.7227
G1 X-0.315 Y2.723 E-2.7081
G1 X-0.748 Y2.637 E-2.6934
G1 X-1.161 Y2.483 E-2.6787
G1 X-1.544 Y2.265 E-2.6641
G1 X-1.888 Y1.987 E-2.6494
G1 X-2.182 Y1.659 E-2.6347
G1 X-2.420 Y1.287 E-2.6200
G1 X-2.595 Y0.882 E-2.6054
G1 X-2.703 Y0.455 E-2.5907
G1 X-2.741 Y0.015 E-2.5760
G1 X-2.708 Y-0.424 E-2.5614
G1 X-2.605 Y-0.853 E-2.5467
G1 X-2.434 Y-1.260 E-2.5320
G1 X-2.201 Y-1.635 E-2.5173
G1 X-1.910 Y-1.966 E-2.5027
G1 X-1.570 Y-2.247 E-2.4880
G1 X-1.189 Y-2.470 E-2.4733
G1 X-0.777 Y-2.629 E-2.4586
G1 X-0.346 Y-2.719 E-2.4440
G1 X0.095 Y-2.740 E-2.4293
G1 X0.434 Y-2.700 E-2.4180
;segType:HShell
G0 X0.504 Y2.325 F4800
G1 X2.322 Y0.507 E-2.3324 F3600
G0 X2.371 Y-0.109 F4800
G1 X-0.107 Y2.370 E-2.2159 F3600
G0 X-0.602 Y2.299 F4800
G1 X2.300 Y-0.603 E-2.0793 F3600
G0 X2.147 Y-1.015 F4800
G1 X-1.019 Y2.150 E-1.9304 F3600
G0 X-1.374 Y1.940 F4800
G1 X1.937 Y-1.372 E-1.7747 F3600
G0 X1.678 Y-1.678 F4800
G1 X-1.680 Y1.680 E-1.6168 F3600
G0 X-1.938 Y1.372 F4800
G1 X1.371 Y-1.936 E-1.4611 F3600
G0 X1.013 Y-2.145 F4800
G1 X-2.146 Y1.014 E-1.3125 F3600
; ------------------------------------
; Layer #4
; ------------------------------------
M106 S255 ;set fan speed
G21 ; mm
G90 ; abs
G92 E0 ;reset extr
;segType:HShell
G0 F4200 E-5.0000
G0 F1200 Z1.000
G0 X0.517 Y2.532 F4800
G0 F4200 E-4.0000
G1 X-2.527 Y-0.512 E-3.8568 F3600
G0 X-2.396 Y-0.947 F4800
G1 X-1.136 Y0.313 E-3.7976 F3600
;segType:Infill
G0 X-0.834 Y0.834 F4800
G1 X0.833 Y-0.833 E-3.7034 F5400
G0 X1.135 Y0.321 F4800
G1 X-0.323 Y-1.136 E-3.6212 F5400
;segType:Perimeter
G0 X-1.059 Y-2.967 F4800
G1 X-0.344 Y-3.325 E-3.5946 F2159
G1 X0.135 Y-3.344 E-3.5786
G1 X0.669 Y-3.279 E-3.5607
G1 X1.187 Y-3.129 E-3.5428
G1 X1.673 Y-2.898 E-3.5249
G1 X2.117 Y-2.592 E-3.5070
G1 X2.505 Y-2.219 E-3.4891
G1 X2.828 Y-1.789 E-3.4712
G1 X3.079 Y-1.312 E-3.4533
G1 X3.249 Y-0.801 E-3.4353
G1 X3.336 Y-0.269 E-3.4174
G1 X3.336 Y0.269 E-3.3995
G1 X3.249 Y0.801 E-3.3816
G1 X3.079 Y1.312 E-3.3637
G1 X2.828 Y1.789 E-3.3458
G1 X2.505 Y2.219 E-3.3279
G1 X2.117 Y2.592 E-3.3099
G1 X1.673 Y2.898 E-3.2920
G1 X1.187 Y3.129 E-3.2741
G1 X0.669 Y3.279 E-3.2562
G1 X0.135 Y3.344 E-3.2383
G1 X-0.403 Y3.322 E-3.2204
G1 X-0.931 Y3.215 E-3.2025
G1 X-1.435 Y3.024 E-3.1845
G1 X-1.901 Y2.754 E-3.1666
G1 X-2.318 Y2.414 E-3.1487
G1 X-2.676 Y2.011 E-3.1308
G1 X-2.963 Y1.555 E-3.1129
G1 X-3.174 Y1.060 E-3.0950
G1 X-3.303 Y0.537 E-3.0771
G1 X-3.347 Y0.000 E-3.0592
G1 X-3.303 Y-0.537 E-3.0412
G1 X-3.174 Y-1.060 E-3.0233
G1 X-2.963 Y-1.555 E-3.0054
G1 X-2.676 Y-2.011 E-2.9875
G1 X-2.318 Y-2.414 E-2.9696
G1 X-1.901 Y-2.754 E-2.9517
G1 X-1.435 Y-3.024 E-2.9338
G1 X-0.931 Y-3.215 E-2.9158
G1 X-0.462 Y-3.310 E-2.8999
G0 X0.318 Y-3.135 F4800
;segType:Loop
G0 X0.685 Y-2.858
G1 X1.044 Y-2.754 E-2.8875 F3600
G1 X1.473 Y-2.551 E-2.8717
G1 X1.863 Y-2.281 E-2.8560
G1 X2.205 Y-1.953 E-2.8402
G1 X2.489 Y-1.574 E-2.8244
G1 X2.710 Y-1.155 E-2.8087
G1 X2.860 Y-0.705 E-2.7929
G1 X2.936 Y-0.237 E-2.7771
G1 X2.936 Y0.237 E-2.7614
G1 X2.860 Y0.705 E-2.7456
G1 X2.710 Y1.155 E-2.7298
G1 X2.489 Y1.574 E-2.7141
G1 X2.205 Y1.953 E-2.6983
G1 X1.863 Y2.281 E-2.6825
G1 X1.473 Y2.551 E-2.6668
G1 X1.044 Y2.754 E-2.6510
G1 X0.589 Y2.886 E-2.6352
G1 X0.119 Y2.943 E-2.6195
G1 X-0.355 Y2.924 E-2.6037
G1 X-0.819 Y2.829 E-2.5879
G1 X-1.263 Y2.661 E-2.5722
G1 X-1.673 Y2.424 E-2.5564
G1 X-2.040 Y2.124 E-2.5406
G1 X-2.355 Y1.769 E-2.5249
G1 X-2.608 Y1.369 E-2.5091
G1 X-2.794 Y0.933 E-2.4933
G1 X-2.907 Y0.473 E-2.4776
G1 X-2.945 Y0.000 E-2.4618
G1 X-2.907 Y-0.473 E-2.4460
G1 X-2.794 Y-0.933 E-2.4303
G1 X-2.608 Y-1.369 E-2.4145
G1 X-2.355 Y-1.769 E-2.3988
G1 X-2.040 Y-2.124 E-2.3830
G1 X-1.673 Y-2.424 E-2.3672
G1 X-1.263 Y-2.661 E-2.3515
G1 X-0.819 Y-2.829 E-2.3357
G1 X-0.355 Y-2.924 E-2.3199
G1 X0.119 Y-2.943 E-2.3042
;segType:HShell
G0 X0.556 Y-2.521 F4800
G1 X2.519 Y-0.558 E-2.2118 F3600
G0 X2.576 Y0.065 F4800
G1 X-0.064 Y-2.575 E-2.0876 F3600
G0 X-0.568 Y-2.513 F4800
G1 X2.517 Y0.572 E-1.9425 F3600
G0 X2.381 Y1.002 F4800
G1 X1.157 Y-0.222 E-1.8850 F3600
G0 X1.135 Y0.321 F4800
G1 X2.188 Y1.374 E-1.8354 F3600
G0 X1.946 Y1.698 F4800
G1 X0.948 Y0.700 E-1.7885 F3600
G0 X0.659 Y0.976 F4800
G1 X1.660 Y1.977 E-1.7414 F3600
G0 X1.329 Y2.212 F4800
G1 X0.265 Y1.148 E-1.6913 F3600
G0 X-0.310 Y1.139 F4800
G1 X0.951 Y2.400 E-1.6320 F3600
G0 X-2.584 Y-0.003 F4800
G1 X-0.003 Y2.578 E-1.5106 F3600
G0 X-0.650 Y2.496 F4800
G1 X-2.491 Y0.655 E-1.4240 F3600
G0 X-0.997 Y-2.377 F4800
G1 X0.219 Y-1.160 E-1.3668 F3600
G0 X-0.323 Y-1.136 F4800
G1 X-1.370 Y-2.183 E-1.3175 F3600
G0 X-1.694 Y-1.942 F4800
G1 X-0.701 Y-0.949 E-1.2708 F3600
G0 X-0.977 Y-0.659 F4800
G1 X-1.974 Y-1.656 E-1.2239 F3600
G0 X-2.209 Y-1.326 F4800
G1 X-1.148 Y-0.265 E-1.1740 F3600
; ------------------------------------
; Layer #5
; ------------------------------------
M106 S255 ;set fan speed
G21 ; mm
G90 ; abs
G92 E0 ;reset extr
;segType:HShell
G0 F4200 E-5.0000
G0 F1200 Z1.200
G0 X-2.616 Y0.919 F4800
G0 F4200 E-4.0000
G1 X-1.725 Y0.028 E-3.9581 F3600
G0 X-1.646 Y0.515 F4800
G1 X-2.443 Y1.312 E-3.9206 F3600
G0 X-2.225 Y1.660 F4800
G1 X-1.473 Y0.907 E-3.8852 F3600
;segType:Infill
G0 X-1.219 Y1.219 F4800
G1 X1.222 Y-1.222 E-3.7474 F5400
G0 X1.557 Y0.743 F4800
G1 X-0.743 Y-1.557 E-3.6176 F5400
;segType:Perimeter
G0 X-1.066 Y-3.164 F4800
G1 X-0.348 Y-3.517 E-3.5910 F2159
G1 X0.161 Y-3.535 E-3.5740
G1 X0.726 Y-3.464 E-3.5551
G1 X1.272 Y-3.302 E-3.5361
G1 X1.785 Y-3.055 E-3.5172
G1 X2.252 Y-2.729 E-3.4982
G1 X2.661 Y-2.333 E-3.4793
G1 X3.001 Y-1.876 E-3.4604
G1 X3.263 Y-1.370 E-3.4414
G1 X3.440 Y-0.829 E-3.4225
G1 X3.529 Y-0.266 E-3.4035
G1 X3.526 Y0.303 E-3.3846
G1 X3.432 Y0.865 E-3.3656
G1 X3.248 Y1.404 E-3.3467
G1 X2.981 Y1.907 E-3.3278
G1 X2.636 Y2.361 E-3.3088
G1 X2.224 Y2.753 E-3.2899
G1 X1.753 Y3.074 E-3.2709
G1 X1.237 Y3.315 E-3.2520
G1 X0.690 Y3.471 E-3.2330
G1 X0.124 Y3.537 E-3.2141
G1 X-0.445 Y3.511 E-3.1952
G1 X-1.002 Y3.394 E-3.1762
G1 X-1.534 Y3.189 E-3.1573
G1 X-2.026 Y2.902 E-3.1383
G1 X-2.465 Y2.539 E-3.1194
G1 X-2.840 Y2.111 E-3.1005
G1 X-3.142 Y1.628 E-3.0815
G1 X-3.363 Y1.103 E-3.0626
G1 X-3.496 Y0.549 E-3.0436
G1 X-3.539 Y-0.019 E-3.0247
G1 X-3.490 Y-0.586 E-3.0057
G1 X-3.351 Y-1.138 E-2.9868
G1 X-3.125 Y-1.661 E-2.9679
G1 X-2.818 Y-2.141 E-2.9489
G1 X-2.438 Y-2.565 E-2.9300
G1 X-1.995 Y-2.923 E-2.9110
G1 X-1.500 Y-3.205 E-2.8921
G1 X-0.967 Y-3.404 E-2.8731
G1 X-0.467 Y-3.504 E-2.8562
G0 X0.313 Y-3.324 F4800
;segType:Loop
G0 X0.637 Y-3.072
G1 X0.644 Y-3.071 E-2.8560 F3600
G1 X1.128 Y-2.928 E-2.8392
G1 X1.583 Y-2.709 E-2.8224
G1 X1.997 Y-2.420 E-2.8056
G1 X2.359 Y-2.068 E-2.7888
G1 X2.661 Y-1.663 E-2.7720
G1 X2.893 Y-1.215 E-2.7552
G1 X3.050 Y-0.735 E-2.7384
G1 X3.129 Y-0.236 E-2.7216
G1 X3.126 Y0.269 E-2.7048
G1 X3.042 Y0.767 E-2.6880
G1 X2.880 Y1.245 E-2.6712
G1 X2.643 Y1.691 E-2.6544
G1 X2.337 Y2.093 E-2.6376
G1 X1.972 Y2.441 E-2.6209
G1 X1.555 Y2.725 E-2.6041
G1 X1.097 Y2.940 E-2.5873
G1 X0.612 Y3.077 E-2.5705
G1 X0.110 Y3.136 E-2.5537
G1 X-0.394 Y3.113 E-2.5369
G1 X-0.889 Y3.009 E-2.5201
G1 X-1.360 Y2.827 E-2.5033
G1 X-1.796 Y2.573 E-2.4865
G1 X-2.185 Y2.251 E-2.4697
G1 X-2.518 Y1.872 E-2.4529
G1 X-2.786 Y1.443 E-2.4361
G1 X-2.981 Y0.978 E-2.4193
G1 X-3.100 Y0.487 E-2.4025
G1 X-3.138 Y-0.016 E-2.3857
G1 X-3.094 Y-0.520 E-2.3689
G1 X-2.971 Y-1.009 E-2.3521
G1 X-2.771 Y-1.473 E-2.3354
G1 X-2.498 Y-1.898 E-2.3186
G1 X-2.162 Y-2.274 E-2.3018
G1 X-1.769 Y-2.591 E-2.2850
G1 X-1.330 Y-2.842 E-2.2682
G1 X-0.857 Y-3.018 E-2.2514
G1 X-0.362 Y-3.117 E-2.2346
G1 X0.143 Y-3.134 E-2.2178
G1 X0.439 Y-3.097 E-2.2079
;segType:HShell
G0 X-0.715 Y-2.679 F4800
G1 X-2.672 Y-0.722 E-2.1158 F3600
G0 X-2.773 Y-0.056 F4800
G1 X-0.062 Y-2.767 E-1.9883 F3600
G0 X0.467 Y-2.730 F4800
G1 X-0.675 Y-1.588 E-1.9346 F3600
G0 X0.028 Y-1.725 F4800
G1 X0.917 Y-2.615 E-1.8928 F3600
G0 X1.309 Y-2.441 F4800
G1 X0.518 Y-1.649 E-1.8555 F3600
G0 X0.904 Y-1.469 F4800
G1 X1.654 Y-2.220 E-1.8202 F3600
G0 X1.957 Y-1.957 F4800
G1 X1.222 Y-1.222 E-1.7857 F3600
G0 X1.469 Y-0.903 F4800
G1 X2.219 Y-1.653 E-1.7504 F3600
G0 X2.439 Y-1.308 F4800
G1 X1.650 Y-0.518 E-1.7133 F3600
G0 X1.727 Y-0.030 F4800
G1 X2.612 Y-0.915 E-1.6716 F3600
G0 X2.728 Y-0.465 F4800
G1 X1.587 Y0.676 E-1.6179 F3600
G0 X0.723 Y2.671 F4800
G1 X2.680 Y0.714 E-1.5259 F3600
G0 X2.767 Y0.061 F4800
G1 X0.056 Y2.773 E-1.3983 F3600
G0 X-0.467 Y2.730 F4800
G1 X0.673 Y1.590 E-1.3447 F3600
G0 X-0.029 Y1.726 F4800
G1 X-0.916 Y2.613 E-1.3030 F3600
G0 X-1.309 Y2.440 F4800
G1 X-0.515 Y1.646 E-1.2657 F3600
G0 X-0.906 Y1.471 F4800
G1 X-1.656 Y2.222 E-1.2304 F3600
G0 X-1.961 Y1.961 F4800
G1 X-1.219 Y1.219 E-1.1955 F3600
G0 X-2.733 Y0.470 F4800
G1 X-1.593 Y-0.669 E-1.1419 F3600
; ------------------------------------
; Layer #6
; ------------------------------------
M106 S255 ;set fan speed
G21 ; mm
G90 ; abs
G92 E0 ;reset extr
;segType:HShell
G0 F4200 E-5.0000
G0 F1200 Z1.400
G0 X-2.208 Y-1.890 F4800
G0 F4200 E-4.0000
G1 X-1.119 Y-0.801 E-3.9488 F3600
G0 X-1.307 Y-0.424 F4800
G1 X-2.449 Y-1.565 E-3.8951 F3600
G0 X-2.648 Y-1.199 F4800
G1 X-1.374 Y0.075 E-3.8351 F3600
;segType:Infill
G0 X-0.971 Y0.971 F4800
G1 X0.971 Y-0.971 E-3.7255 F5400
G0 X1.289 Y0.475 F4800
G1 X-0.476 Y-1.289 E-3.6259 F5400
;segType:Perimeter
G0 X-1.099 Y-3.296 F4800
G1 X-0.383 Y-3.654 E-3.5993 F2159
G1 X0.148 Y-3.675 E-3.5816
G1 X0.736 Y-3.604 E-3.5619
G1 X1.304 Y-3.439 E-3.5422
G1 X1.839 Y-3.186 E-3.5225
G1 X2.326 Y-2.849 E-3.5028
G1 X2.753 Y-2.439 E-3.4831
G1 X3.109 Y-1.966 E-3.4634
G1 X3.384 Y-1.442 E-3.4437
G1 X3.571 Y-0.880 E-3.4241
G1 X3.666 Y-0.296 E-3.4044
G1 X3.666 Y0.296 E-3.3847
G1 X3.571 Y0.880 E-3.3650
G1 X3.384 Y1.442 E-3.3453
G1 X3.109 Y1.966 E-3.3256
G1 X2.753 Y2.439 E-3.3059
G1 X2.326 Y2.849 E-3.2862
G1 X1.839 Y3.186 E-3.2665
G1 X1.304 Y3.439 E-3.2469
G1 X0.736 Y3.604 E-3.2272
G1 X0.148 Y3.675 E-3.2075
G1 X-0.443 Y3.651 E-3.1878
G1 X-1.023 Y3.533 E-3.1681
G1 X-1.577 Y3.323 E-3.1484
G1 X-2.090 Y3.027 E-3.1287
G1 X-2.548 Y2.653 E-3.1090
G1 X-2.941 Y2.210 E-3.0893
G1 X-3.257 Y1.709 E-3.0697
G1 X-3.489 Y1.165 E-3.0500
G1 X-3.631 Y0.590 E-3.0303
G1 X-3.678 Y0.000 E-3.0106
G1 X-3.631 Y-0.590 E-2.9909
G1 X-3.489 Y-1.165 E-2.9712
G1 X-3.257 Y-1.709 E-2.9515
G1 X-2.941 Y-2.210 E-2.9318
G1 X-2.548 Y-2.653 E-2.9121
G1 X-2.090 Y-3.027 E-2.8925
G1 X-1.577 Y-3.323 E-2.8728
G1 X-1.023 Y-3.533 E-2.8531
G1 X-0.502 Y-3.639 E-2.8354
G0 X0.278 Y-3.464 F4800
;segType:Loop
G0 X0.604 Y-3.217
G1 X0.655 Y-3.211 E-2.8337 F3600
G1 X1.162 Y-3.064 E-2.8161
G1 X1.639 Y-2.838 E-2.7986
G1 X2.072 Y-2.538 E-2.7811
G1 X2.453 Y-2.173 E-2.7635
G1 X2.770 Y-1.751 E-2.7460
G1 X3.015 Y-1.284 E-2.7284
G1 X3.182 Y-0.784 E-2.7109
G1 X3.266 Y-0.264 E-2.6933
G1 X3.266 Y0.264 E-2.6758
G1 X3.182 Y0.784 E-2.6583
G1 X3.015 Y1.284 E-2.6407
G1 X2.770 Y1.751 E-2.6232
G1 X2.453 Y2.173 E-2.6056
G1 X2.072 Y2.538 E-2.5881
G1 X1.639 Y2.838 E-2.5706
G1 X1.162 Y3.064 E-2.5530
G1 X0.655 Y3.211 E-2.5355
G1 X0.132 Y3.274 E-2.5179
G1 X-0.395 Y3.253 E-2.5004
G1 X-0.912 Y3.148 E-2.4829
G1 X-1.405 Y2.961 E-2.4653
G1 X-1.862 Y2.697 E-2.4478
G1 X-2.270 Y2.363 E-2.4302
G1 X-2.620 Y1.969 E-2.4127
G1 X-2.902 Y1.523 E-2.3952
G1 X-3.108 Y1.038 E-2.3776
G1 X-3.235 Y0.526 E-2.3601
G1 X-3.277 Y0.000 E-2.3425
G1 X-3.235 Y-0.526 E-2.3250
G1 X-3.108 Y-1.038 E-2.3074
G1 X-2.902 Y-1.523 E-2.2899
G1 X-2.620 Y-1.969 E-2.2724
G1 X-2.270 Y-2.363 E-2.2548
G1 X-1.862 Y-2.697 E-2.2373
G1 X-1.405 Y-2.961 E-2.2197
G1 X-0.912 Y-3.148 E-2.2022
G1 X-0.395 Y-3.253 E-2.1847
G1 X0.132 Y-3.274 E-2.1671
G1 X0.406 Y-3.241 E-2.1580
;segType:HShell
G0 X-1.929 Y-2.177 F4800
G1 X-0.844 Y-1.092 E-2.1069 F3600
G0 X-0.476 Y-1.289 F4800
G1 X-1.612 Y-2.425 E-2.0535 F3600
G0 X-1.253 Y-2.632 F4800
G1 X-0.002 Y-1.382 E-1.9947 F3600
G0 X-0.972 Y2.739 F4800
G1 X-2.749 Y0.963 E-1.9111 F3600
G0 X-2.896 Y0.251 F4800
G1 X-0.248 Y2.899 E-1.7866 F3600
G0 X0.310 Y2.890 F4800
G1 X-2.891 Y-0.310 E-1.6360 F3600
G0 X-2.800 Y-0.785 F4800
G1 X0.784 Y2.799 E-1.4675 F3600
G0 X1.199 Y2.648 F4800
G1 X-0.075 Y1.374 E-1.4076 F3600
G0 X0.424 Y1.307 F4800
G1 X1.567 Y2.450 E-1.3538 F3600
G0 X1.893 Y2.211 F4800
G1 X0.802 Y1.119 E-1.3025 F3600
G0 X1.092 Y0.844 F4800
G1 X2.182 Y1.934 E-1.2512 F3600
G0 X2.425 Y1.611 F4800
G1 X1.289 Y0.475 E-1.1978 F3600
G0 X1.382 Y0.003 F4800
G1 X2.627 Y1.248 E-1.1392 F3600
G0 X2.784 Y0.839 F4800
G1 X-0.843 Y-2.788 E-0.9686 F3600
G0 X-0.378 Y-2.889 F4800
G1 X2.884 Y0.373 E-0.8152 F3600
G0 X2.906 Y-0.170 F4800
G1 X0.169 Y-2.907 E-0.6864 F3600
G0 X0.868 Y-2.774 F4800
G1 X2.774 Y-0.868 E-0.5968 F3600
; ------------------------------------
; Layer #7
; ------------------------------------
M106 S255 ;set fan speed
G21 ; mm
G90 ; abs
G92 E0 ;reset extr
;segType:HShell
G0 F4200 E-5.0000
G0 F1200 Z1.600
G0 X-1.128 Y2.825 F4800
G0 F4200 E-4.0000
G1 X0.375 Y1.322 E-3.9293 F3600
G0 X-0.224 Y1.355 F4800
G1 X-1.509 Y2.641 E-3.8688 F3600
G0 X-1.850 Y2.415 F4800
G1 X-0.649 Y1.214 E-3.8123 F3600
;segType:Infill
G0 X-0.970 Y0.970 F4800
G1 X0.970 Y-0.970 E-3.7028 F5400
G0 X1.288 Y0.474 F4800
G1 X-0.474 Y-1.288 E-3.6033 F5400
;segType:Perimeter
G0 X-1.140 Y-3.423 F4800
G1 X-0.427 Y-3.786 E-3.5767 F2159
G1 X0.127 Y-3.812 E-3.5583
G1 X0.736 Y-3.742 E-3.5379
G1 X1.327 Y-3.576 E-3.5174
G1 X1.884 Y-3.316 E-3.4970
G1 X2.391 Y-2.971 E-3.4766
G1 X2.837 Y-2.549 E-3.4562
G1 X3.209 Y-2.061 E-3.4358
G1 X3.498 Y-1.520 E-3.4154
G1 X3.697 Y-0.939 E-3.3949
G1 X3.799 Y-0.334 E-3.3745
G1 X3.804 Y0.280 E-3.3541
G1 X3.709 Y0.887 E-3.3337
G1 X3.519 Y1.470 E-3.3133
G1 X3.238 Y2.016 E-3.2929
G1 X2.873 Y2.509 E-3.2725
G1 X2.433 Y2.937 E-3.2520
G1 X1.930 Y3.289 E-3.2316
G1 X1.378 Y3.556 E-3.2112
G1 X0.789 Y3.731 E-3.1908
G1 X0.181 Y3.810 E-3.1704
G1 X-0.433 Y3.789 E-3.1500
G1 X-1.035 Y3.671 E-3.1296
G1 X-1.611 Y3.457 E-3.1091
G1 X-2.144 Y3.154 E-3.0887
G1 X-2.622 Y2.769 E-3.0683
G1 X-3.033 Y2.313 E-3.0479
G1 X-3.365 Y1.796 E-3.0275
G1 X-3.609 Y1.233 E-3.0071
G1 X-3.760 Y0.638 E-2.9867
G1 X-3.814 Y0.027 E-2.9662
G1 X-3.769 Y-0.585 E-2.9458
G1 X-3.626 Y-1.182 E-2.9254
G1 X-3.390 Y-1.748 E-2.9050
G1 X-3.065 Y-2.270 E-2.8846
G1 X-2.661 Y-2.732 E-2.8642
G1 X-2.189 Y-3.123 E-2.8437
G1 X-1.659 Y-3.434 E-2.8233
G1 X-1.087 Y-3.656 E-2.8029
G1 X-0.545 Y-3.770 E-2.7845
G0 X0.236 Y-3.600 F4800
;segType:Loop
G0 X0.564 Y-3.359
G1 X0.659 Y-3.348 E-2.7813 F3600
G1 X1.188 Y-3.199 E-2.7631
G1 X1.685 Y-2.967 E-2.7448
G1 X2.140 Y-2.659 E-2.7265
G1 X2.538 Y-2.281 E-2.7083
G1 X2.871 Y-1.845 E-2.6900
G1 X3.130 Y-1.360 E-2.6717
G1 X3.308 Y-0.840 E-2.6535
G1 X3.400 Y-0.299 E-2.6352
G1 X3.403 Y0.251 E-2.6169
G1 X3.319 Y0.793 E-2.5987
G1 X3.149 Y1.315 E-2.5804
G1 X2.897 Y1.804 E-2.5621
G1 X2.570 Y2.245 E-2.5439
G1 X2.177 Y2.628 E-2.5256
G1 X1.727 Y2.943 E-2.5073
G1 X1.233 Y3.182 E-2.4891
G1 X0.706 Y3.339 E-2.4708
G1 X0.162 Y3.409 E-2.4525
G1 X-0.387 Y3.391 E-2.4343
G1 X-0.926 Y3.284 E-2.4160
G1 X-1.441 Y3.093 E-2.3977
G1 X-1.919 Y2.822 E-2.3795
G1 X-2.346 Y2.478 E-2.3612
G1 X-2.714 Y2.069 E-2.3429
G1 X-3.011 Y1.607 E-2.3247
G1 X-3.229 Y1.104 E-2.3064
G1 X-3.365 Y0.571 E-2.2881
G1 X-3.412 Y0.024 E-2.2699
G1 X-3.372 Y-0.523 E-2.2516
G1 X-3.245 Y-1.058 E-2.2333
G1 X-3.033 Y-1.564 E-2.2151
G1 X-2.743 Y-2.031 E-2.1968
G1 X-2.381 Y-2.444 E-2.1785
G1 X-1.958 Y-2.795 E-2.1603
G1 X-1.485 Y-3.073 E-2.1420
G1 X-0.973 Y-3.271 E-2.1237
G1 X-0.435 Y-3.385 E-2.1055
G1 X0.113 Y-3.411 E-2.0872
G1 X0.365 Y-3.382 E-2.0787
;segType:HShell
G0 X-1.139 Y-2.820 F4800
G1 X-2.820 Y-1.140 E-1.9997 F3600
G0 X-3.022 Y-0.372 F4800
G1 X-0.367 Y-3.027 E-1.8748 F3600
G0 X0.209 Y-3.037 F4800
G1 X-3.035 Y0.207 E-1.7222 F3600
G0 X-2.961 Y0.698 F4800
G1 X0.700 Y-2.963 E-1.5500 F3600
G0 X1.131 Y-2.828 F4800
G1 X-0.375 Y-1.322 E-1.4791 F3600
G0 X0.224 Y-1.355 F4800
G1 X1.516 Y-2.647 E-1.4184 F3600
G0 X1.853 Y-2.418 F4800
G1 X0.649 Y-1.214 E-1.3617 F3600
G0 X0.970 Y-0.970 F4800
G1 X2.151 Y-2.151 E-1.3062 F3600
G0 X2.415 Y-1.849 F4800
G1 X1.213 Y-0.647 E-1.2497 F3600
G0 X1.356 Y-0.225 F4800
G1 X2.642 Y-1.510 E-1.1892 F3600
G0 X2.828 Y-1.131 F4800
G1 X1.324 Y0.373 E-1.1185 F3600
G0 X1.126 Y2.834 F4800
G1 X2.831 Y1.129 E-1.0383 F3600
G0 X3.020 Y0.374 F4800
G1 X0.376 Y3.018 E-0.9139 F3600
G0 X-0.208 Y3.036 F4800
G1 X3.040 Y-0.212 E-0.7611 F3600
G0 X2.966 Y-0.703 F4800
G1 X-0.699 Y2.962 E-0.5888 F3600
G0 X-0.970 Y0.970 F4800
G1 X-2.154 Y2.154 E-0.5331 F3600
G0 X-2.421 Y1.856 F4800
G1 X-1.213 Y0.647 E-0.4762 F3600
G0 X-1.356 Y0.225 F4800
G1 X-2.644 Y1.512 E-0.4157 F3600
G0 X-2.826 Y1.129 F4800
G1 X-1.324 Y-0.373 E-0.3451 F3600
; ------------------------------------
; Layer #8
; ------------------------------------
M106 S255 ;set fan speed
G21 ; mm
G90 ; abs
G92 E0 ;reset extr
;segType:HShell
G0 F4200 E-5.0000
G0 F1200 Z1.800
G0 X0.970 Y2.985 F4800
G0 F4200 E-4.0000
G1 X-2.992 Y-0.977 E-3.8137 F3600
G0 X-2.825 Y-1.376 F4800
G1 X-1.370 Y0.079 E-3.7452 F3600
;segType:Infill
G0 X-0.969 Y0.969 F4800
G1 X0.969 Y-0.969 E-3.6358 F5400
G0 X1.287 Y0.473 F4800
G1 X-0.473 Y-1.287 E-3.5364 F5400
;segType:Perimeter
G0 X-1.075 Y-3.544 F4800
G1 X-0.354 Y-3.891 E-3.5098 F2159
G1 X0.221 Y-3.905 E-3.4907
G1 X0.851 Y-3.817 E-3.4695
G1 X1.458 Y-3.629 E-3.4484
G1 X2.027 Y-3.344 E-3.4272
G1 X2.542 Y-2.972 E-3.4061
G1 X2.990 Y-2.520 E-3.3849
G1 X3.358 Y-2.002 E-3.3638
G1 X3.638 Y-1.432 E-3.3426
G1 X3.823 Y-0.820 E-3.3214
G1 X3.884 Y-0.441 E-3.3086
G1 X3.905 Y-0.195 E-3.3004
G1 X3.905 Y0.195 E-3.2875
G1 X3.884 Y0.440 E-3.2792
G1 X3.823 Y0.820 E-3.2664
G1 X3.638 Y1.432 E-3.2452
G1 X3.358 Y2.002 E-3.2241
G1 X2.990 Y2.520 E-3.2029
G1 X2.542 Y2.972 E-3.1818
G1 X2.027 Y3.344 E-3.1606
G1 X1.458 Y3.629 E-3.1395
G1 X0.851 Y3.817 E-3.1183
G1 X0.221 Y3.905 E-3.0972
G1 X-0.414 Y3.889 E-3.0761
G1 X-1.039 Y3.771 E-3.0549
G1 X-1.636 Y3.553 E-3.0338
G1 X-2.191 Y3.241 E-3.0126
G1 X-2.687 Y2.844 E-2.9915
G1 X-3.112 Y2.370 E-2.9703
G1 X-3.455 Y1.835 E-2.9491
G1 X-3.707 Y1.251 E-2.9280
G1 X-3.860 Y0.634 E-2.9068
G1 X-3.912 Y0.000 E-2.8857
G1 X-3.860 Y-0.634 E-2.8645
G1 X-3.707 Y-1.251 E-2.8434
G1 X-3.455 Y-1.835 E-2.8222
G1 X-3.112 Y-2.370 E-2.8011
G1 X-2.687 Y-2.844 E-2.7799
G1 X-2.191 Y-3.241 E-2.7588
G1 X-1.636 Y-3.553 E-2.7376
G1 X-1.039 Y-3.771 E-2.7165
G1 X-0.473 Y-3.878 E-2.6973
G0 X0.305 Y-3.690 F4800
;segType:Loop
G0 X0.626 Y-3.445
G1 X0.764 Y-3.426 E-2.6927 F3600
G1 X1.309 Y-3.256 E-2.6737
G1 X1.819 Y-3.001 E-2.6547
G1 X2.281 Y-2.667 E-2.6358
G1 X2.683 Y-2.262 E-2.6168
G1 X3.013 Y-1.797 E-2.5978
G1 X3.265 Y-1.285 E-2.5789
G1 X3.430 Y-0.736 E-2.5598
G1 X3.505 Y-0.169 E-2.5408
G1 X3.505 Y0.169 E-2.5295
G1 X3.430 Y0.736 E-2.5105
G1 X3.265 Y1.285 E-2.4914
G1 X3.013 Y1.797 E-2.4725
G1 X2.683 Y2.262 E-2.4535
G1 X2.281 Y2.667 E-2.4345
G1 X1.819 Y3.001 E-2.4155
G1 X1.309 Y3.256 E-2.3966
G1 X0.764 Y3.426 E-2.3776
G1 X0.199 Y3.504 E-2.3586
G1 X-0.372 Y3.490 E-2.3396
G1 X-0.932 Y3.384 E-2.3207
G1 X-1.468 Y3.188 E-2.3017
G1 X-1.966 Y2.909 E-2.2827
G1 X-2.411 Y2.552 E-2.2637
G1 X-2.793 Y2.127 E-2.2447
G1 X-3.101 Y1.647 E-2.2258
G1 X-3.326 Y1.123 E-2.2068
G1 X-3.464 Y0.569 E-2.1878
G1 X-3.511 Y0.000 E-2.1688
G1 X-3.464 Y-0.569 E-2.1498
G1 X-3.326 Y-1.123 E-2.1308
G1 X-3.101 Y-1.647 E-2.1119
G1 X-2.793 Y-2.127 E-2.0929
G1 X-2.411 Y-2.552 E-2.0739
G1 X-1.966 Y-2.909 E-2.0549
G1 X-1.468 Y-3.188 E-2.0359
G1 X-0.932 Y-3.384 E-2.0170
G1 X-0.372 Y-3.490 E-1.9980
G1 X0.199 Y-3.504 E-1.9790
G1 X0.428 Y-3.472 E-1.9713
;segType:HShell
G0 X1.400 Y-2.808 F4800
G1 X2.806 Y-1.402 E-1.9051 F3600
G0 X3.091 Y-0.551 F4800
G1 X0.550 Y-3.092 E-1.7856 F3600
G0 X-0.061 Y-3.138 F4800
G1 X3.144 Y0.068 E-1.6348 F3600
G0 X3.088 Y0.577 F4800
G1 X-0.575 Y-3.085 E-1.4625 F3600
G0 X-1.023 Y-2.968 F4800
G1 X2.968 Y1.022 E-1.2749 F3600
G0 X2.798 Y1.419 F4800
G1 X1.377 Y-0.002 E-1.2080 F3600
G0 X1.287 Y0.473 F4800
G1 X2.588 Y1.774 E-1.1468 F3600
G0 X2.342 Y2.094 F4800
G1 X1.089 Y0.841 E-1.0879 F3600
G0 X0.800 Y1.118 F4800
G1 X2.060 Y2.378 E-1.0286 F3600
G0 X1.734 Y2.618 F4800
G1 X0.421 Y1.305 E-0.9668 F3600
G0 X-0.077 Y1.372 F4800
G1 X1.373 Y2.822 E-0.8987 F3600
G0 X-2.748 Y1.529 F4800
G1 X-1.546 Y2.732 E-0.8421 F3600
G0 X-0.638 Y3.073 F4800
G1 X-3.077 Y0.635 E-0.7274 F3600
G0 X-3.149 Y-0.003 F4800
G1 X-0.007 Y3.139 E-0.5796 F3600
G0 X0.516 Y3.097 F4800
G1 X-3.104 Y-0.524 E-0.4093 F3600
G0 X-1.305 Y-0.422 F4800
G1 X-2.617 Y-1.734 E-0.3476 F3600
G0 X-2.373 Y-2.055 F4800
G1 X-1.116 Y-0.798 E-0.2884 F3600
G0 X-0.843 Y-1.091 F4800
G1 X-2.095 Y-2.343 E-0.2296 F3600
G0 X-1.781 Y-2.595 F4800
G1 X-0.473 Y-1.287 E-0.1681 F3600
G0 X0.002 Y-1.377 F4800
G1 X-1.422 Y-2.801 E-0.1011 F3600
; ------------------------------------
; Layer #9
; ------------------------------------
M106 S255 ;set fan speed
G21 ; mm
G90 ; abs
G92 E0 ;reset extr
;segType:HShell
G0 F4200 E-5.0000
G0 F1200 Z2.000
G0 X-1.983 Y2.549 F4800
G0 F4200 E-4.0000
G1 X-0.648 Y1.213 E-3.9372 F3600
G0 X-0.969 Y0.969 F4800
G1 X-2.286 Y2.286 E-3.8752 F3600
G0 X-2.556 Y1.990 F4800
G1 X-1.210 Y0.645 E-3.8119 F3600
;segType:Infill
G0 X-0.969 Y0.969 F4800
G1 X0.969 Y-0.969 E-3.7026 F5400
G0 X1.286 Y0.472 F4800
G1 X-0.473 Y-1.286 E-3.6033 F5400
;segType:Perimeter
G0 X-1.027 Y-3.650 F4800
G1 X-0.301 Y-3.987 E-3.5767 F2159
G1 X0.297 Y-3.992 E-3.5568
G1 X0.946 Y-3.889 E-3.5350
G1 X1.570 Y-3.681 E-3.5131
G1 X2.152 Y-3.374 E-3.4912
G1 X2.675 Y-2.976 E-3.4693
G1 X3.126 Y-2.498 E-3.4475
G1 X3.493 Y-1.952 E-3.4256
G1 X3.766 Y-1.354 E-3.4037
G1 X3.936 Y-0.719 E-3.3819
G1 X4.001 Y-0.065 E-3.3600
G1 X3.957 Y0.591 E-3.3381
G1 X3.806 Y1.231 E-3.3163
G1 X3.553 Y1.838 E-3.2944
G1 X3.204 Y2.395 E-3.2725
G1 X2.769 Y2.886 E-3.2507
G1 X2.150 Y3.375 E-3.2245
G1 X1.570 Y3.681 E-3.2027
G1 X0.946 Y3.889 E-3.1808
G1 X0.297 Y3.992 E-3.1589
G1 X-0.361 Y3.987 E-3.1370
G1 X-1.009 Y3.874 E-3.1152
G1 X-1.630 Y3.656 E-3.0933
G1 X-2.207 Y3.340 E-3.0714
G1 X-2.724 Y2.934 E-3.0495
G1 X-3.167 Y2.448 E-3.0277
G1 X-3.526 Y1.896 E-3.0058
G1 X-3.789 Y1.293 E-2.9839
G1 X-3.949 Y0.656 E-2.9620
G1 X-4.003 Y0.000 E-2.9401
G1 X-3.949 Y-0.656 E-2.9183
G1 X-3.789 Y-1.293 E-2.8964
G1 X-3.526 Y-1.896 E-2.8745
G1 X-3.167 Y-2.448 E-2.8526
G1 X-2.724 Y-2.934 E-2.8308
G1 X-2.207 Y-3.340 E-2.8089
G1 X-1.630 Y-3.656 E-2.7870
G1 X-1.009 Y-3.874 E-2.7651
G1 X-0.420 Y-3.976 E-2.7452
G0 X0.354 Y-3.775 F4800
;segType:Loop
G0 X0.671 Y-3.528
G1 X0.851 Y-3.499 E-2.7392 F3600
G1 X1.413 Y-3.312 E-2.7195
G1 X1.936 Y-3.036 E-2.6998
G1 X2.407 Y-2.678 E-2.6801
G1 X2.813 Y-2.248 E-2.6605
G1 X3.143 Y-1.757 E-2.6408
G1 X3.388 Y-1.218 E-2.6211
G1 X3.541 Y-0.647 E-2.6014
G1 X3.599 Y-0.058 E-2.5818
G1 X3.560 Y0.532 E-2.5621
G1 X3.425 Y1.108 E-2.5424
G1 X3.197 Y1.654 E-2.5227
G1 X2.883 Y2.154 E-2.5031
G1 X2.493 Y2.594 E-2.4835
G1 X1.931 Y3.039 E-2.4597
G1 X1.413 Y3.312 E-2.4402
G1 X0.851 Y3.499 E-2.4205
G1 X0.267 Y3.591 E-2.4009
G1 X-0.325 Y3.587 E-2.3812
G1 X-0.908 Y3.485 E-2.3615
G1 X-1.466 Y3.290 E-2.3418
G1 X-1.985 Y3.005 E-2.3221
G1 X-2.451 Y2.640 E-2.3024
G1 X-2.850 Y2.203 E-2.2828
G1 X-3.172 Y1.706 E-2.2631
G1 X-3.409 Y1.164 E-2.2434
G1 X-3.553 Y0.590 E-2.2237
G1 X-3.602 Y0.000 E-2.2040
G1 X-3.553 Y-0.590 E-2.1843
G1 X-3.409 Y-1.164 E-2.1646
G1 X-3.172 Y-1.706 E-2.1450
G1 X-2.850 Y-2.203 E-2.1253
G1 X-2.451 Y-2.640 E-2.1056
G1 X-1.985 Y-3.005 E-2.0859
G1 X-1.466 Y-3.290 E-2.0662
G1 X-0.908 Y-3.485 E-2.0465
G1 X-0.325 Y-3.587 E-2.0269
G1 X0.267 Y-3.591 E-2.0072
G1 X0.474 Y-3.559 E-2.0002
;segType:HShell
G0 X-0.828 Y-3.132 F4800
G1 X-3.119 Y-0.841 E-1.8925 F3600
G0 X-3.227 Y-0.167 F4800
G1 X-0.166 Y-3.228 E-1.7485 F3600
G0 X0.380 Y-3.209 F4800
G1 X-3.209 Y0.381 E-1.5797 F3600
G0 X-3.116 Y0.853 F4800
G1 X0.856 Y-3.118 E-1.3929 F3600
G0 X1.279 Y-2.976 F4800
G1 X-0.381 Y-1.316 E-1.3148 F3600
G0 X0.221 Y-1.352 F4800
G1 X1.649 Y-2.780 E-1.2476 F3600
G0 X1.983 Y-2.548 F4800
G1 X0.648 Y-1.213 E-1.1848 F3600
G0 X0.969 Y-0.969 F4800
G1 X2.284 Y-2.284 E-1.1230 F3600
G0 X2.554 Y-1.988 F4800
G1 X1.210 Y-0.645 E-1.0598 F3600
G0 X1.355 Y-0.223 F4800
G1 X2.781 Y-1.650 E-0.9927 F3600
G0 X2.968 Y-1.271 F4800
G1 X1.322 Y0.375 E-0.9153 F3600
G0 X2.603 Y1.922 F4800
G1 X2.001 Y2.524 E-0.8870 F3600
G0 X0.835 Y3.125 F4800
G1 X3.117 Y0.843 E-0.7796 F3600
G0 X3.223 Y0.171 F4800
G1 X0.164 Y3.230 E-0.6357 F3600
G0 X-0.383 Y3.211 F4800
G1 X3.206 Y-0.378 E-0.4669 F3600
G0 X3.114 Y-0.851 F4800
G1 X-0.858 Y3.121 E-0.2801 F3600
G0 X-1.277 Y2.974 F4800
G1 X0.381 Y1.316 E-0.2021 F3600
G0 X-0.221 Y1.352 F4800
G1 X-1.648 Y2.779 E-0.1349 F3600
G0 X-1.322 Y-0.375 F4800
G1 X-2.969 Y1.272 E-0.0575 F3600
G0 X-2.780 Y1.649 F4800
G1 X-1.355 Y0.223 E0.0096 F3600
G0 X-2.602 Y-1.924 F4800
G1 X-1.952 Y-2.573 E0.0401 F3600
; ------------------------------------
; Layer #10
; ------------------------------------
M106 S255 ;set fan speed
G21 ; mm
G90 ; abs
G92 E0 ;reset extr
;segType:Infill
G0 F4200 E-5.0000
G0 F1200 Z2.200
G0 X-0.968 Y0.968 F4800
G0 F4200 E-4.0000
G1 X0.968 Y-0.968 E-3.8907 F5400
G0 X1.285 Y0.471 F4800
G1 X-0.472 Y-1.286 E-3.7916 F5400
;segType:Loop
G0 X1.421 Y-0.999 F4800
G1 X1.575 Y-0.752 E-3.7819 F3600
G1 X1.702 Y-0.383 E-3.7689
G1 X1.745 Y0.006 E-3.7559
G1 X1.700 Y0.394 E-3.7429
G1 X1.570 Y0.762 E-3.7299
G1 X1.361 Y1.092 E-3.7169
G1 X1.084 Y1.368 E-3.7039
G1 X0.752 Y1.575 E-3.6909
G1 X0.383 Y1.702 E-3.6779
G1 X-0.005 Y1.745 E-3.6650
G1 X-0.394 Y1.700 E-3.6520
G1 X-0.762 Y1.570 E-3.6390
G1 X-1.092 Y1.361 E-3.6260
G1 X-1.368 Y1.084 E-3.6130
G1 X-1.575 Y0.752 E-3.6000
G1 X-1.702 Y0.383 E-3.5870
G1 X-1.745 Y-0.006 E-3.5740
G1 X-1.700 Y-0.394 E-3.5610
G1 X-1.570 Y-0.762 E-3.5480
G1 X-1.361 Y-1.092 E-3.5350
G1 X-1.084 Y-1.368 E-3.5220
G1 X-0.752 Y-1.575 E-3.5090
G1 X-0.383 Y-1.702 E-3.4960
G1 X0.005 Y-1.745 E-3.4830
G1 X0.394 Y-1.700 E-3.4700
G1 X0.762 Y-1.570 E-3.4570
G1 X1.092 Y-1.361 E-3.4440
G1 X1.297 Y-1.155 E-3.4343
;segType:Perimeter
G0 X0.191 Y-1.962 F4800
G1 X0.989 Y-1.900 E-3.4077 F2159
G1 X1.344 Y-1.675 E-3.3937
G1 X1.683 Y-1.334 E-3.3777
G1 X1.938 Y-0.926 E-3.3617
G1 X2.095 Y-0.471 E-3.3458
G1 X2.148 Y0.007 E-3.3298
G1 X2.092 Y0.485 E-3.3138
G1 X1.932 Y0.938 E-3.2978
G1 X1.675 Y1.344 E-3.2818
G1 X1.334 Y1.683 E-3.2658
G1 X0.926 Y1.938 E-3.2498
G1 X0.471 Y2.095 E-3.2338
G1 X-0.007 Y2.148 E-3.2178
G1 X-0.485 Y2.092 E-3.2018
G1 X-0.938 Y1.932 E-3.1858
G1 X-1.344 Y1.675 E-3.1698
G1 X-1.683 Y1.334 E-3.1538
G1 X-1.938 Y0.926 E-3.1378
G1 X-2.095 Y0.471 E-3.1218
G1 X-2.148 Y-0.007 E-3.1058
G1 X-2.092 Y-0.485 E-3.0898
G1 X-1.932 Y-0.938 E-3.0738
G1 X-1.675 Y-1.344 E-3.0578
G1 X-1.334 Y-1.683 E-3.0419
G1 X-0.926 Y-1.938 E-3.0259
G1 X-0.471 Y-2.095 E-3.0099
G1 X0.007 Y-2.148 E-2.9939
G1 X0.485 Y-2.092 E-2.9779
G1 X0.881 Y-1.952 E-2.9639
G0 X1.424 Y-1.364 F4800
; ------------------------------------
; Layer #11
; ------------------------------------
M106 S255 ;set fan speed
G21 ; mm
G90 ; abs
G92 E0 ;reset extr
;segType:Infill
G0 F4200 E-5.0000
G0 F1200 Z2.400
G0 X-0.968 Y0.968 F4800
G0 F4200 E-4.0000
G1 X0.968 Y-0.968 E-3.8907 F5400
G0 X1.285 Y0.471 F4800
G1 X-0.472 Y-1.286 E-3.7916 F5400
;segType:Loop
G0 X1.426 Y-0.989 F4800
G1 X1.578 Y-0.741 E-3.7819 F3600
G1 X1.703 Y-0.372 E-3.7690
G1 X1.743 Y0.017 E-3.7560
G1 X1.696 Y0.404 E-3.7430
G1 X1.563 Y0.771 E-3.7300
G1 X1.353 Y1.100 E-3.7170
G1 X1.074 Y1.373 E-3.7040
G1 X0.741 Y1.578 E-3.6910
G1 X0.372 Y1.703 E-3.6781
G1 X-0.017 Y1.743 E-3.6651
G1 X-0.404 Y1.696 E-3.6521
G1 X-0.771 Y1.563 E-3.6391
G1 X-1.100 Y1.353 E-3.6261
G1 X-1.373 Y1.074 E-3.6131
G1 X-1.578 Y0.741 E-3.6002
G1 X-1.703 Y0.372 E-3.5872
G1 X-1.743 Y-0.017 E-3.5742
G1 X-1.696 Y-0.404 E-3.5612
G1 X-1.563 Y-0.771 E-3.5482
G1 X-1.353 Y-1.100 E-3.5352
G1 X-1.074 Y-1.373 E-3.5222
G1 X-0.741 Y-1.578 E-3.5093
G1 X-0.372 Y-1.703 E-3.4963
G1 X0.017 Y-1.743 E-3.4833
G1 X0.404 Y-1.696 E-3.4703
G1 X0.771 Y-1.563 E-3.4573
G1 X1.100 Y-1.353 E-3.4443
G1 X1.303 Y-1.145 E-3.4347
;segType:Perimeter
G0 X0.203 Y-1.960 F4800
G1 X1.000 Y-1.892 E-3.4081 F2159
G1 X1.354 Y-1.665 E-3.3941
G1 X1.690 Y-1.322 E-3.3781
G1 X1.942 Y-0.912 E-3.3621
G1 X2.097 Y-0.458 E-3.3461
G1 X2.146 Y0.020 E-3.3302
G1 X2.087 Y0.498 E-3.3142
G1 X1.924 Y0.949 E-3.2982
G1 X1.665 Y1.354 E-3.2822
G1 X1.322 Y1.690 E-3.2662
G1 X0.912 Y1.942 E-3.2502
G1 X0.458 Y2.097 E-3.2343
G1 X-0.020 Y2.146 E-3.2183
G1 X-0.498 Y2.087 E-3.2023
G1 X-0.949 Y1.924 E-3.1863
G1 X-1.354 Y1.665 E-3.1703
G1 X-1.690 Y1.322 E-3.1543
G1 X-1.942 Y0.912 E-3.1384
G1 X-2.097 Y0.458 E-3.1224
G1 X-2.146 Y-0.020 E-3.1064
G1 X-2.087 Y-0.498 E-3.0904
G1 X-1.924 Y-0.949 E-3.0744
G1 X-1.665 Y-1.354 E-3.0585
G1 X-1.322 Y-1.690 E-3.0425
G1 X-0.912 Y-1.942 E-3.0265
G1 X-0.458 Y-2.097 E-3.0105
G1 X0.020 Y-2.146 E-2.9945
G1 X0.498 Y-2.087 E-2.9785
G1 X0.893 Y-1.945 E-2.9646
G0 X1.431 Y-1.353 F4800
; ------------------------------------
; Layer #12
; ------------------------------------
M106 S255 ;set fan speed
G21 ; mm
G90 ; abs
G92 E0 ;reset extr
;segType:Infill
G0 F4200 E-5.0000
G0 F1200 Z2.600
G0 X-0.968 Y0.968 F4800
G0 F4200 E-4.0000
G1 X0.968 Y-0.968 E-3.8907 F5400
G0 X1.285 Y0.471 F4800
G1 X-0.472 Y-1.286 E-3.7916 F5400
;segType:Loop
G0 X1.431 Y-0.979 F4800
G1 X1.581 Y-0.731 E-3.7819 F3600
G1 X1.704 Y-0.360 E-3.7690
G1 X1.742 Y0.028 E-3.7560
G1 X1.692 Y0.415 E-3.7430
G1 X1.557 Y0.781 E-3.7301
G1 X1.344 Y1.108 E-3.7171
G1 X1.064 Y1.379 E-3.7041
G1 X0.731 Y1.581 E-3.6911
G1 X0.360 Y1.704 E-3.6782
G1 X-0.028 Y1.742 E-3.6652
G1 X-0.415 Y1.692 E-3.6522
G1 X-0.781 Y1.557 E-3.6392
G1 X-1.108 Y1.344 E-3.6263
G1 X-1.379 Y1.064 E-3.6133
G1 X-1.581 Y0.731 E-3.6003
G1 X-1.704 Y0.360 E-3.5873
G1 X-1.742 Y-0.028 E-3.5744
G1 X-1.692 Y-0.415 E-3.5614
G1 X-1.557 Y-0.781 E-3.5484
G1 X-1.344 Y-1.108 E-3.5354
G1 X-1.064 Y-1.379 E-3.5225
G1 X-0.731 Y-1.581 E-3.5095
G1 X-0.360 Y-1.704 E-3.4965
G1 X0.028 Y-1.742 E-3.4836
G1 X0.415 Y-1.692 E-3.4706
G1 X0.781 Y-1.557 E-3.4576
G1 X1.108 Y-1.344 E-3.4446
G1 X1.309 Y-1.136 E-3.4350
;segType:Perimeter
G0 X0.215 Y-1.957 F4800
G1 X1.011 Y-1.884 E-3.4084 F2159
G1 X1.363 Y-1.655 E-3.3944
G1 X1.698 Y-1.310 E-3.3784
G1 X1.947 Y-0.900 E-3.3625
G1 X2.098 Y-0.444 E-3.3465
G1 X2.144 Y0.034 E-3.3305
G1 X2.083 Y0.510 E-3.3145
G1 X1.917 Y0.961 E-3.2986
G1 X1.655 Y1.363 E-3.2826
G1 X1.310 Y1.698 E-3.2666
G1 X0.900 Y1.947 E-3.2507
G1 X0.444 Y2.098 E-3.2347
G1 X-0.034 Y2.144 E-3.2187
G1 X-0.510 Y2.083 E-3.2027
G1 X-0.961 Y1.917 E-3.1868
G1 X-1.363 Y1.655 E-3.1708
G1 X-1.698 Y1.310 E-3.1548
G1 X-1.947 Y0.900 E-3.1389
G1 X-2.098 Y0.444 E-3.1229
G1 X-2.144 Y-0.034 E-3.1069
G1 X-2.083 Y-0.510 E-3.0909
G1 X-1.917 Y-0.961 E-3.0750
G1 X-1.655 Y-1.363 E-3.0590
G1 X-1.310 Y-1.698 E-3.0430
G1 X-0.900 Y-1.947 E-3.0271
G1 X-0.444 Y-2.098 E-3.0111
G1 X0.034 Y-2.144 E-2.9951
G1 X0.510 Y-2.083 E-2.9791
G1 X0.905 Y-1.938 E-2.9652
G0 X1.439 Y-1.343 F4800
; ------------------------------------
; Layer #13
; ------------------------------------
M106 S255 ;set fan speed
G21 ; mm
G90 ; abs
G92 E0 ;reset extr
;segType:Infill
G0 F4200 E-5.0000
G0 F1200 Z2.800
G0 X-0.968 Y0.968 F4800
G0 F4200 E-4.0000
G1 X0.968 Y-0.968 E-3.8907 F5400
G0 X1.285 Y0.471 F4800
G1 X-0.472 Y-1.286 E-3.7916 F5400
;segType:Loop
G0 X1.436 Y-0.969 F4800
G1 X1.585 Y-0.720 E-3.7820 F3600
G1 X1.705 Y-0.349 E-3.7690
G1 X1.740 Y0.039 E-3.7560
G1 X1.688 Y0.425 E-3.7431
G1 X1.551 Y0.790 E-3.7301
G1 X1.336 Y1.115 E-3.7171
G1 X1.054 Y1.385 E-3.7042
G1 X0.720 Y1.585 E-3.6912
G1 X0.349 Y1.705 E-3.6783
G1 X-0.039 Y1.740 E-3.6653
G1 X-0.425 Y1.688 E-3.6523
G1 X-0.790 Y1.551 E-3.6394
G1 X-1.115 Y1.336 E-3.6264
G1 X-1.385 Y1.054 E-3.6134
G1 X-1.585 Y0.720 E-3.6005
G1 X-1.705 Y0.349 E-3.5875
G1 X-1.740 Y-0.039 E-3.5745
G1 X-1.688 Y-0.425 E-3.5616
G1 X-1.551 Y-0.790 E-3.5486
G1 X-1.336 Y-1.115 E-3.5357
G1 X-1.054 Y-1.385 E-3.5227
G1 X-0.720 Y-1.585 E-3.5097
G1 X-0.349 Y-1.705 E-3.4968
G1 X0.039 Y-1.740 E-3.4838
G1 X0.425 Y-1.688 E-3.4709
G1 X0.790 Y-1.551 E-3.4579
G1 X1.115 Y-1.336 E-3.4449
G1 X1.316 Y-1.127 E-3.4353
;segType:Perimeter
G0 X0.227 Y-1.954 F4800
G1 X1.023 Y-1.876 E-3.4087 F2159
G1 X1.373 Y-1.645 E-3.3947
G1 X1.705 Y-1.298 E-3.3787
G1 X1.951 Y-0.887 E-3.3628
G1 X2.099 Y-0.430 E-3.3468
G1 X2.142 Y0.048 E-3.3309
G1 X2.078 Y0.523 E-3.3149
G1 X1.910 Y0.973 E-3.2989
G1 X1.645 Y1.373 E-3.2830
G1 X1.298 Y1.705 E-3.2670
G1 X0.887 Y1.951 E-3.2511
G1 X0.430 Y2.099 E-3.2351
G1 X-0.048 Y2.142 E-3.2191
G1 X-0.523 Y2.078 E-3.2032
G1 X-0.973 Y1.910 E-3.1872
G1 X-1.373 Y1.645 E-3.1713
G1 X-1.705 Y1.298 E-3.1553
G1 X-1.951 Y0.887 E-3.1393
G1 X-2.099 Y0.430 E-3.1234
G1 X-2.142 Y-0.048 E-3.1074
G1 X-2.078 Y-0.523 E-3.0915
G1 X-1.910 Y-0.973 E-3.0755
G1 X-1.645 Y-1.373 E-3.0595
G1 X-1.298 Y-1.705 E-3.0436
G1 X-0.887 Y-1.951 E-3.0276
G1 X-0.430 Y-2.099 E-3.0116
G1 X0.048 Y-2.142 E-2.9957
G1 X0.523 Y-2.078 E-2.9797
G1 X0.917 Y-1.931 E-2.9658
G0 X1.447 Y-1.332 F4800
; ------------------------------------
; Layer #14
; ------------------------------------
M106 S255 ;set fan speed
G21 ; mm
G90 ; abs
G92 E0 ;reset extr
;segType:Infill
G0 F4200 E-5.0000
G0 F1200 Z3.000
G0 X-0.968 Y0.968 F4800
G0 F4200 E-4.0000
G1 X0.968 Y-0.968 E-3.8907 F5400
G0 X1.285 Y0.471 F4800
G1 X-0.472 Y-1.286 E-3.7916 F5400
;segType:Loop
G0 X1.441 Y-0.959 F4800
G1 X1.588 Y-0.709 E-3.7820 F3600
G1 X1.706 Y-0.338 E-3.7690
G1 X1.738 Y0.050 E-3.7561
G1 X1.684 Y0.436 E-3.7431
G1 X1.545 Y0.799 E-3.7302
G1 X1.328 Y1.123 E-3.7172
G1 X1.045 Y1.390 E-3.7042
G1 X0.709 Y1.588 E-3.6913
G1 X0.338 Y1.706 E-3.6783
G1 X-0.050 Y1.738 E-3.6654
G1 X-0.436 Y1.684 E-3.6524
G1 X-0.799 Y1.545 E-3.6395
G1 X-1.123 Y1.328 E-3.6265
G1 X-1.390 Y1.045 E-3.6136
G1 X-1.588 Y0.709 E-3.6006
G1 X-1.706 Y0.338 E-3.5877
G1 X-1.738 Y-0.050 E-3.5747
G1 X-1.684 Y-0.436 E-3.5618
G1 X-1.545 Y-0.799 E-3.5488
G1 X-1.328 Y-1.123 E-3.5359
G1 X-1.045 Y-1.390 E-3.5229
G1 X-0.709 Y-1.588 E-3.5099
G1 X-0.338 Y-1.706 E-3.4970
G1 X0.050 Y-1.738 E-3.4840
G1 X0.436 Y-1.684 E-3.4711
G1 X0.799 Y-1.545 E-3.4581
G1 X1.123 Y-1.328 E-3.4452
G1 X1.322 Y-1.118 E-3.4356
;segType:Perimeter
G0 X0.238 Y-1.951 F4800
G1 X1.034 Y-1.869 E-3.4089 F2159
G1 X1.383 Y-1.636 E-3.3950
G1 X1.712 Y-1.287 E-3.3790
G1 X1.956 Y-0.874 E-3.3631
G1 X2.101 Y-0.416 E-3.3471
G1 X2.141 Y0.062 E-3.3312
G1 X2.073 Y0.536 E-3.3152
G1 X1.902 Y0.984 E-3.2993
G1 X1.636 Y1.383 E-3.2833
G1 X1.287 Y1.712 E-3.2674
G1 X0.874 Y1.956 E-3.2514
G1 X0.416 Y2.101 E-3.2355
G1 X-0.062 Y2.141 E-3.2195
G1 X-0.536 Y2.073 E-3.2036
G1 X-0.984 Y1.902 E-3.1876
G1 X-1.383 Y1.636 E-3.1717
G1 X-1.712 Y1.287 E-3.1557
G1 X-1.956 Y0.874 E-3.1398
G1 X-2.101 Y0.416 E-3.1238
G1 X-2.141 Y-0.062 E-3.1079
G1 X-2.073 Y-0.536 E-3.0919
G1 X-1.902 Y-0.984 E-3.0760
G1 X-1.636 Y-1.383 E-3.0600
G1 X-1.287 Y-1.712 E-3.0441
G1 X-0.874 Y-1.956 E-3.0281
G1 X-0.416 Y-2.101 E-3.0122
G1 X0.062 Y-2.141 E-2.9962
G1 X0.536 Y-2.073 E-2.9803
G1 X0.928 Y-1.924 E-2.9663
G0 X1.455 Y-1.322 F4800
; ------------------------------------
; Layer #15
; ------------------------------------
M106 S255 ;set fan speed
G21 ; mm
G90 ; abs
G92 E0 ;reset extr
;segType:Infill
G0 F4200 E-5.0000
G0 F1200 Z3.200
G0 X-0.968 Y0.968 F4800
G0 F4200 E-4.0000
G1 X0.968 Y-0.968 E-3.8907 F5400
G0 X1.285 Y0.471 F4800
G1 X-0.472 Y-1.286 E-3.7916 F5400
;segType:Loop
G0 X1.418 Y-1.004 F4800
G1 X1.573 Y-0.758 E-3.7819 F3600
G1 X1.702 Y-0.388 E-3.7689
G1 X1.746 Y0.000 E-3.7559
G1 X1.702 Y0.388 E-3.7429
G1 X1.573 Y0.757 E-3.7299
G1 X1.365 Y1.089 E-3.7169
G1 X1.089 Y1.365 E-3.7039
G1 X0.757 Y1.573 E-3.6909
G1 X0.388 Y1.702 E-3.6779
G1 X0.000 Y1.746 E-3.6649
G1 X-0.388 Y1.702 E-3.6519
G1 X-0.757 Y1.573 E-3.6389
G1 X-1.089 Y1.365 E-3.6259
G1 X-1.365 Y1.089 E-3.6129
G1 X-1.573 Y0.758 E-3.5999
G1 X-1.702 Y0.388 E-3.5869
G1 X-1.746 Y0.000 E-3.5739
G1 X-1.702 Y-0.388 E-3.5609
G1 X-1.573 Y-0.758 E-3.5479
G1 X-1.365 Y-1.089 E-3.5349
G1 X-1.089 Y-1.365 E-3.5219
G1 X-0.757 Y-1.573 E-3.5089
G1 X-0.388 Y-1.702 E-3.4959
G1 X0.000 Y-1.746 E-3.4829
G1 X0.388 Y-1.702 E-3.4699
G1 X0.757 Y-1.573 E-3.4568
G1 X1.089 Y-1.365 E-3.4438
G1 X1.294 Y-1.159 E-3.4342
;segType:Perimeter
G0 X0.185 Y-1.964 F4800
G1 X0.983 Y-1.904 E-3.4076 F2159
G1 X1.340 Y-1.680 E-3.3936
G1 X1.680 Y-1.340 E-3.3776
G1 X1.936 Y-0.932 E-3.3616
G1 X2.095 Y-0.478 E-3.3456
G1 X2.148 Y0.000 E-3.3296
G1 X2.094 Y0.478 E-3.3136
G1 X1.936 Y0.932 E-3.2975
G1 X1.680 Y1.340 E-3.2815
G1 X1.340 Y1.680 E-3.2655
G1 X0.932 Y1.936 E-3.2495
G1 X0.478 Y2.094 E-3.2335
G1 X0.000 Y2.148 E-3.2175
G1 X-0.478 Y2.094 E-3.2015
G1 X-0.932 Y1.936 E-3.1855
G1 X-1.340 Y1.680 E-3.1695
G1 X-1.680 Y1.340 E-3.1535
G1 X-1.936 Y0.932 E-3.1375
G1 X-2.094 Y0.478 E-3.1215
G1 X-2.148 Y0.000 E-3.1055
G1 X-2.094 Y-0.478 E-3.0895
G1 X-1.936 Y-0.932 E-3.0735
G1 X-1.680 Y-1.340 E-3.0575
G1 X-1.340 Y-1.680 E-3.0415
G1 X-0.932 Y-1.936 E-3.0255
G1 X-0.478 Y-2.094 E-3.0095
G1 X0.000 Y-2.148 E-2.9935
G1 X0.478 Y-2.095 E-2.9775
G1 X0.875 Y-1.955 E-2.9635
G0 X1.420 Y-1.369 F4800
; ------------------------------------
; Layer #16
; ------------------------------------
M106 S255 ;set fan speed
G21 ; mm
G90 ; abs
G92 E0 ;reset extr
;segType:Infill
G0 F4200 E-5.0000
G0 F1200 Z3.400
G0 X-0.968 Y0.968 F4800
G0 F4200 E-4.0000
G1 X0.968 Y-0.968 E-3.8907 F5400
G0 X1.285 Y0.471 F4800
G1 X-0.472 Y-1.286 E-3.7916 F5400
;segType:Loop
G0 X1.418 Y-1.004 F4800
G1 X1.573 Y-0.758 E-3.7819 F3600
G1 X1.702 Y-0.388 E-3.7689
G1 X1.746 Y0.000 E-3.7559
G1 X1.702 Y0.388 E-3.7429
G1 X1.573 Y0.757 E-3.7299
G1 X1.365 Y1.089 E-3.7169
G1 X1.089 Y1.365 E-3.7039
G1 X0.757 Y1.573 E-3.6909
G1 X0.388 Y1.702 E-3.6779
G1 X0.000 Y1.746 E-3.6649
G1 X-0.388 Y1.702 E-3.6519
G1 X-0.757 Y1.573 E-3.6389
G1 X-1.089 Y1.365 E-3.6259
G1 X-1.365 Y1.089 E-3.6129
G1 X-1.573 Y0.758 E-3.5999
G1 X-1.702 Y0.388 E-3.5869
G1 X-1.746 Y0.000 E-3.5739
G1 X-1.702 Y-0.388 E-3.5609
G1 X-1.573 Y-0.758 E-3.5479
G1 X-1.365 Y-1.089 E-3.5349
G1 X-1.089 Y-1.365 E-3.5219
G1 X-0.757 Y-1.573 E-3.5089
G1 X-0.388 Y-1.702 E-3.4959
G1 X0.000 Y-1.746 E-3.4829
G1 X0.388 Y-1.702 E-3.4699
G1 X0.757 Y-1.573 E-3.4568
G1 X1.089 Y-1.365 E-3.4438
G1 X1.294 Y-1.159 E-3.4342
;segType:Perimeter
G0 X0.185 Y-1.964 F4800
G1 X0.983 Y-1.904 E-3.4076 F2159
G1 X1.340 Y-1.680 E-3.3936
G1 X1.680 Y-1.340 E-3.3776
G1 X1.936 Y-0.932 E-3.3616
G1 X2.095 Y-0.478 E-3.3456
G1 X2.148 Y0.000 E-3.3296
G1 X2.094 Y0.478 E-3.3136
G1 X1.936 Y0.932 E-3.2975
G1 X1.680 Y1.340 E-3.2815
G1 X1.340 Y1.680 E-3.2655
G1 X0.932 Y1.936 E-3.2495
G1 X0.478 Y2.094 E-3.2335
G1 X0.000 Y2.148 E-3.2175
G1 X-0.478 Y2.094 E-3.2015
G1 X-0.932 Y1.936 E-3.1855
G1 X-1.340 Y1.680 E-3.1695
G1 X-1.680 Y1.340 E-3.1535
G1 X-1.936 Y0.932 E-3.1375
G1 X-2.094 Y0.478 E-3.1215
G1 X-2.148 Y0.000 E-3.1055
G1 X-2.094 Y-0.478 E-3.0895
G1 X-1.936 Y-0.932 E-3.0735
G1 X-1.680 Y-1.340 E-3.0575
G1 X-1.340 Y-1.680 E-3.0415
G1 X-0.932 Y-1.936 E-3.0255
G1 X-0.478 Y-2.094 E-3.0095
G1 X0.000 Y-2.148 E-2.9935
G1 X0.478 Y-2.095 E-2.9775
G1 X0.875 Y-1.955 E-2.9635
G0 X1.420 Y-1.369 F4800
; ------------------------------------
; Layer #17
; ------------------------------------
M106 S255 ;set fan speed
G21 ; mm
G90 ; abs
G92 E0 ;reset extr
;segType:Infill
G0 F4200 E-5.0000
G0 F1200 Z3.600
G0 X-0.968 Y0.968 F4800
G0 F4200 E-4.0000
G1 X0.968 Y-0.968 E-3.8907 F5400
G0 X1.285 Y0.471 F4800
G1 X-0.472 Y-1.286 E-3.7916 F5400
;segType:Loop
G0 X1.418 Y-1.004 F4800
G1 X1.573 Y-0.758 E-3.7819 F3600
G1 X1.702 Y-0.388 E-3.7689
G1 X1.746 Y0.000 E-3.7559
G1 X1.702 Y0.388 E-3.7429
G1 X1.573 Y0.757 E-3.7299
G1 X1.365 Y1.089 E-3.7169
G1 X1.089 Y1.365 E-3.7039
G1 X0.757 Y1.573 E-3.6909
G1 X0.388 Y1.702 E-3.6779
G1 X0.000 Y1.746 E-3.6649
G1 X-0.388 Y1.702 E-3.6519
G1 X-0.757 Y1.573 E-3.6389
G1 X-1.089 Y1.365 E-3.6259
G1 X-1.365 Y1.089 E-3.6129
G1 X-1.573 Y0.758 E-3.5999
G1 X-1.702 Y0.388 E-3.5869
G1 X-1.746 Y0.000 E-3.5739
G1 X-1.702 Y-0.388 E-3.5609
G1 X-1.573 Y-0.758 E-3.5479
G1 X-1.365 Y-1.089 E-3.5349
G1 X-1.089 Y-1.365 E-3.5219
G1 X-0.757 Y-1.573 E-3.5089
G1 X-0.388 Y-1.702 E-3.4959
G1 X0.000 Y-1.746 E-3.4829
G1 X0.388 Y-1.702 E-3.4699
G1 X0.757 Y-1.573 E-3.4568
G1 X1.089 Y-1.365 E-3.4438
G1 X1.294 Y-1.159 E-3.4342
;segType:Perimeter
G0 X0.185 Y-1.964 F4800
G1 X0.983 Y-1.904 E-3.4076 F2159
G1 X1.340 Y-1.680 E-3.3936
G1 X1.680 Y-1.340 E-3.3776
G1 X1.936 Y-0.932 E-3.3616
G1 X2.095 Y-0.478 E-3.3456
G1 X2.148 Y0.000 E-3.3296
G1 X2.094 Y0.478 E-3.3136
G1 X1.936 Y0.932 E-3.2975
G1 X1.680 Y1.340 E-3.2815
G1 X1.340 Y1.680 E-3.2655
G1 X0.932 Y1.936 E-3.2495
G1 X0.478 Y2.094 E-3.2335
G1 X0.000 Y2.148 E-3.2175
G1 X-0.478 Y2.094 E-3.2015
G1 X-0.932 Y1.936 E-3.1855
G1 X-1.340 Y1.680 E-3.1695
G1 X-1.680 Y1.340 E-3.1535
G1 X-1.936 Y0.932 E-3.1375
G1 X-2.094 Y0.478 E-3.1215
G1 X-2.148 Y0.000 E-3.1055
G1 X-2.094 Y-0.478 E-3.0895
G1 X-1.936 Y-0.932 E-3.0735
G1 X-1.680 Y-1.340 E-3.0575
G1 X-1.340 Y-1.680 E-3.0415
G1 X-0.932 Y-1.936 E-3.0255
G1 X-0.478 Y-2.094 E-3.0095
G1 X0.000 Y-2.148 E-2.9935
G1 X0.478 Y-2.095 E-2.9775
G1 X0.875 Y-1.955 E-2.9635
G0 X1.420 Y-1.369 F4800
; ------------------------------------
; Layer #18
; ------------------------------------
M106 S255 ;set fan speed
G21 ; mm
G90 ; abs
G92 E0 ;reset extr
;segType:Infill
G0 F4200 E-5.0000
G0 F1200 Z3.800
G0 X-0.968 Y0.968 F4800
G0 F4200 E-4.0000
G1 X0.968 Y-0.968 E-3.8907 F5400
G0 X1.285 Y0.471 F4800
G1 X-0.472 Y-1.286 E-3.7916 F5400
;segType:Loop
G0 X1.418 Y-1.004 F4800
G1 X1.573 Y-0.758 E-3.7819 F3600
G1 X1.702 Y-0.388 E-3.7689
G1 X1.746 Y0.000 E-3.7559
G1 X1.702 Y0.388 E-3.7429
G1 X1.573 Y0.757 E-3.7299
G1 X1.365 Y1.089 E-3.7169
G1 X1.089 Y1.365 E-3.7039
G1 X0.757 Y1.573 E-3.6909
G1 X0.388 Y1.702 E-3.6779
G1 X0.000 Y1.746 E-3.6649
G1 X-0.388 Y1.702 E-3.6519
G1 X-0.757 Y1.573 E-3.6389
G1 X-1.089 Y1.365 E-3.6259
G1 X-1.365 Y1.089 E-3.6129
G1 X-1.573 Y0.758 E-3.5999
G1 X-1.702 Y0.388 E-3.5869
G1 X-1.746 Y0.000 E-3.5739
G1 X-1.702 Y-0.388 E-3.5609
G1 X-1.573 Y-0.758 E-3.5479
G1 X-1.365 Y-1.089 E-3.5349
G1 X-1.089 Y-1.365 E-3.5219
G1 X-0.757 Y-1.573 E-3.5089
G1 X-0.388 Y-1.702 E-3.4959
G1 X0.000 Y-1.746 E-3.4829
G1 X0.388 Y-1.702 E-3.4699
G1 X0.757 Y-1.573 E-3.4568
G1 X1.089 Y-1.365 E-3.4438
G1 X1.294 Y-1.159 E-3.4342
;segType:Perimeter
G0 X0.185 Y-1.964 F4800
G1 X0.983 Y-1.904 E-3.4076 F2159
G1 X1.340 Y-1.680 E-3.3936
G1 X1.680 Y-1.340 E-3.3776
G1 X1.936 Y-0.932 E-3.3616
G1 X2.095 Y-0.478 E-3.3456
G1 X2.148 Y0.000 E-3.3296
G1 X2.094 Y0.478 E-3.3136
G1 X1.936 Y0.932 E-3.2975
G1 X1.680 Y1.340 E-3.2815
G1 X1.340 Y1.680 E-3.2655
G1 X0.932 Y1.936 E-3.2495
G1 X0.478 Y2.094 E-3.2335
G1 X0.000 Y2.148 E-3.2175
G1 X-0.478 Y2.094 E-3.2015
G1 X-0.932 Y1.936 E-3.1855
G1 X-1.340 Y1.680 E-3.1695
G1 X-1.680 Y1.340 E-3.1535
G1 X-1.936 Y0.932 E-3.1375
G1 X-2.094 Y0.478 E-3.1215
G1 X-2.148 Y0.000 E-3.1055
G1 X-2.094 Y-0.478 E-3.0895
G1 X-1.936 Y-0.932 E-3.0735
G1 X-1.680 Y-1.340 E-3.0575
G1 X-1.340 Y-1.680 E-3.0415
G1 X-0.932 Y-1.936 E-3.0255
G1 X-0.478 Y-2.094 E-3.0095
G1 X0.000 Y-2.148 E-2.9935
G1 X0.478 Y-2.095 E-2.9775
G1 X0.875 Y-1.955 E-2.9635
G0 X1.420 Y-1.369 F4800
; ------------------------------------
; Layer #19
; ------------------------------------
M106 S255 ;set fan speed
G21 ; mm
G90 ; abs
G92 E0 ;reset extr
;segType:Infill
G0 F4200 E-5.0000
G0 F1200 Z4.000
G0 X-0.972 Y0.972 F4800
G0 F4200 E-4.0000
G1 X0.972 Y-0.972 E-3.8903 F5400
G0 X1.290 Y0.476 F4800
G1 X-0.476 Y-1.290 E-3.7906 F5400
;segType:Loop
G0 X1.418 Y-1.004 F4800
G1 X1.573 Y-0.758 E-3.7809 F3600
G1 X1.702 Y-0.388 E-3.7679
G1 X1.746 Y0.000 E-3.7549
G1 X1.702 Y0.388 E-3.7419
G1 X1.573 Y0.757 E-3.7289
G1 X1.365 Y1.089 E-3.7159
G1 X1.089 Y1.365 E-3.7029
G1 X0.757 Y1.573 E-3.6899
G1 X0.388 Y1.702 E-3.6769
G1 X0.000 Y1.746 E-3.6639
G1 X-0.388 Y1.702 E-3.6509
G1 X-0.757 Y1.573 E-3.6379
G1 X-1.089 Y1.365 E-3.6249
G1 X-1.365 Y1.089 E-3.6119
G1 X-1.573 Y0.758 E-3.5989
G1 X-1.702 Y0.388 E-3.5859
G1 X-1.746 Y0.000 E-3.5729
G1 X-1.702 Y-0.388 E-3.5599
G1 X-1.573 Y-0.758 E-3.5469
G1 X-1.365 Y-1.089 E-3.5338
G1 X-1.089 Y-1.365 E-3.5208
G1 X-0.757 Y-1.573 E-3.5078
G1 X-0.388 Y-1.702 E-3.4948
G1 X0.000 Y-1.746 E-3.4818
G1 X0.388 Y-1.702 E-3.4688
G1 X0.757 Y-1.573 E-3.4558
G1 X1.089 Y-1.365 E-3.4428
G1 X1.294 Y-1.159 E-3.4332
;segType:Perimeter
G0 X0.185 Y-1.964 F4800
G1 X0.983 Y-1.904 E-3.4065 F2159
G1 X1.340 Y-1.680 E-3.3925
G1 X1.680 Y-1.340 E-3.3765
G1 X1.936 Y-0.932 E-3.3605
G1 X2.095 Y-0.478 E-3.3445
G1 X2.148 Y0.000 E-3.3285
G1 X2.094 Y0.478 E-3.3125
G1 X1.936 Y0.932 E-3.2965
G1 X1.680 Y1.340 E-3.2805
G1 X1.340 Y1.680 E-3.2645
G1 X0.932 Y1.936 E-3.2485
G1 X0.478 Y2.094 E-3.2325
G1 X0.000 Y2.148 E-3.2165
G1 X-0.478 Y2.094 E-3.2005
G1 X-0.932 Y1.936 E-3.1845
G1 X-1.340 Y1.680 E-3.1685
G1 X-1.680 Y1.340 E-3.1525
G1 X-1.936 Y0.932 E-3.1365
G1 X-2.094 Y0.478 E-3.1205
G1 X-2.148 Y0.000 E-3.1045
G1 X-2.094 Y-0.478 E-3.0885
G1 X-1.936 Y-0.932 E-3.0725
G1 X-1.680 Y-1.340 E-3.0565
G1 X-1.340 Y-1.680 E-3.0405
G1 X-0.932 Y-1.936 E-3.0245
G1 X-0.478 Y-2.094 E-3.0085
G1 X0.000 Y-2.148 E-2.9925
G1 X0.478 Y-2.095 E-2.9765
G1 X0.875 Y-1.955 E-2.9625
G0 X1.420 Y-1.369 F4800
; ------------------------------------
; Layer #20
; ------------------------------------
M106 S255 ;set fan speed
G21 ; mm
G90 ; abs
G92 E0 ;reset extr
;segType:Infill
G0 F4200 E-5.0000
G0 F1200 Z4.200
G0 X-0.972 Y0.972 F4800
G0 F4200 E-4.0000
G1 X0.972 Y-0.972 E-3.8903 F5400
G0 X1.290 Y0.476 F4800
G1 X-0.476 Y-1.290 E-3.7906 F5400
;segType:Loop
G0 X1.418 Y-1.004 F4800
G1 X1.573 Y-0.758 E-3.7809 F3600
G1 X1.702 Y-0.388 E-3.7679
G1 X1.746 Y0.000 E-3.7549
G1 X1.702 Y0.388 E-3.7419
G1 X1.573 Y0.757 E-3.7289
G1 X1.365 Y1.089 E-3.7159
G1 X1.089 Y1.365 E-3.7029
G1 X0.757 Y1.573 E-3.6899
G1 X0.388 Y1.702 E-3.6769
G1 X0.000 Y1.746 E-3.6639
G1 X-0.388 Y1.702 E-3.6509
G1 X-0.757 Y1.573 E-3.6379
G1 X-1.089 Y1.365 E-3.6249
G1 X-1.365 Y1.089 E-3.6119
G1 X-1.573 Y0.758 E-3.5989
G1 X-1.702 Y0.388 E-3.5859
G1 X-1.746 Y0.000 E-3.5729
G1 X-1.702 Y-0.388 E-3.5599
G1 X-1.573 Y-0.758 E-3.5469
G1 X-1.365 Y-1.089 E-3.5338
G1 X-1.089 Y-1.365 E-3.5208
G1 X-0.757 Y-1.573 E-3.5078
G1 X-0.388 Y-1.702 E-3.4948
G1 X0.000 Y-1.746 E-3.4818
G1 X0.388 Y-1.702 E-3.4688
G1 X0.757 Y-1.573 E-3.4558
G1 X1.089 Y-1.365 E-3.4428
G1 X1.294 Y-1.159 E-3.4332
;segType:Perimeter
G0 X0.185 Y-1.964 F4800
G1 X0.983 Y-1.904 E-3.4065 F2159
G1 X1.340 Y-1.680 E-3.3925
G1 X1.680 Y-1.340 E-3.3765
G1 X1.936 Y-0.932 E-3.3605
G1 X2.095 Y-0.478 E-3.3445
G1 X2.148 Y0.000 E-3.3285
G1 X2.094 Y0.478 E-3.3125
G1 X1.936 Y0.932 E-3.2965
G1 X1.680 Y1.340 E-3.2805
G1 X1.340 Y1.680 E-3.2645
G1 X0.932 Y1.936 E-3.2485
G1 X0.478 Y2.094 E-3.2325
G1 X0.000 Y2.148 E-3.2165
G1 X-0.478 Y2.094 E-3.2005
G1 X-0.932 Y1.936 E-3.1845
G1 X-1.340 Y1.680 E-3.1685
G1 X-1.680 Y1.340 E-3.1525
G1 X-1.936 Y0.932 E-3.1365
G1 X-2.094 Y0.478 E-3.1205
G1 X-2.148 Y0.000 E-3.1045
G1 X-2.094 Y-0.478 E-3.0885
G1 X-1.936 Y-0.932 E-3.0725
G1 X-1.680 Y-1.340 E-3.0565
G1 X-1.340 Y-1.680 E-3.0405
G1 X-0.932 Y-1.936 E-3.0245
G1 X-0.478 Y-2.094 E-3.0085
G1 X0.000 Y-2.148 E-2.9925
G1 X0.478 Y-2.095 E-2.9765
G1 X0.875 Y-1.955 E-2.9625
G0 X1.420 Y-1.369 F4800
; ------------------------------------
; Layer #21
; ------------------------------------
M106 S255 ;set fan speed
G21 ; mm
G90 ; abs
G92 E0 ;reset extr
;segType:Infill
G0 F4200 E-5.0000
G0 F1200 Z4.400
G0 X-0.972 Y0.972 F4800
G0 F4200 E-4.0000
G1 X0.972 Y-0.972 E-3.8903 F5400
G0 X1.290 Y0.476 F4800
G1 X-0.476 Y-1.290 E-3.7906 F5400
;segType:Loop
G0 X1.418 Y-1.004 F4800
G1 X1.573 Y-0.758 E-3.7809 F3600
G1 X1.702 Y-0.388 E-3.7679
G1 X1.746 Y0.000 E-3.7549
G1 X1.702 Y0.388 E-3.7419
G1 X1.573 Y0.757 E-3.7289
G1 X1.365 Y1.089 E-3.7159
G1 X1.089 Y1.365 E-3.7029
G1 X0.757 Y1.573 E-3.6899
G1 X0.388 Y1.702 E-3.6769
G1 X0.000 Y1.746 E-3.6639
G1 X-0.388 Y1.702 E-3.6509
G1 X-0.757 Y1.573 E-3.6379
G1 X-1.089 Y1.365 E-3.6249
G1 X-1.365 Y1.089 E-3.6119
G1 X-1.573 Y0.758 E-3.5989
G1 X-1.702 Y0.388 E-3.5859
G1 X-1.746 Y0.000 E-3.5729
G1 X-1.702 Y-0.388 E-3.5599
G1 X-1.573 Y-0.758 E-3.5469
G1 X-1.365 Y-1.089 E-3.5338
G1 X-1.089 Y-1.365 E-3.5208
G1 X-0.757 Y-1.573 E-3.5078
G1 X-0.388 Y-1.702 E-3.4948
G1 X0.000 Y-1.746 E-3.4818
G1 X0.388 Y-1.702 E-3.4688
G1 X0.757 Y-1.573 E-3.4558
G1 X1.089 Y-1.365 E-3.4428
G1 X1.294 Y-1.159 E-3.4332
;segType:Perimeter
G0 X0.185 Y-1.964 F4800
G1 X0.983 Y-1.904 E-3.4065 F2159
G1 X1.340 Y-1.680 E-3.3925
G1 X1.680 Y-1.340 E-3.3765
G1 X1.936 Y-0.932 E-3.3605
G1 X2.095 Y-0.478 E-3.3445
G1 X2.148 Y0.000 E-3.3285
G1 X2.094 Y0.478 E-3.3125
G1 X1.936 Y0.932 E-3.2965
G1 X1.680 Y1.340 E-3.2805
G1 X1.340 Y1.680 E-3.2645
G1 X0.932 Y1.936 E-3.2485
G1 X0.478 Y2.094 E-3.2325
G1 X0.000 Y2.148 E-3.2165
G1 X-0.478 Y2.094 E-3.2005
G1 X-0.932 Y1.936 E-3.1845
G1 X-1.340 Y1.680 E-3.1685
G1 X-1.680 Y1.340 E-3.1525
G1 X-1.936 Y0.932 E-3.1365
G1 X-2.094 Y0.478 E-3.1205
G1 X-2.148 Y0.000 E-3.1045
G1 X-2.094 Y-0.478 E-3.0885
G1 X-1.936 Y-0.932 E-3.0725
G1 X-1.680 Y-1.340 E-3.0565
G1 X-1.340 Y-1.680 E-3.0405
G1 X-0.932 Y-1.936 E-3.0245
G1 X-0.478 Y-2.094 E-3.0085
G1 X0.000 Y-2.148 E-2.9925
G1 X0.478 Y-2.095 E-2.9765
G1 X0.875 Y-1.955 E-2.9625
G0 X1.420 Y-1.369 F4800
; ------------------------------------
; Layer #22
; ------------------------------------
M106 S255 ;set fan speed
G21 ; mm
G90 ; abs
G92 E0 ;reset extr
;segType:Infill
G0 F4200 E-5.0000
G0 F1200 Z4.600
G0 X-0.972 Y0.972 F4800
G0 F4200 E-4.0000
G1 X0.972 Y-0.972 E-3.8903 F5400
G0 X1.290 Y0.476 F4800
G1 X-0.476 Y-1.290 E-3.7906 F5400
;segType:Loop
G0 X1.418 Y-1.004 F4800
G1 X1.573 Y-0.758 E-3.7809 F3600
G1 X1.702 Y-0.388 E-3.7679
G1 X1.746 Y0.000 E-3.7549
G1 X1.702 Y0.388 E-3.7419
G1 X1.573 Y0.757 E-3.7289
G1 X1.365 Y1.089 E-3.7159
G1 X1.089 Y1.365 E-3.7029
G1 X0.757 Y1.573 E-3.6899
G1 X0.388 Y1.702 E-3.6769
G1 X0.000 Y1.746 E-3.6639
G1 X-0.388 Y1.702 E-3.6509
G1 X-0.757 Y1.573 E-3.6379
G1 X-1.089 Y1.365 E-3.6249
G1 X-1.365 Y1.089 E-3.6119
G1 X-1.573 Y0.758 E-3.5989
G1 X-1.702 Y0.388 E-3.5859
G1 X-1.746 Y0.000 E-3.5729
G1 X-1.702 Y-0.388 E-3.5599
G1 X-1.573 Y-0.758 E-3.5469
G1 X-1.365 Y-1.089 E-3.5338
G1 X-1.089 Y-1.365 E-3.5208
G1 X-0.757 Y-1.573 E-3.5078
G1 X-0.388 Y-1.702 E-3.4948
G1 X0.000 Y-1.746 E-3.4818
G1 X0.388 Y-1.702 E-3.4688
G1 X0.757 Y-1.573 E-3.4558
G1 X1.089 Y-1.365 E-3.4428
G1 X1.294 Y-1.159 E-3.4332
;segType:Perimeter
G0 X0.185 Y-1.964 F4800
G1 X0.983 Y-1.904 E-3.4065 F2159
G1 X1.340 Y-1.680 E-3.3925
G1 X1.680 Y-1.340 E-3.3765
G1 X1.936 Y-0.932 E-3.3605
G1 X2.095 Y-0.478 E-3.3445
G1 X2.148 Y0.000 E-3.3285
G1 X2.094 Y0.478 E-3.3125
G1 X1.936 Y0.932 E-3.2965
G1 X1.680 Y1.340 E-3.2805
G1 X1.340 Y1.680 E-3.2645
G1 X0.932 Y1.936 E-3.2485
G1 X0.478 Y2.094 E-3.2325
G1 X0.000 Y2.148 E-3.2165
G1 X-0.478 Y2.094 E-3.2005
G1 X-0.932 Y1.936 E-3.1845
G1 X-1.340 Y1.680 E-3.1685
G1 X-1.680 Y1.340 E-3.1525
G1 X-1.936 Y0.932 E-3.1365
G1 X-2.094 Y0.478 E-3.1205
G1 X-2.148 Y0.000 E-3.1045
G1 X-2.094 Y-0.478 E-3.0885
G1 X-1.936 Y-0.932 E-3.0725
G1 X-1.680 Y-1.340 E-3.0565
G1 X-1.340 Y-1.680 E-3.0405
G1 X-0.932 Y-1.936 E-3.0245
G1 X-0.478 Y-2.094 E-3.0085
G1 X0.000 Y-2.148 E-2.9925
G1 X0.478 Y-2.095 E-2.9765
G1 X0.875 Y-1.955 E-2.9625
G0 X1.420 Y-1.369 F4800
; ------------------------------------
; Layer #23
; ------------------------------------
M106 S255 ;set fan speed
G21 ; mm
G90 ; abs
G92 E0 ;reset extr
;segType:Infill
G0 F4200 E-5.0000
G0 F1200 Z4.800
G0 X-0.972 Y0.972 F4800
G0 F4200 E-4.0000
G1 X0.972 Y-0.972 E-3.8903 F5400
G0 X1.290 Y0.476 F4800
G1 X-0.476 Y-1.290 E-3.7906 F5400
;segType:Loop
G0 X1.418 Y-1.004 F4800
G1 X1.573 Y-0.758 E-3.7809 F3600
G1 X1.702 Y-0.388 E-3.7679
G1 X1.746 Y0.000 E-3.7549
G1 X1.702 Y0.388 E-3.7419
G1 X1.573 Y0.757 E-3.7289
G1 X1.365 Y1.089 E-3.7159
G1 X1.089 Y1.365 E-3.7029
G1 X0.757 Y1.573 E-3.6899
G1 X0.388 Y1.702 E-3.6769
G1 X0.000 Y1.746 E-3.6639
G1 X-0.388 Y1.702 E-3.6509
G1 X-0.757 Y1.573 E-3.6379
G1 X-1.089 Y1.365 E-3.6249
G1 X-1.365 Y1.089 E-3.6119
G1 X-1.573 Y0.758 E-3.5989
G1 X-1.702 Y0.388 E-3.5859
G1 X-1.746 Y0.000 E-3.5729
G1 X-1.702 Y-0.388 E-3.5599
G1 X-1.573 Y-0.758 E-3.5469
G1 X-1.365 Y-1.089 E-3.5338
G1 X-1.089 Y-1.365 E-3.5208
G1 X-0.757 Y-1.573 E-3.5078
G1 X-0.388 Y-1.702 E-3.4948
G1 X0.000 Y-1.746 E-3.4818
G1 X0.388 Y-1.702 E-3.4688
G1 X0.757 Y-1.573 E-3.4558
G1 X1.089 Y-1.365 E-3.4428
G1 X1.294 Y-1.159 E-3.4332
;segType:Perimeter
G0 X0.185 Y-1.964 F4800
G1 X0.983 Y-1.904 E-3.4065 F2159
G1 X1.340 Y-1.680 E-3.3925
G1 X1.680 Y-1.340 E-3.3765
G1 X1.936 Y-0.932 E-3.3605
G1 X2.095 Y-0.478 E-3.3445
G1 X2.148 Y0.000 E-3.3285
G1 X2.094 Y0.478 E-3.3125
G1 X1.936 Y0.932 E-3.2965
G1 X1.680 Y1.340 E-3.2805
G1 X1.340 Y1.680 E-3.2645
G1 X0.932 Y1.936 E-3.2485
G1 X0.478 Y2.094 E-3.2325
G1 X0.000 Y2.148 E-3.2165
G1 X-0.478 Y2.094 E-3.2005
G1 X-0.932 Y1.936 E-3.1845
G1 X-1.340 Y1.680 E-3.1685
G1 X-1.680 Y1.340 E-3.1525
G1 X-1.936 Y0.932 E-3.1365
G1 X-2.094 Y0.478 E-3.1205
G1 X-2.148 Y0.000 E-3.1045
G1 X-2.094 Y-0.478 E-3.0885
G1 X-1.936 Y-0.932 E-3.0725
G1 X-1.680 Y-1.340 E-3.0565
G1 X-1.340 Y-1.680 E-3.0405
G1 X-0.932 Y-1.936 E-3.0245
G1 X-0.478 Y-2.094 E-3.0085
G1 X0.000 Y-2.148 E-2.9925
G1 X0.478 Y-2.095 E-2.9765
G1 X0.875 Y-1.955 E-2.9625
G0 X1.420 Y-1.369 F4800
; ------------------------------------
; Layer #24
; ------------------------------------
M106 S255 ;set fan speed
G21 ; mm
G90 ; abs
G92 E0 ;reset extr
;segType:Infill
G0 F4200 E-5.0000
G0 F1200 Z5.000
G0 X-0.972 Y0.972 F4800
G0 F4200 E-4.0000
G1 X0.972 Y-0.972 E-3.8903 F5400
G0 X1.290 Y0.476 F4800
G1 X-0.476 Y-1.290 E-3.7906 F5400
;segType:Loop
G0 X1.418 Y-1.004 F4800
G1 X1.573 Y-0.758 E-3.7809 F3600
G1 X1.702 Y-0.388 E-3.7679
G1 X1.746 Y0.000 E-3.7549
G1 X1.702 Y0.388 E-3.7419
G1 X1.573 Y0.757 E-3.7289
G1 X1.365 Y1.089 E-3.7159
G1 X1.089 Y1.365 E-3.7029
G1 X0.757 Y1.573 E-3.6899
G1 X0.388 Y1.702 E-3.6769
G1 X0.000 Y1.746 E-3.6639
G1 X-0.388 Y1.702 E-3.6509
G1 X-0.757 Y1.573 E-3.6379
G1 X-1.089 Y1.365 E-3.6249
G1 X-1.365 Y1.089 E-3.6119
G1 X-1.573 Y0.758 E-3.5989
G1 X-1.702 Y0.388 E-3.5859
G1 X-1.746 Y0.000 E-3.5729
G1 X-1.702 Y-0.388 E-3.5599
G1 X-1.573 Y-0.758 E-3.5469
G1 X-1.365 Y-1.089 E-3.5338
G1 X-1.089 Y-1.365 E-3.5208
G1 X-0.757 Y-1.573 E-3.5078
G1 X-0.388 Y-1.702 E-3.4948
G1 X0.000 Y-1.746 E-3.4818
G1 X0.388 Y-1.702 E-3.4688
G1 X0.757 Y-1.573 E-3.4558
G1 X1.089 Y-1.365 E-3.4428
G1 X1.294 Y-1.159 E-3.4332
;segType:Perimeter
G0 X0.185 Y-1.964 F4800
G1 X0.983 Y-1.904 E-3.4065 F2159
G1 X1.340 Y-1.680 E-3.3925
G1 X1.680 Y-1.340 E-3.3765
G1 X1.936 Y-0.932 E-3.3605
G1 X2.095 Y-0.478 E-3.3445
G1 X2.148 Y0.000 E-3.3285
G1 X2.094 Y0.478 E-3.3125
G1 X1.936 Y0.932 E-3.2965
G1 X1.680 Y1.340 E-3.2805
G1 X1.340 Y1.680 E-3.2645
G1 X0.932 Y1.936 E-3.2485
G1 X0.478 Y2.094 E-3.2325
G1 X0.000 Y2.148 E-3.2165
G1 X-0.478 Y2.094 E-3.2005
G1 X-0.932 Y1.936 E-3.1845
G1 X-1.340 Y1.680 E-3.1685
G1 X-1.680 Y1.340 E-3.1525
G1 X-1.936 Y0.932 E-3.1365
G1 X-2.094 Y0.478 E-3.1205
G1 X-2.148 Y0.000 E-3.1045
G1 X-2.094 Y-0.478 E-3.0885
G1 X-1.936 Y-0.932 E-3.0725
G1 X-1.680 Y-1.340 E-3.0565
G1 X-1.340 Y-1.680 E-3.0405
G1 X-0.932 Y-1.936 E-3.0245
G1 X-0.478 Y-2.094 E-3.0085
G1 X0.000 Y-2.148 E-2.9925
G1 X0.478 Y-2.095 E-2.9765
G1 X0.875 Y-1.955 E-2.9625
G0 X1.420 Y-1.369 F4800
; ------------------------------------
; Layer #25
; ------------------------------------
M106 S255 ;set fan speed
G21 ; mm
G90 ; abs
G92 E0 ;reset extr
;segType:Infill
G0 F4200 E-5.0000
G0 F1200 Z5.200
G0 X-0.972 Y0.972 F4800
G0 F4200 E-4.0000
G1 X0.972 Y-0.972 E-3.8903 F5400
G0 X1.290 Y0.476 F4800
G1 X-0.476 Y-1.290 E-3.7906 F5400
;segType:Loop
G0 X1.418 Y-1.004 F4800
G1 X1.573 Y-0.758 E-3.7809 F3600
G1 X1.702 Y-0.388 E-3.7679
G1 X1.746 Y0.000 E-3.7549
G1 X1.702 Y0.388 E-3.7419
G1 X1.573 Y0.757 E-3.7289
G1 X1.365 Y1.089 E-3.7159
G1 X1.089 Y1.365 E-3.7029
G1 X0.757 Y1.573 E-3.6899
G1 X0.388 Y1.702 E-3.6769
G1 X0.000 Y1.746 E-3.6639
G1 X-0.388 Y1.702 E-3.6509
G1 X-0.757 Y1.573 E-3.6379
G1 X-1.089 Y1.365 E-3.6249
G1 X-1.365 Y1.089 E-3.6119
G1 X-1.573 Y0.758 E-3.5989
G1 X-1.702 Y0.388 E-3.5859
G1 X-1.746 Y0.000 E-3.5729
G1 X-1.702 Y-0.388 E-3.5599
G1 X-1.573 Y-0.758 E-3.5469
G1 X-1.365 Y-1.089 E-3.5338
G1 X-1.089 Y-1.365 E-3.5208
G1 X-0.757 Y-1.573 E-3.5078
G1 X-0.388 Y-1.702 E-3.4948
G1 X0.000 Y-1.746 E-3.4818
G1 X0.388 Y-1.702 E-3.4688
G1 X0.757 Y-1.573 E-3.4558
G1 X1.089 Y-1.365 E-3.4428
G1 X1.294 Y-1.159 E-3.4332
;segType:Perimeter
G0 X0.185 Y-1.964 F4800
G1 X0.983 Y-1.904 E-3.4065 F2159
G1 X1.340 Y-1.680 E-3.3925
G1 X1.680 Y-1.340 E-3.3765
G1 X1.936 Y-0.932 E-3.3605
G1 X2.095 Y-0.478 E-3.3445
G1 X2.148 Y0.000 E-3.3285
G1 X2.094 Y0.478 E-3.3125
G1 X1.936 Y0.932 E-3.2965
G1 X1.680 Y1.340 E-3.2805
G1 X1.340 Y1.680 E-3.2645
G1 X0.932 Y1.936 E-3.2485
G1 X0.478 Y2.094 E-3.2325
G1 X0.000 Y2.148 E-3.2165
G1 X-0.478 Y2.094 E-3.2005
G1 X-0.932 Y1.936 E-3.1845
G1 X-1.340 Y1.680 E-3.1685
G1 X-1.680 Y1.340 E-3.1525
G1 X-1.936 Y0.932 E-3.1365
G1 X-2.094 Y0.478 E-3.1205
G1 X-2.148 Y0.000 E-3.1045
G1 X-2.094 Y-0.478 E-3.0885
G1 X-1.936 Y-0.932 E-3.0725
G1 X-1.680 Y-1.340 E-3.0565
G1 X-1.340 Y-1.680 E-3.0405
G1 X-0.932 Y-1.936 E-3.0245
G1 X-0.478 Y-2.094 E-3.0085
G1 X0.000 Y-2.148 E-2.9925
G1 X0.478 Y-2.095 E-2.9765
G1 X0.875 Y-1.955 E-2.9625
G0 X1.420 Y-1.369 F4800
; ------------------------------------
; Layer #26
; ------------------------------------
M106 S255 ;set fan speed
G21 ; mm
G90 ; abs
G92 E0 ;reset extr
;segType:Infill
G0 F4200 E-5.0000
G0 F1200 Z5.400
G0 X-0.972 Y0.972 F4800
G0 F4200 E-4.0000
G1 X0.972 Y-0.972 E-3.8903 F5400
G0 X1.290 Y0.476 F4800
G1 X-0.476 Y-1.290 E-3.7906 F5400
;segType:Loop
G0 X1.418 Y-1.004 F4800
G1 X1.573 Y-0.758 E-3.7809 F3600
G1 X1.702 Y-0.388 E-3.7679
G1 X1.746 Y0.000 E-3.7549
G1 X1.702 Y0.388 E-3.7419
G1 X1.573 Y0.757 E-3.7289
G1 X1.365 Y1.089 E-3.7159
G1 X1.089 Y1.365 E-3.7029
G1 X0.757 Y1.573 E-3.6899
G1 X0.388 Y1.702 E-3.6769
G1 X0.000 Y1.746 E-3.6639
G1 X-0.388 Y1.702 E-3.6509
G1 X-0.757 Y1.573 E-3.6379
G1 X-1.089 Y1.365 E-3.6249
G1 X-1.365 Y1.089 E-3.6119
G1 X-1.573 Y0.758 E-3.5989
G1 X-1.702 Y0.388 E-3.5859
G1 X-1.746 Y0.000 E-3.5729
G1 X-1.702 Y-0.388 E-3.5599
G1 X-1.573 Y-0.758 E-3.5469
G1 X-1.365 Y-1.089 E-3.5338
G1 X-1.089 Y-1.365 E-3.5208
G1 X-0.757 Y-1.573 E-3.5078
G1 X-0.388 Y-1.702 E-3.4948
G1 X0.000 Y-1.746 E-3.4818
G1 X0.388 Y-1.702 E-3.4688
G1 X0.757 Y-1.573 E-3.4558
G1 X1.089 Y-1.365 E-3.4428
G1 X1.294 Y-1.159 E-3.4332
;segType:Perimeter
G0 X0.185 Y-1.964 F4800
G1 X0.983 Y-1.904 E-3.4065 F2159
G1 X1.340 Y-1.680 E-3.3925
G1 X1.680 Y-1.340 E-3.3765
G1 X1.936 Y-0.932 E-3.3605
G1 X2.095 Y-0.478 E-3.3445
G1 X2.148 Y0.000 E-3.3285
G1 X2.094 Y0.478 E-3.3125
G1 X1.936 Y0.932 E-3.2965
G1 X1.680 Y1.340 E-3.2805
G1 X1.340 Y1.680 E-3.2645
G1 X0.932 Y1.936 E-3.2485
G1 X0.478 Y2.094 E-3.2325
G1 X0.000 Y2.148 E-3.2165
G1 X-0.478 Y2.094 E-3.2005
G1 X-0.932 Y1.936 E-3.1845
G1 X-1.340 Y1.680 E-3.1685
G1 X-1.680 Y1.340 E-3.1525
G1 X-1.936 Y0.932 E-3.1365
G1 X-2.094 Y0.478 E-3.1205
G1 X-2.148 Y0.000 E-3.1045
G1 X-2.094 Y-0.478 E-3.0885
G1 X-1.936 Y-0.932 E-3.0725
G1 X-1.680 Y-1.340 E-3.0565
G1 X-1.340 Y-1.680 E-3.0405
G1 X-0.932 Y-1.936 E-3.0245
G1 X-0.478 Y-2.094 E-3.0085
G1 X0.000 Y-2.148 E-2.9925
G1 X0.478 Y-2.095 E-2.9765
G1 X0.875 Y-1.955 E-2.9625
G0 X1.420 Y-1.369 F4800
; ------------------------------------
; Layer #27
; ------------------------------------
M106 S255 ;set fan speed
G21 ; mm
G90 ; abs
G92 E0 ;reset extr
;segType:Infill
G0 F4200 E-5.0000
G0 F1200 Z5.600
G0 X-0.972 Y0.972 F4800
G0 F4200 E-4.0000
G1 X0.972 Y-0.972 E-3.8903 F5400
G0 X1.290 Y0.476 F4800
G1 X-0.476 Y-1.290 E-3.7906 F5400
;segType:Loop
G0 X1.418 Y-1.004 F4800
G1 X1.573 Y-0.758 E-3.7809 F3600
G1 X1.702 Y-0.388 E-3.7679
G1 X1.746 Y0.000 E-3.7549
G1 X1.702 Y0.388 E-3.7419
G1 X1.573 Y0.757 E-3.7289
G1 X1.365 Y1.089 E-3.7159
G1 X1.089 Y1.365 E-3.7029
G1 X0.757 Y1.573 E-3.6899
G1 X0.388 Y1.702 E-3.6769
G1 X0.000 Y1.746 E-3.6639
G1 X-0.388 Y1.702 E-3.6509
G1 X-0.757 Y1.573 E-3.6379
G1 X-1.089 Y1.365 E-3.6249
G1 X-1.365 Y1.089 E-3.6119
G1 X-1.573 Y0.758 E-3.5989
G1 X-1.702 Y0.388 E-3.5859
G1 X-1.746 Y0.000 E-3.5729
G1 X-1.702 Y-0.388 E-3.5599
G1 X-1.573 Y-0.758 E-3.5469
G1 X-1.365 Y-1.089 E-3.5338
G1 X-1.089 Y-1.365 E-3.5208
G1 X-0.757 Y-1.573 E-3.5078
G1 X-0.388 Y-1.702 E-3.4948
G1 X0.000 Y-1.746 E-3.4818
G1 X0.388 Y-1.702 E-3.4688
G1 X0.757 Y-1.573 E-3.4558
G1 X1.089 Y-1.365 E-3.4428
G1 X1.294 Y-1.159 E-3.4332
;segType:Perimeter
G0 X0.185 Y-1.964 F4800
G1 X0.983 Y-1.904 E-3.4065 F2159
G1 X1.340 Y-1.680 E-3.3925
G1 X1.680 Y-1.340 E-3.3765
G1 X1.936 Y-0.932 E-3.3605
G1 X2.095 Y-0.478 E-3.3445
G1 X2.148 Y0.000 E-3.3285
G1 X2.094 Y0.478 E-3.3125
G1 X1.936 Y0.932 E-3.2965
G1 X1.680 Y1.340 E-3.2805
G1 X1.340 Y1.680 E-3.2645
G1 X0.932 Y1.936 E-3.2485
G1 X0.478 Y2.094 E-3.2325
G1 X0.000 Y2.148 E-3.2165
G1 X-0.478 Y2.094 E-3.2005
G1 X-0.932 Y1.936 E-3.1845
G1 X-1.340 Y1.680 E-3.1685
G1 X-1.680 Y1.340 E-3.1525
G1 X-1.936 Y0.932 E-3.1365
G1 X-2.094 Y0.478 E-3.1205
G1 X-2.148 Y0.000 E-3.1045
G1 X-2.094 Y-0.478 E-3.0885
G1 X-1.936 Y-0.932 E-3.0725
G1 X-1.680 Y-1.340 E-3.0565
G1 X-1.340 Y-1.680 E-3.0405
G1 X-0.932 Y-1.936 E-3.0245
G1 X-0.478 Y-2.094 E-3.0085
G1 X0.000 Y-2.148 E-2.9925
G1 X0.478 Y-2.095 E-2.9765
G1 X0.875 Y-1.955 E-2.9625
G0 X1.420 Y-1.369 F4800
; ------------------------------------
; Layer #28
; ------------------------------------
M106 S255 ;set fan speed
G21 ; mm
G90 ; abs
G92 E0 ;reset extr
;segType:Infill
G0 F4200 E-5.0000
G0 F1200 Z5.800
G0 X-0.972 Y0.972 F4800
G0 F4200 E-4.0000
G1 X0.972 Y-0.972 E-3.8903 F5400
G0 X1.290 Y0.476 F4800
G1 X-0.476 Y-1.290 E-3.7906 F5400
;segType:Loop
G0 X1.418 Y-1.004 F4800
G1 X1.573 Y-0.758 E-3.7809 F3600
G1 X1.702 Y-0.388 E-3.7679
G1 X1.746 Y0.000 E-3.7549
G1 X1.702 Y0.388 E-3.7419
G1 X1.573 Y0.757 E-3.7289
G1 X1.365 Y1.089 E-3.7159
G1 X1.089 Y1.365 E-3.7029
G1 X0.757 Y1.573 E-3.6899
G1 X0.388 Y1.702 E-3.6769
G1 X0.000 Y1.746 E-3.6639
G1 X-0.388 Y1.702 E-3.6509
G1 X-0.757 Y1.573 E-3.6379
G1 X-1.089 Y1.365 E-3.6249
G1 X-1.365 Y1.089 E-3.6119
G1 X-1.573 Y0.758 E-3.5989
G1 X-1.702 Y0.388 E-3.5859
G1 X-1.746 Y0.000 E-3.5729
G1 X-1.702 Y-0.388 E-3.5599
G1 X-1.573 Y-0.758 E-3.5469
G1 X-1.365 Y-1.089 E-3.5338
G1 X-1.089 Y-1.365 E-3.5208
G1 X-0.757 Y-1.573 E-3.5078
G1 X-0.388 Y-1.702 E-3.4948
G1 X0.000 Y-1.746 E-3.4818
G1 X0.388 Y-1.702 E-3.4688
G1 X0.757 Y-1.573 E-3.4558
G1 X1.089 Y-1.365 E-3.4428
G1 X1.294 Y-1.159 E-3.4332
;segType:Perimeter
G0 X0.185 Y-1.964 F4800
G1 X0.983 Y-1.904 E-3.4065 F2159
G1 X1.340 Y-1.680 E-3.3925
G1 X1.680 Y-1.340 E-3.3765
G1 X1.936 Y-0.932 E-3.3605
G1 X2.095 Y-0.478 E-3.3445
G1 X2.148 Y0.000 E-3.3285
G1 X2.094 Y0.478 E-3.3125
G1 X1.936 Y0.932 E-3.2965
G1 X1.680 Y1.340 E-3.2805
G1 X1.340 Y1.680 E-3.2645
G1 X0.932 Y1.936 E-3.2485
G1 X0.478 Y2.094 E-3.2325
G1 X0.000 Y2.148 E-3.2165
G1 X-0.478 Y2.094 E-3.2005
G1 X-0.932 Y1.936 E-3.1845
G1 X-1.340 Y1.680 E-3.1685
G1 X-1.680 Y1.340 E-3.1525
G1 X-1.936 Y0.932 E-3.1365
G1 X-2.094 Y0.478 E-3.1205
G1 X-2.148 Y0.000 E-3.1045
G1 X-2.094 Y-0.478 E-3.0885
G1 X-1.936 Y-0.932 E-3.0725
G1 X-1.680 Y-1.340 E-3.0565
G1 X-1.340 Y-1.680 E-3.0405
G1 X-0.932 Y-1.936 E-3.0245
G1 X-0.478 Y-2.094 E-3.0085
G1 X0.000 Y-2.148 E-2.9925
G1 X0.478 Y-2.095 E-2.9765
G1 X0.875 Y-1.955 E-2.9625
G0 X1.420 Y-1.369 F4800
; ------------------------------------
; Layer #29
; ------------------------------------
M106 S255 ;set fan speed
G21 ; mm
G90 ; abs
G92 E0 ;reset extr
;segType:Infill
G0 F4200 E-5.0000
G0 F1200 Z6.000
G0 X-0.972 Y0.972 F4800
G0 F4200 E-4.0000
G1 X0.972 Y-0.972 E-3.8903 F5400
G0 X1.290 Y0.476 F4800
G1 X-0.476 Y-1.290 E-3.7906 F5400
;segType:Loop
G0 X1.418 Y-1.004 F4800
G1 X1.573 Y-0.758 E-3.7809 F3600
G1 X1.702 Y-0.388 E-3.7679
G1 X1.746 Y0.000 E-3.7549
G1 X1.702 Y0.388 E-3.7419
G1 X1.573 Y0.757 E-3.7289
G1 X1.365 Y1.089 E-3.7159
G1 X1.089 Y1.365 E-3.7029
G1 X0.757 Y1.573 E-3.6899
G1 X0.388 Y1.702 E-3.6769
G1 X0.000 Y1.746 E-3.6639
G1 X-0.388 Y1.702 E-3.6509
G1 X-0.757 Y1.573 E-3.6379
G1 X-1.089 Y1.365 E-3.6249
G1 X-1.365 Y1.089 E-3.6119
G1 X-1.573 Y0.758 E-3.5989
G1 X-1.702 Y0.388 E-3.5859
G1 X-1.746 Y0.000 E-3.5729
G1 X-1.702 Y-0.388 E-3.5599
G1 X-1.573 Y-0.758 E-3.5469
G1 X-1.365 Y-1.089 E-3.5338
G1 X-1.089 Y-1.365 E-3.5208
G1 X-0.757 Y-1.573 E-3.5078
G1 X-0.388 Y-1.702 E-3.4948
G1 X0.000 Y-1.746 E-3.4818
G1 X0.388 Y-1.702 E-3.4688
G1 X0.757 Y-1.573 E-3.4558
G1 X1.089 Y-1.365 E-3.4428
G1 X1.294 Y-1.159 E-3.4332
;segType:Perimeter
G0 X0.185 Y-1.964 F4800
G1 X0.983 Y-1.904 E-3.4065 F2159
G1 X1.340 Y-1.680 E-3.3925
G1 X1.680 Y-1.340 E-3.3765
G1 X1.936 Y-0.932 E-3.3605
G1 X2.095 Y-0.478 E-3.3445
G1 X2.148 Y0.000 E-3.3285
G1 X2.094 Y0.478 E-3.3125
G1 X1.936 Y0.932 E-3.2965
G1 X1.680 Y1.340 E-3.2805
G1 X1.340 Y1.680 E-3.2645
G1 X0.932 Y1.936 E-3.2485
G1 X0.478 Y2.094 E-3.2325
G1 X0.000 Y2.148 E-3.2165
G1 X-0.478 Y2.094 E-3.2005
G1 X-0.932 Y1.936 E-3.1845
G1 X-1.340 Y1.680 E-3.1685
G1 X-1.680 Y1.340 E-3.1525
G1 X-1.936 Y0.932 E-3.1365
G1 X-2.094 Y0.478 E-3.1205
G1 X-2.148 Y0.000 E-3.1045
G1 X-2.094 Y-0.478 E-3.0885
G1 X-1.936 Y-0.932 E-3.0725
G1 X-1.680 Y-1.340 E-3.0565
G1 X-1.340 Y-1.680 E-3.0405
G1 X-0.932 Y-1.936 E-3.0245
G1 X-0.478 Y-2.094 E-3.0085
G1 X0.000 Y-2.148 E-2.9925
G1 X0.478 Y-2.095 E-2.9765
G1 X0.875 Y-1.955 E-2.9625
G0 X1.420 Y-1.369 F4800
; ------------------------------------
; Layer #30
; ------------------------------------
M106 S255 ;set fan speed
G21 ; mm
G90 ; abs
G92 E0 ;reset extr
;segType:Infill
G0 F4200 E-5.0000
G0 F1200 Z6.200
G0 X-0.972 Y0.972 F4800
G0 F4200 E-4.0000
G1 X0.972 Y-0.972 E-3.8903 F5400
G0 X1.290 Y0.476 F4800
G1 X-0.476 Y-1.290 E-3.7906 F5400
;segType:Loop
G0 X1.418 Y-1.004 F4800
G1 X1.573 Y-0.758 E-3.7809 F3600
G1 X1.702 Y-0.388 E-3.7679
G1 X1.746 Y0.000 E-3.7549
G1 X1.702 Y0.388 E-3.7419
G1 X1.573 Y0.757 E-3.7289
G1 X1.365 Y1.089 E-3.7159
G1 X1.089 Y1.365 E-3.7029
G1 X0.757 Y1.573 E-3.6899
G1 X0.388 Y1.702 E-3.6769
G1 X0.000 Y1.746 E-3.6639
G1 X-0.388 Y1.702 E-3.6509
G1 X-0.757 Y1.573 E-3.6379
G1 X-1.089 Y1.365 E-3.6249
G1 X-1.365 Y1.089 E-3.6119
G1 X-1.573 Y0.758 E-3.5989
G1 X-1.702 Y0.388 E-3.5859
G1 X-1.746 Y0.000 E-3.5729
G1 X-1.702 Y-0.388 E-3.5599
G1 X-1.573 Y-0.758 E-3.5469
G1 X-1.365 Y-1.089 E-3.5338
G1 X-1.089 Y-1.365 E-3.5208
G1 X-0.757 Y-1.573 E-3.5078
G1 X-0.388 Y-1.702 E-3.4948
G1 X0.000 Y-1.746 E-3.4818
G1 X0.388 Y-1.702 E-3.4688
G1 X0.757 Y-1.573 E-3.4558
G1 X1.089 Y-1.365 E-3.4428
G1 X1.294 Y-1.159 E-3.4332
;segType:Perimeter
G0 X0.185 Y-1.964 F4800
G1 X0.983 Y-1.904 E-3.4065 F2159
G1 X1.340 Y-1.680 E-3.3925
G1 X1.680 Y-1.340 E-3.3765
G1 X1.936 Y-0.932 E-3.3605
G1 X2.095 Y-0.478 E-3.3445
G1 X2.148 Y0.000 E-3.3285
G1 X2.094 Y0.478 E-3.3125
G1 X1.936 Y0.932 E-3.2965
G1 X1.680 Y1.340 E-3.2805
G1 X1.340 Y1.680 E-3.2645
G1 X0.932 Y1.936 E-3.2485
G1 X0.478 Y2.094 E-3.2325
G1 X0.000 Y2.148 E-3.2165
G1 X-0.478 Y2.094 E-3.2005
G1 X-0.932 Y1.936 E-3.1845
G1 X-1.340 Y1.680 E-3.1685
G1 X-1.680 Y1.340 E-3.1525
G1 X-1.936 Y0.932 E-3.1365
G1 X-2.094 Y0.478 E-3.1205
G1 X-2.148 Y0.000 E-3.1045
G1 X-2.094 Y-0.478 E-3.0885
G1 X-1.936 Y-0.932 E-3.0725
G1 X-1.680 Y-1.340 E-3.0565
G1 X-1.340 Y-1.680 E-3.0405
G1 X-0.932 Y-1.936 E-3.0245
G1 X-0.478 Y-2.094 E-3.0085
G1 X0.000 Y-2.148 E-2.9925
G1 X0.478 Y-2.095 E-2.9765
G1 X0.875 Y-1.955 E-2.9625
G0 X1.420 Y-1.369 F4800
; ------------------------------------
; Layer #31
; ------------------------------------
M106 S255 ;set fan speed
G21 ; mm
G90 ; abs
G92 E0 ;reset extr
;segType:Infill
G0 F4200 E-5.0000
G0 F1200 Z6.400
G0 X-0.972 Y0.972 F4800
G0 F4200 E-4.0000
G1 X0.972 Y-0.972 E-3.8903 F5400
G0 X1.290 Y0.476 F4800
G1 X-0.476 Y-1.290 E-3.7906 F5400
;segType:Loop
G0 X1.418 Y-1.004 F4800
G1 X1.573 Y-0.758 E-3.7809 F3600
G1 X1.702 Y-0.388 E-3.7679
G1 X1.746 Y0.000 E-3.7549
G1 X1.702 Y0.388 E-3.7419
G1 X1.573 Y0.757 E-3.7289
G1 X1.365 Y1.089 E-3.7159
G1 X1.089 Y1.365 E-3.7029
G1 X0.757 Y1.573 E-3.6899
G1 X0.388 Y1.702 E-3.6769
G1 X0.000 Y1.746 E-3.6639
G1 X-0.388 Y1.702 E-3.6509
G1 X-0.757 Y1.573 E-3.6379
G1 X-1.089 Y1.365 E-3.6249
G1 X-1.365 Y1.089 E-3.6119
G1 X-1.573 Y0.758 E-3.5989
G1 X-1.702 Y0.388 E-3.5859
G1 X-1.746 Y0.000 E-3.5729
G1 X-1.702 Y-0.388 E-3.5599
G1 X-1.573 Y-0.758 E-3.5469
G1 X-1.365 Y-1.089 E-3.5338
G1 X-1.089 Y-1.365 E-3.5208
G1 X-0.757 Y-1.573 E-3.5078
G1 X-0.388 Y-1.702 E-3.4948
G1 X0.000 Y-1.746 E-3.4818
G1 X0.388 Y-1.702 E-3.4688
G1 X0.757 Y-1.573 E-3.4558
G1 X1.089 Y-1.365 E-3.4428
G1 X1.294 Y-1.159 E-3.4332
;segType:Perimeter
G0 X0.185 Y-1.964 F4800
G1 X0.983 Y-1.904 E-3.4065 F2159
G1 X1.340 Y-1.680 E-3.3925
G1 X1.680 Y-1.340 E-3.3765
G1 X1.936 Y-0.932 E-3.3605
G1 X2.095 Y-0.478 E-3.3445
G1 X2.148 Y0.000 E-3.3285
G1 X2.094 Y0.478 E-3.3125
G1 X1.936 Y0.932 E-3.2965
G1 X1.680 Y1.340 E-3.2805
G1 X1.340 Y1.680 E-3.2645
G1 X0.932 Y1.936 E-3.2485
G1 X0.478 Y2.094 E-3.2325
G1 X0.000 Y2.148 E-3.2165
G1 X-0.478 Y2.094 E-3.2005
G1 X-0.932 Y1.936 E-3.1845
G1 X-1.340 Y1.680 E-3.1685
G1 X-1.680 Y1.340 E-3.1525
G1 X-1.936 Y0.932 E-3.1365
G1 X-2.094 Y0.478 E-3.1205
G1 X-2.148 Y0.000 E-3.1045
G1 X-2.094 Y-0.478 E-3.0885
G1 X-1.936 Y-0.932 E-3.0725
G1 X-1.680 Y-1.340 E-3.0565
G1 X-1.340 Y-1.680 E-3.0405
G1 X-0.932 Y-1.936 E-3.0245
G1 X-0.478 Y-2.094 E-3.0085
G1 X0.000 Y-2.148 E-2.9925
G1 X0.478 Y-2.095 E-2.9765
G1 X0.875 Y-1.955 E-2.9625
G0 X1.420 Y-1.369 F4800
; ------------------------------------
; Layer #32
; ------------------------------------
M106 S255 ;set fan speed
G21 ; mm
G90 ; abs
G92 E0 ;reset extr
;segType:Infill
G0 F4200 E-5.0000
G0 F1200 Z6.600
G0 X-0.972 Y0.972 F4800
G0 F4200 E-4.0000
G1 X0.972 Y-0.972 E-3.8903 F5400
G0 X1.290 Y0.476 F4800
G1 X-0.476 Y-1.290 E-3.7906 F5400
;segType:Loop
G0 X1.418 Y-1.004 F4800
G1 X1.573 Y-0.758 E-3.7809 F3600
G1 X1.702 Y-0.388 E-3.7679
G1 X1.746 Y0.000 E-3.7549
G1 X1.702 Y0.388 E-3.7419
G1 X1.573 Y0.757 E-3.7289
G1 X1.365 Y1.089 E-3.7159
G1 X1.089 Y1.365 E-3.7029
G1 X0.757 Y1.573 E-3.6899
G1 X0.388 Y1.702 E-3.6769
G1 X0.000 Y1.746 E-3.6639
G1 X-0.388 Y1.702 E-3.6509
G1 X-0.757 Y1.573 E-3.6379
G1 X-1.089 Y1.365 E-3.6249
G1 X-1.365 Y1.089 E-3.6119
G1 X-1.573 Y0.758 E-3.5989
G1 X-1.702 Y0.388 E-3.5859
G1 X-1.746 Y0.000 E-3.5729
G1 X-1.702 Y-0.388 E-3.5599
G1 X-1.573 Y-0.758 E-3.5469
G1 X-1.365 Y-1.089 E-3.5338
G1 X-1.089 Y-1.365 E-3.5208
G1 X-0.757 Y-1.573 E-3.5078
G1 X-0.388 Y-1.702 E-3.4948
G1 X0.000 Y-1.746 E-3.4818
G1 X0.388 Y-1.702 E-3.4688
G1 X0.757 Y-1.573 E-3.4558
G1 X1.089 Y-1.365 E-3.4428
G1 X1.294 Y-1.159 E-3.4332
;segType:Perimeter
G0 X0.185 Y-1.964 F4800
G1 X0.983 Y-1.904 E-3.4065 F2159
G1 X1.340 Y-1.680 E-3.3925
G1 X1.680 Y-1.340 E-3.3765
G1 X1.936 Y-0.932 E-3.3605
G1 X2.095 Y-0.478 E-3.3445
G1 X2.148 Y0.000 E-3.3285
G1 X2.094 Y0.478 E-3.3125
G1 X1.936 Y0.932 E-3.2965
G1 X1.680 Y1.340 E-3.2805
G1 X1.340 Y1.680 E-3.2645
G1 X0.932 Y1.936 E-3.2485
G1 X0.478 Y2.094 E-3.2325
G1 X0.000 Y2.148 E-3.2165
G1 X-0.478 Y2.094 E-3.2005
G1 X-0.932 Y1.936 E-3.1845
G1 X-1.340 Y1.680 E-3.1685
G1 X-1.680 Y1.340 E-3.1525
G1 X-1.936 Y0.932 E-3.1365
G1 X-2.094 Y0.478 E-3.1205
G1 X-2.148 Y0.000 E-3.1045
G1 X-2.094 Y-0.478 E-3.0885
G1 X-1.936 Y-0.932 E-3.0725
G1 X-1.680 Y-1.340 E-3.0565
G1 X-1.340 Y-1.680 E-3.0405
G1 X-0.932 Y-1.936 E-3.0245
G1 X-0.478 Y-2.094 E-3.0085
G1 X0.000 Y-2.148 E-2.9925
G1 X0.478 Y-2.095 E-2.9765
G1 X0.875 Y-1.955 E-2.9625
G0 X1.420 Y-1.369 F4800
; ------------------------------------
; Layer #33
; ------------------------------------
M106 S255 ;set fan speed
G21 ; mm
G90 ; abs
G92 E0 ;reset extr
;segType:Infill
G0 F4200 E-5.0000
G0 F1200 Z6.800
G0 X-0.972 Y0.972 F4800
G0 F4200 E-4.0000
G1 X0.972 Y-0.972 E-3.8903 F5400
G0 X1.290 Y0.476 F4800
G1 X-0.476 Y-1.290 E-3.7906 F5400
;segType:Loop
G0 X1.418 Y-1.004 F4800
G1 X1.573 Y-0.758 E-3.7809 F3600
G1 X1.702 Y-0.388 E-3.7679
G1 X1.746 Y0.000 E-3.7549
G1 X1.702 Y0.388 E-3.7419
G1 X1.573 Y0.757 E-3.7289
G1 X1.365 Y1.089 E-3.7159
G1 X1.089 Y1.365 E-3.7029
G1 X0.757 Y1.573 E-3.6899
G1 X0.388 Y1.702 E-3.6769
G1 X0.000 Y1.746 E-3.6639
G1 X-0.388 Y1.702 E-3.6509
G1 X-0.757 Y1.573 E-3.6379
G1 X-1.089 Y1.365 E-3.6249
G1 X-1.365 Y1.089 E-3.6119
G1 X-1.573 Y0.758 E-3.5989
G1 X-1.702 Y0.388 E-3.5859
G1 X-1.746 Y0.000 E-3.5729
G1 X-1.702 Y-0.388 E-3.5599
G1 X-1.573 Y-0.758 E-3.5469
G1 X-1.365 Y-1.089 E-3.5338
G1 X-1.089 Y-1.365 E-3.5208
G1 X-0.757 Y-1.573 E-3.5078
G1 X-0.388 Y-1.702 E-3.4948
G1 X0.000 Y-1.746 E-3.4818
G1 X0.388 Y-1.702 E-3.4688
G1 X0.757 Y-1.573 E-3.4558
G1 X1.089 Y-1.365 E-3.4428
G1 X1.294 Y-1.159 E-3.4332
;segType:Perimeter
G0 X0.185 Y-1.964 F4800
G1 X0.983 Y-1.904 E-3.4065 F2159
G1 X1.340 Y-1.680 E-3.3925
G1 X1.680 Y-1.340 E-3.3765
G1 X1.936 Y-0.932 E-3.3605
G1 X2.095 Y-0.478 E-3.3445
G1 X2.148 Y0.000 E-3.3285
G1 X2.094 Y0.478 E-3.3125
G1 X1.936 Y0.932 E-3.2965
G1 X1.680 Y1.340 E-3.2805
G1 X1.340 Y1.680 E-3.2645
G1 X0.932 Y1.936 E-3.2485
G1 X0.478 Y2.094 E-3.2325
G1 X0.000 Y2.148 E-3.2165
G1 X-0.478 Y2.094 E-3.2005
G1 X-0.932 Y1.936 E-3.1845
G1 X-1.340 Y1.680 E-3.1685
G1 X-1.680 Y1.340 E-3.1525
G1 X-1.936 Y0.932 E-3.1365
G1 X-2.094 Y0.478 E-3.1205
G1 X-2.148 Y0.000 E-3.1045
G1 X-2.094 Y-0.478 E-3.0885
G1 X-1.936 Y-0.932 E-3.0725
G1 X-1.680 Y-1.340 E-3.0565
G1 X-1.340 Y-1.680 E-3.0405
G1 X-0.932 Y-1.936 E-3.0245
G1 X-0.478 Y-2.094 E-3.0085
G1 X0.000 Y-2.148 E-2.9925
G1 X0.478 Y-2.095 E-2.9765
G1 X0.875 Y-1.955 E-2.9625
G0 X1.420 Y-1.369 F4800
; ------------------------------------
; Layer #34
; ------------------------------------
M106 S255 ;set fan speed
G21 ; mm
G90 ; abs
G92 E0 ;reset extr
;segType:Infill
G0 F4200 E-5.0000
G0 F1200 Z7.000
G0 X-0.972 Y0.972 F4800
G0 F4200 E-4.0000
G1 X0.972 Y-0.972 E-3.8903 F5400
G0 X1.290 Y0.476 F4800
G1 X-0.476 Y-1.290 E-3.7906 F5400
;segType:Loop
G0 X1.418 Y-1.004 F4800
G1 X1.573 Y-0.758 E-3.7809 F3600
G1 X1.702 Y-0.388 E-3.7679
G1 X1.746 Y0.000 E-3.7549
G1 X1.702 Y0.388 E-3.7419
G1 X1.573 Y0.757 E-3.7289
G1 X1.365 Y1.089 E-3.7159
G1 X1.089 Y1.365 E-3.7029
G1 X0.757 Y1.573 E-3.6899
G1 X0.388 Y1.702 E-3.6769
G1 X0.000 Y1.746 E-3.6639
G1 X-0.388 Y1.702 E-3.6509
G1 X-0.757 Y1.573 E-3.6379
G1 X-1.089 Y1.365 E-3.6249
G1 X-1.365 Y1.089 E-3.6119
G1 X-1.573 Y0.758 E-3.5989
G1 X-1.702 Y0.388 E-3.5859
G1 X-1.746 Y0.000 E-3.5729
G1 X-1.702 Y-0.388 E-3.5599
G1 X-1.573 Y-0.758 E-3.5469
G1 X-1.365 Y-1.089 E-3.5338
G1 X-1.089 Y-1.365 E-3.5208
G1 X-0.757 Y-1.573 E-3.5078
G1 X-0.388 Y-1.702 E-3.4948
G1 X0.000 Y-1.746 E-3.4818
G1 X0.388 Y-1.702 E-3.4688
G1 X0.757 Y-1.573 E-3.4558
G1 X1.089 Y-1.365 E-3.4428
G1 X1.294 Y-1.159 E-3.4332
;segType:Perimeter
G0 X0.185 Y-1.964 F4800
G1 X0.983 Y-1.904 E-3.4065 F2159
G1 X1.340 Y-1.680 E-3.3925
G1 X1.680 Y-1.340 E-3.3765
G1 X1.936 Y-0.932 E-3.3605
G1 X2.095 Y-0.478 E-3.3445
G1 X2.148 Y0.000 E-3.3285
G1 X2.094 Y0.478 E-3.3125
G1 X1.936 Y0.932 E-3.2965
G1 X1.680 Y1.340 E-3.2805
G1 X1.340 Y1.680 E-3.2645
G1 X0.932 Y1.936 E-3.2485
G1 X0.478 Y2.094 E-3.2325
G1 X0.000 Y2.148 E-3.2165
G1 X-0.478 Y2.094 E-3.2005
G1 X-0.932 Y1.936 E-3.1845
G1 X-1.340 Y1.680 E-3.1685
G1 X-1.680 Y1.340 E-3.1525
G1 X-1.936 Y0.932 E-3.1365
G1 X-2.094 Y0.478 E-3.1205
G1 X-2.148 Y0.000 E-3.1045
G1 X-2.094 Y-0.478 E-3.0885
G1 X-1.936 Y-0.932 E-3.0725
G1 X-1.680 Y-1.340 E-3.0565
G1 X-1.340 Y-1.680 E-3.0405
G1 X-0.932 Y-1.936 E-3.0245
G1 X-0.478 Y-2.094 E-3.0085
G1 X0.000 Y-2.148 E-2.9925
G1 X0.478 Y-2.095 E-2.9765
G1 X0.875 Y-1.955 E-2.9625
G0 X1.420 Y-1.369 F4800
; ------------------------------------
; Layer #35
; ------------------------------------
M106 S255 ;set fan speed
G21 ; mm
G90 ; abs
G92 E0 ;reset extr
;segType:Infill
G0 F4200 E-5.0000
G0 F1200 Z7.200
G0 X-0.972 Y0.972 F4800
G0 F4200 E-4.0000
G1 X0.972 Y-0.972 E-3.8903 F5400
G0 X1.290 Y0.476 F4800
G1 X-0.476 Y-1.290 E-3.7906 F5400
;segType:Loop
G0 X1.418 Y-1.004 F4800
G1 X1.573 Y-0.758 E-3.7809 F3600
G1 X1.702 Y-0.388 E-3.7679
G1 X1.746 Y0.000 E-3.7549
G1 X1.702 Y0.388 E-3.7419
G1 X1.573 Y0.757 E-3.7289
G1 X1.365 Y1.089 E-3.7159
G1 X1.089 Y1.365 E-3.7029
G1 X0.757 Y1.573 E-3.6899
G1 X0.388 Y1.702 E-3.6769
G1 X0.000 Y1.746 E-3.6639
G1 X-0.388 Y1.702 E-3.6509
G1 X-0.757 Y1.573 E-3.6379
G1 X-1.089 Y1.365 E-3.6249
G1 X-1.365 Y1.089 E-3.6119
G1 X-1.573 Y0.758 E-3.5989
G1 X-1.702 Y0.388 E-3.5859
G1 X-1.746 Y0.000 E-3.5729
G1 X-1.702 Y-0.388 E-3.5599
G1 X-1.573 Y-0.758 E-3.5469
G1 X-1.365 Y-1.089 E-3.5338
G1 X-1.089 Y-1.365 E-3.5208
G1 X-0.757 Y-1.573 E-3.5078
G1 X-0.388 Y-1.702 E-3.4948
G1 X0.000 Y-1.746 E-3.4818
G1 X0.388 Y-1.702 E-3.4688
G1 X0.757 Y-1.573 E-3.4558
G1 X1.089 Y-1.365 E-3.4428
G1 X1.294 Y-1.159 E-3.4332
;segType:Perimeter
G0 X0.185 Y-1.964 F4800
G1 X0.983 Y-1.904 E-3.4065 F2159
G1 X1.340 Y-1.680 E-3.3925
G1 X1.680 Y-1.340 E-3.3765
G1 X1.936 Y-0.932 E-3.3605
G1 X2.095 Y-0.478 E-3.3445
G1 X2.148 Y0.000 E-3.3285
G1 X2.094 Y0.478 E-3.3125
G1 X1.936 Y0.932 E-3.2965
G1 X1.680 Y1.340 E-3.2805
G1 X1.340 Y1.680 E-3.2645
G1 X0.932 Y1.936 E-3.2485
G1 X0.478 Y2.094 E-3.2325
G1 X0.000 Y2.148 E-3.2165
G1 X-0.478 Y2.094 E-3.2005
G1 X-0.932 Y1.936 E-3.1845
G1 X-1.340 Y1.680 E-3.1685
G1 X-1.680 Y1.340 E-3.1525
G1 X-1.936 Y0.932 E-3.1365
G1 X-2.094 Y0.478 E-3.1205
G1 X-2.148 Y0.000 E-3.1045
G1 X-2.094 Y-0.478 E-3.0885
G1 X-1.936 Y-0.932 E-3.0725
G1 X-1.680 Y-1.340 E-3.0565
G1 X-1.340 Y-1.680 E-3.0405
G1 X-0.932 Y-1.936 E-3.0245
G1 X-0.478 Y-2.094 E-3.0085
G1 X0.000 Y-2.148 E-2.9925
G1 X0.478 Y-2.095 E-2.9765
G1 X0.875 Y-1.955 E-2.9625
G0 X1.420 Y-1.369 F4800
; ------------------------------------
; Layer #36
; ------------------------------------
M106 S255 ;set fan speed
G21 ; mm
G90 ; abs
G92 E0 ;reset extr
;segType:Infill
G0 F4200 E-5.0000
G0 F1200 Z7.400
G0 X-0.968 Y0.968 F4800
G0 F4200 E-4.0000
G1 X0.968 Y-0.968 E-3.8907 F5400
G0 X1.286 Y0.472 F4800
G1 X-0.471 Y-1.285 E-3.7916 F5400
;segType:Loop
G0 X1.418 Y-1.004 F4800
G1 X1.573 Y-0.758 E-3.7819 F3600
G1 X1.702 Y-0.388 E-3.7689
G1 X1.746 Y0.000 E-3.7559
G1 X1.702 Y0.388 E-3.7429
G1 X1.573 Y0.757 E-3.7299
G1 X1.365 Y1.089 E-3.7169
G1 X1.089 Y1.365 E-3.7039
G1 X0.757 Y1.573 E-3.6909
G1 X0.388 Y1.702 E-3.6779
G1 X0.000 Y1.746 E-3.6649
G1 X-0.388 Y1.702 E-3.6519
G1 X-0.757 Y1.573 E-3.6389
G1 X-1.089 Y1.365 E-3.6259
G1 X-1.365 Y1.089 E-3.6129
G1 X-1.573 Y0.758 E-3.5999
G1 X-1.702 Y0.388 E-3.5869
G1 X-1.746 Y0.000 E-3.5739
G1 X-1.702 Y-0.388 E-3.5609
G1 X-1.573 Y-0.758 E-3.5479
G1 X-1.365 Y-1.089 E-3.5349
G1 X-1.089 Y-1.365 E-3.5219
G1 X-0.757 Y-1.573 E-3.5089
G1 X-0.388 Y-1.702 E-3.4959
G1 X0.000 Y-1.746 E-3.4829
G1 X0.388 Y-1.702 E-3.4699
G1 X0.757 Y-1.573 E-3.4568
G1 X1.089 Y-1.365 E-3.4438
G1 X1.294 Y-1.159 E-3.4342
;segType:Perimeter
G0 X0.185 Y-1.964 F4800
G1 X0.983 Y-1.904 E-3.4076 F2159
G1 X1.340 Y-1.680 E-3.3936
G1 X1.680 Y-1.340 E-3.3776
G1 X1.936 Y-0.932 E-3.3616
G1 X2.095 Y-0.478 E-3.3456
G1 X2.148 Y0.000 E-3.3296
G1 X2.094 Y0.478 E-3.3136
G1 X1.936 Y0.932 E-3.2975
G1 X1.680 Y1.340 E-3.2815
G1 X1.340 Y1.680 E-3.2655
G1 X0.932 Y1.936 E-3.2495
G1 X0.478 Y2.094 E-3.2335
G1 X0.000 Y2.148 E-3.2175
G1 X-0.478 Y2.094 E-3.2015
G1 X-0.932 Y1.936 E-3.1855
G1 X-1.340 Y1.680 E-3.1695
G1 X-1.680 Y1.340 E-3.1535
G1 X-1.936 Y0.932 E-3.1375
G1 X-2.094 Y0.478 E-3.1215
G1 X-2.148 Y0.000 E-3.1055
G1 X-2.094 Y-0.478 E-3.0895
G1 X-1.936 Y-0.932 E-3.0735
G1 X-1.680 Y-1.340 E-3.0575
G1 X-1.340 Y-1.680 E-3.0415
G1 X-0.932 Y-1.936 E-3.0255
G1 X-0.478 Y-2.094 E-3.0095
G1 X0.000 Y-2.148 E-2.9935
G1 X0.478 Y-2.095 E-2.9775
G1 X0.875 Y-1.955 E-2.9635
G0 X1.420 Y-1.369 F4800
; ------------------------------------
; Layer #37
; ------------------------------------
M106 S255 ;set fan speed
G21 ; mm
G90 ; abs
G92 E0 ;reset extr
;segType:Infill
G0 F4200 E-5.0000
G0 F1200 Z7.600
G0 X-0.968 Y0.968 F4800
G0 F4200 E-4.0000
G1 X0.968 Y-0.968 E-3.8907 F5400
G0 X1.286 Y0.472 F4800
G1 X-0.471 Y-1.285 E-3.7916 F5400
;segType:Loop
G0 X1.418 Y-1.004 F4800
G1 X1.573 Y-0.758 E-3.7819 F3600
G1 X1.702 Y-0.388 E-3.7689
G1 X1.746 Y0.000 E-3.7559
G1 X1.702 Y0.388 E-3.7429
G1 X1.573 Y0.757 E-3.7299
G1 X1.365 Y1.089 E-3.7169
G1 X1.089 Y1.365 E-3.7039
G1 X0.757 Y1.573 E-3.6909
G1 X0.388 Y1.702 E-3.6779
G1 X0.000 Y1.746 E-3.6649
G1 X-0.388 Y1.702 E-3.6519
G1 X-0.757 Y1.573 E-3.6389
G1 X-1.089 Y1.365 E-3.6259
G1 X-1.365 Y1.089 E-3.6129
G1 X-1.573 Y0.758 E-3.5999
G1 X-1.702 Y0.388 E-3.5869
G1 X-1.746 Y0.000 E-3.5739
G1 X-1.702 Y-0.388 E-3.5609
G1 X-1.573 Y-0.758 E-3.5479
G1 X-1.365 Y-1.089 E-3.5349
G1 X-1.089 Y-1.365 E-3.5219
G1 X-0.757 Y-1.573 E-3.5089
G1 X-0.388 Y-1.702 E-3.4959
G1 X0.000 Y-1.746 E-3.4829
G1 X0.388 Y-1.702 E-3.4699
G1 X0.757 Y-1.573 E-3.4568
G1 X1.089 Y-1.365 E-3.4438
G1 X1.294 Y-1.159 E-3.4342
;segType:Perimeter
G0 X0.185 Y-1.964 F4800
G1 X0.983 Y-1.904 E-3.4076 F2159
G1 X1.340 Y-1.680 E-3.3936
G1 X1.680 Y-1.340 E-3.3776
G1 X1.936 Y-0.932 E-3.3616
G1 X2.095 Y-0.478 E-3.3456
G1 X2.148 Y0.000 E-3.3296
G1 X2.094 Y0.478 E-3.3136
G1 X1.936 Y0.932 E-3.2976
G1 X1.680 Y1.340 E-3.2816
G1 X1.340 Y1.680 E-3.2656
G1 X0.932 Y1.936 E-3.2496
G1 X0.478 Y2.094 E-3.2335
G1 X0.000 Y2.148 E-3.2175
G1 X-0.478 Y2.094 E-3.2015
G1 X-0.932 Y1.936 E-3.1855
G1 X-1.340 Y1.680 E-3.1695
G1 X-1.680 Y1.340 E-3.1535
G1 X-1.936 Y0.932 E-3.1375
G1 X-2.094 Y0.478 E-3.1215
G1 X-2.148 Y0.000 E-3.1055
G1 X-2.094 Y-0.478 E-3.0895
G1 X-1.936 Y-0.932 E-3.0735
G1 X-1.680 Y-1.340 E-3.0575
G1 X-1.340 Y-1.680 E-3.0415
G1 X-0.932 Y-1.936 E-3.0255
G1 X-0.478 Y-2.094 E-3.0095
G1 X0.000 Y-2.148 E-2.9935
G1 X0.478 Y-2.095 E-2.9775
G1 X0.875 Y-1.955 E-2.9635
G0 X1.420 Y-1.369 F4800
; ------------------------------------
; Layer #38
; ------------------------------------
M106 S255 ;set fan speed
G21 ; mm
G90 ; abs
G92 E0 ;reset extr
;segType:Infill
G0 F4200 E-5.0000
G0 F1200 Z7.800
G0 X-0.968 Y0.968 F4800
G0 F4200 E-4.0000
G1 X0.968 Y-0.968 E-3.8907 F5400
G0 X1.286 Y0.472 F4800
G1 X-0.471 Y-1.285 E-3.7916 F5400
;segType:Loop
G0 X1.418 Y-1.004 F4800
G1 X1.573 Y-0.758 E-3.7819 F3600
G1 X1.702 Y-0.388 E-3.7689
G1 X1.746 Y0.000 E-3.7559
G1 X1.702 Y0.388 E-3.7429
G1 X1.573 Y0.757 E-3.7299
G1 X1.365 Y1.089 E-3.7169
G1 X1.089 Y1.365 E-3.7039
G1 X0.757 Y1.573 E-3.6909
G1 X0.388 Y1.702 E-3.6779
G1 X0.000 Y1.746 E-3.6649
G1 X-0.388 Y1.702 E-3.6519
G1 X-0.757 Y1.573 E-3.6389
G1 X-1.089 Y1.365 E-3.6259
G1 X-1.365 Y1.089 E-3.6129
G1 X-1.573 Y0.758 E-3.5999
G1 X-1.702 Y0.388 E-3.5869
G1 X-1.746 Y0.000 E-3.5739
G1 X-1.702 Y-0.388 E-3.5609
G1 X-1.573 Y-0.758 E-3.5479
G1 X-1.365 Y-1.089 E-3.5349
G1 X-1.089 Y-1.365 E-3.5219
G1 X-0.757 Y-1.573 E-3.5089
G1 X-0.388 Y-1.702 E-3.4959
G1 X0.000 Y-1.746 E-3.4829
G1 X0.388 Y-1.702 E-3.4699
G1 X0.757 Y-1.573 E-3.4568
G1 X1.089 Y-1.365 E-3.4438
G1 X1.294 Y-1.159 E-3.4342
;segType:Perimeter
G0 X0.185 Y-1.964 F4800
G1 X0.983 Y-1.904 E-3.4076 F2159
G1 X1.340 Y-1.680 E-3.3936
G1 X1.680 Y-1.340 E-3.3776
G1 X1.936 Y-0.932 E-3.3616
G1 X2.095 Y-0.478 E-3.3456
G1 X2.148 Y0.000 E-3.3296
G1 X2.094 Y0.478 E-3.3136
G1 X1.936 Y0.932 E-3.2976
G1 X1.680 Y1.340 E-3.2816
G1 X1.340 Y1.680 E-3.2656
G1 X0.932 Y1.936 E-3.2496
G1 X0.478 Y2.094 E-3.2335
G1 X0.000 Y2.148 E-3.2175
G1 X-0.478 Y2.094 E-3.2015
G1 X-0.932 Y1.936 E-3.1855
G1 X-1.340 Y1.680 E-3.1695
G1 X-1.680 Y1.340 E-3.1535
G1 X-1.936 Y0.932 E-3.1375
G1 X-2.094 Y0.478 E-3.1215
G1 X-2.148 Y0.000 E-3.1055
G1 X-2.094 Y-0.478 E-3.0895
G1 X-1.936 Y-0.932 E-3.0735
G1 X-1.680 Y-1.340 E-3.0575
G1 X-1.340 Y-1.680 E-3.0415
G1 X-0.932 Y-1.936 E-3.0255
G1 X-0.478 Y-2.094 E-3.0095
G1 X0.000 Y-2.148 E-2.9935
G1 X0.478 Y-2.095 E-2.9775
G1 X0.875 Y-1.955 E-2.9635
G0 X1.420 Y-1.369 F4800
; ------------------------------------
; Layer #39
; ------------------------------------
M106 S255 ;set fan speed
G21 ; mm
G90 ; abs
G92 E0 ;reset extr
;segType:Infill
G0 F4200 E-5.0000
G0 F1200 Z8.000
G0 X-0.968 Y0.968 F4800
G0 F4200 E-4.0000
G1 X0.968 Y-0.968 E-3.8907 F5400
G0 X1.286 Y0.472 F4800
G1 X-0.471 Y-1.285 E-3.7916 F5400
;segType:Loop
G0 X1.418 Y-1.004 F4800
G1 X1.573 Y-0.758 E-3.7819 F3600
G1 X1.702 Y-0.388 E-3.7689
G1 X1.746 Y0.000 E-3.7559
G1 X1.702 Y0.388 E-3.7429
G1 X1.573 Y0.757 E-3.7299
G1 X1.365 Y1.089 E-3.7169
G1 X1.089 Y1.365 E-3.7039
G1 X0.757 Y1.573 E-3.6909
G1 X0.388 Y1.702 E-3.6779
G1 X0.000 Y1.746 E-3.6649
G1 X-0.388 Y1.702 E-3.6519
G1 X-0.757 Y1.573 E-3.6389
G1 X-1.089 Y1.365 E-3.6259
G1 X-1.365 Y1.089 E-3.6129
G1 X-1.573 Y0.758 E-3.5999
G1 X-1.702 Y0.388 E-3.5869
G1 X-1.746 Y0.000 E-3.5739
G1 X-1.702 Y-0.388 E-3.5609
G1 X-1.573 Y-0.758 E-3.5479
G1 X-1.365 Y-1.089 E-3.5349
G1 X-1.089 Y-1.365 E-3.5219
G1 X-0.757 Y-1.573 E-3.5089
G1 X-0.388 Y-1.702 E-3.4959
G1 X0.000 Y-1.746 E-3.4829
G1 X0.388 Y-1.702 E-3.4698
G1 X0.757 Y-1.573 E-3.4568
G1 X1.089 Y-1.365 E-3.4438
G1 X1.294 Y-1.159 E-3.4342
;segType:Perimeter
G0 X0.185 Y-1.964 F4800
G1 X0.983 Y-1.904 E-3.4076 F2159
G1 X1.340 Y-1.680 E-3.3936
G1 X1.680 Y-1.340 E-3.3776
G1 X1.936 Y-0.932 E-3.3616
G1 X2.095 Y-0.478 E-3.3456
G1 X2.148 Y0.000 E-3.3296
G1 X2.094 Y0.478 E-3.3136
G1 X1.936 Y0.932 E-3.2975
G1 X1.680 Y1.340 E-3.2815
G1 X1.340 Y1.680 E-3.2655
G1 X0.932 Y1.936 E-3.2495
G1 X0.478 Y2.094 E-3.2335
G1 X0.000 Y2.148 E-3.2175
G1 X-0.478 Y2.094 E-3.2015
G1 X-0.932 Y1.936 E-3.1855
G1 X-1.340 Y1.680 E-3.1695
G1 X-1.680 Y1.340 E-3.1535
G1 X-1.936 Y0.932 E-3.1375
G1 X-2.094 Y0.478 E-3.1215
G1 X-2.148 Y0.000 E-3.1055
G1 X-2.094 Y-0.478 E-3.0895
G1 X-1.936 Y-0.932 E-3.0735
G1 X-1.680 Y-1.340 E-3.0575
G1 X-1.340 Y-1.680 E-3.0415
G1 X-0.932 Y-1.936 E-3.0255
G1 X-0.478 Y-2.094 E-3.0095
G1 X0.000 Y-2.148 E-2.9935
G1 X0.478 Y-2.095 E-2.9775
G1 X0.875 Y-1.955 E-2.9635
G0 X1.420 Y-1.369 F4800
; ------------------------------------
; Layer #40
; ------------------------------------
M106 S255 ;set fan speed
G21 ; mm
G90 ; abs
G92 E0 ;reset extr
;segType:Infill
G0 F4200 E-5.0000
G0 F1200 Z8.200
G0 X-0.968 Y0.968 F4800
G0 F4200 E-4.0000
G1 X0.968 Y-0.968 E-3.8907 F5400
G0 X1.286 Y0.472 F4800
G1 X-0.471 Y-1.285 E-3.7916 F5400
;segType:Loop
G0 X1.384 Y-1.040 F4800
G1 X1.545 Y-0.799 E-3.7820 F3600
G1 X1.684 Y-0.436 E-3.7690
G1 X1.738 Y-0.050 E-3.7561
G1 X1.706 Y0.338 E-3.7431
G1 X1.588 Y0.709 E-3.7302
G1 X1.390 Y1.045 E-3.7172
G1 X1.123 Y1.328 E-3.7042
G1 X0.799 Y1.545 E-3.6913
G1 X0.436 Y1.684 E-3.6783
G1 X0.050 Y1.738 E-3.6654
G1 X-0.338 Y1.706 E-3.6524
G1 X-0.709 Y1.588 E-3.6395
G1 X-1.045 Y1.390 E-3.6265
G1 X-1.328 Y1.123 E-3.6136
G1 X-1.545 Y0.799 E-3.6006
G1 X-1.684 Y0.436 E-3.5877
G1 X-1.738 Y0.050 E-3.5747
G1 X-1.706 Y-0.338 E-3.5618
G1 X-1.588 Y-0.709 E-3.5488
G1 X-1.390 Y-1.045 E-3.5359
G1 X-1.123 Y-1.328 E-3.5229
G1 X-0.799 Y-1.545 E-3.5099
G1 X-0.436 Y-1.684 E-3.4970
G1 X-0.050 Y-1.738 E-3.4840
G1 X0.338 Y-1.706 E-3.4711
G1 X0.709 Y-1.588 E-3.4581
G1 X1.045 Y-1.390 E-3.4452
G1 X1.255 Y-1.192 E-3.4356
;segType:Perimeter
G0 X0.126 Y-1.962 F4800
G1 X0.925 Y-1.925 E-3.4089 F2159
G1 X1.287 Y-1.712 E-3.3950
G1 X1.636 Y-1.383 E-3.3790
G1 X1.902 Y-0.984 E-3.3631
G1 X2.073 Y-0.536 E-3.3471
G1 X2.141 Y-0.062 E-3.3312
G1 X2.101 Y0.416 E-3.3152
G1 X1.956 Y0.874 E-3.2993
G1 X1.712 Y1.287 E-3.2833
G1 X1.383 Y1.636 E-3.2674
G1 X0.984 Y1.902 E-3.2514
G1 X0.536 Y2.073 E-3.2355
G1 X0.062 Y2.141 E-3.2195
G1 X-0.416 Y2.101 E-3.2036
G1 X-0.874 Y1.956 E-3.1876
G1 X-1.287 Y1.712 E-3.1717
G1 X-1.636 Y1.383 E-3.1557
G1 X-1.902 Y0.984 E-3.1398
G1 X-2.073 Y0.536 E-3.1238
G1 X-2.141 Y0.062 E-3.1079
G1 X-2.101 Y-0.416 E-3.0919
G1 X-1.956 Y-0.874 E-3.0760
G1 X-1.712 Y-1.287 E-3.0600
G1 X-1.383 Y-1.636 E-3.0441
G1 X-0.984 Y-1.902 E-3.0281
G1 X-0.536 Y-2.073 E-3.0122
G1 X-0.062 Y-2.141 E-2.9962
G1 X0.416 Y-2.101 E-2.9803
G1 X0.816 Y-1.974 E-2.9663
