; GCode generated by CraftWare

G28 X0 Y0
G28 Z0

M104 S205 ;set head temp (no wait)
M190 S60 ;set bed temp (wait)
M109 S205 ;set head temp (wait); startup extrude
G21
G90
G92E0
G1E5F100
G92E0


; ------------------------------------
; Layer #0
; ------------------------------------
M106 S0 ;turn off fan
G21 ; mm
G90 ; abs
G92 E0 ;reset extr
G0 F4800 Z0.600
;segType:Skirt
G0 F4200 E-7.0000
G0 F4800 Z1.600
G0 X-101.921 Y26.706
G0 Z0.600
G0 F4200 E0.0000
G1 X101.789 Y26.706 E5.3795 F1800
G1 X107.839 Y20.656 E5.6055
G1 X107.904 Y20.196 E5.6177
G1 X107.904 Y-7.684 E6.3540
G1 X107.839 Y-8.144 E6.3663
G1 X101.921 Y-14.062 E6.5873
G1 X7.759 Y-14.062 E9.0739
G1 X7.562 Y-14.128 E9.0794
G1 X7.562 Y-20.704 E9.2530
G1 X1.775 Y-26.490 E9.4692
G1 X1.447 Y-26.687 E9.4793
G1 X-14.861 Y-26.687 E9.9099
G1 X-15.321 Y-26.622 E9.9222
G1 X-21.239 Y-20.704 E10.1432
G1 X-21.239 Y-14.128 E10.3168
G1 X-21.699 Y-14.062 E10.3291
G1 X-101.658 Y-14.062 E12.4407
G1 X-102.118 Y-13.997 E12.4529
G1 X-108.036 Y-8.079 E12.6739
G1 X-108.036 Y20.591 E13.4310
G1 X-101.921 Y26.706 E13.6594
G0 F4200 E6.6594
G0 F4800 Z1.600
G0 X-85.017 Y19.696
G0 X-82.603 Y18.695
G0 X-80.188 Y17.693
G0 X-2.916 Y-14.350
G0 Z0.600
G0 F4200 E13.6594
;segType:Loop
G1 X-2.916 Y-5.602 E13.9492 F1800
G1 X61.286 Y-5.602 E16.0760
G1 X61.352 Y-5.512 E16.0797
G1 X61.352 Y2.398 E16.3417
G1 X65.148 Y2.398 E16.4675
G1 X65.148 Y-5.512 E16.7295
G1 X65.171 Y-5.601 E16.7326
G1 X99.352 Y-5.565 E17.8648
G1 X99.352 Y6.563 E18.2666
G1 X59.352 Y8.119 E19.5927
G1 X59.352 Y11.898 E19.7179
G1 X99.352 Y11.898 E21.0429
G1 X99.352 Y18.082 E21.2477
G1 X98.604 Y18.102 E21.2725
G1 X-99.286 Y18.102 E27.8278
G1 X-99.352 Y18.031 E27.8310
G1 X-99.352 Y-5.512 E28.6109
G1 X-99.286 Y-5.602 E28.6146
G1 X-10.620 Y-5.602 E31.5518
G1 X-10.620 Y-15.898 E31.8929
G1 X-12.543 Y-15.898 E31.9566
G1 X-12.619 Y-15.912 E31.9592
G1 X-12.619 Y-18.102 E32.0317
G1 X-0.916 Y-18.102 E32.4194
G1 X-0.916 Y-15.898 E32.4924
G1 X-2.916 Y-15.898 E32.5586
G1 X-2.916 Y-14.550 E32.5988
;segType:Perimeter
G0 X-2.468 Y-15.590 F4800
G1 X-2.468 Y-15.390 E32.6047 F900
G1 X-2.468 Y-6.050 E32.8810
G1 X61.718 Y-6.050 E34.7794
G1 X61.800 Y-6.044 E34.7819
G1 X61.800 Y1.950 E35.0183
G1 X64.700 Y1.950 E35.1041
G1 X64.700 Y-6.041 E35.3405
G1 X64.860 Y-6.050 E35.3452
G1 X99.800 Y-6.013 E36.3786
G1 X99.800 Y8.545 E36.8092
G1 X99.686 Y8.550 E36.8126
G1 X59.800 Y8.550 E37.9923
G1 X59.800 Y11.450 E38.0781
G1 X99.800 Y11.450 E39.2611
G1 X99.800 Y18.518 E39.4702
G1 X98.610 Y18.550 E39.5054
G1 X-99.443 Y18.550 E45.3632
G1 X-99.800 Y18.526 E45.3737
G1 X-99.800 Y-6.025 E46.0999
G1 X-99.404 Y-6.050 E46.1116
G1 X-11.068 Y-6.050 E48.7243
G1 X-11.068 Y-15.450 E49.0023
G1 X-13.000 Y-15.450 E49.0595
G1 X-13.068 Y-15.455 E49.0615
G1 X-13.068 Y-18.550 E49.1530
G1 X-0.468 Y-18.550 E49.5257
G1 X-0.468 Y-15.450 E49.6173
G1 X-2.408 Y-15.450 E49.6747
G0 X-2.608 Y-15.450 F4800
G0 X-2.916 Y-15.288
G0 X-10.620 Y-11.236
G0 X-10.620 Y-11.236
G0 X-10.620 Y-5.602
G0 X-21.329 Y-5.602
G0 X-21.329 Y-5.602
G0 X-28.368 Y-1.899
G0 X-28.368 Y-1.899
G0 X-28.380 Y-1.892
;segType:Loop
G0 X-28.368 Y-1.899
G1 X-13.619 Y-1.899 E50.1633 F1800
G1 X-13.619 Y4.898 E50.3885
G1 X-29.916 Y4.898 E50.9283
G1 X-29.916 Y-1.899 E51.1535
G1 X-28.568 Y-1.899 E51.1937
;segType:Perimeter
G0 X-29.608 Y-1.451 F4800
G1 X-29.408 Y-1.451 E51.1996 F900
G1 X-14.067 Y-1.451 E51.6533
G1 X-14.067 Y4.450 E51.8279
G1 X-29.468 Y4.450 E52.2834
G1 X-29.468 Y-1.391 E52.4561
G0 X-29.468 Y-1.591 F4800
G0 X-28.692 Y4.898
G0 X-28.368 Y7.602
G0 X-28.368 Y7.602
G0 X-28.367 Y7.615
;segType:Loop
G0 X-28.368 Y7.602
G1 X-13.619 Y7.602 E52.9447 F1800
G1 X-13.619 Y14.398 E53.1699
G1 X-29.916 Y14.398 E53.7097
G1 X-29.916 Y7.602 E53.9349
G1 X-28.568 Y7.602 E53.9751
;segType:Perimeter
G0 X-29.408 Y8.050 F4800
G1 X-14.067 Y8.050 E54.4288 F900
G1 X-14.067 Y13.950 E54.6033
G1 X-29.468 Y13.950 E55.0588
G1 X-29.468 Y8.110 E55.2316
G0 X-29.468 Y7.910 F4800
;segType:Loop
G0 X-39.080 Y7.778
G1 X-38.519 Y8.750 E55.2688 F1800
G1 X-39.760 Y10.899 E55.3510
G1 X-42.240 Y10.899 E55.4331
G1 X-43.481 Y8.750 E55.5153
G1 X-42.240 Y6.602 E55.5975
G1 X-39.760 Y6.602 E55.6797
G1 X-39.180 Y7.605 E55.7180
;segType:Perimeter
G0 X-40.088 Y6.928 F4800
G1 X-39.988 Y7.102 E55.7240 F900
G1 X-39.037 Y8.750 E55.7803
G1 X-40.018 Y10.451 E55.8383
G1 X-41.982 Y10.451 E55.8964
G1 X-42.964 Y8.750 E55.9545
G1 X-41.982 Y7.050 E56.0126
G1 X-40.078 Y7.050 E56.0689
G0 X-39.878 Y7.050 F4800
;segType:Loop
G0 X-47.737 Y4.852
G1 X-46.904 Y4.852 E56.0965 F1800
G1 X-45.808 Y6.750 E56.1691
G1 X-46.904 Y8.648 E56.2417
G1 X-49.096 Y8.648 E56.3143
G1 X-50.192 Y6.750 E56.3869
G1 X-49.096 Y4.852 E56.4595
G1 X-47.937 Y4.852 E56.4979
;segType:Perimeter
G0 X-48.977 Y5.300 F4800
G1 X-48.777 Y5.300 E56.5038 F900
G1 X-47.163 Y5.300 E56.5516
G1 X-46.325 Y6.750 E56.6011
G1 X-47.163 Y8.200 E56.6507
G1 X-48.838 Y8.200 E56.7002
G1 X-49.675 Y6.750 E56.7497
G1 X-48.867 Y5.352 E56.7975
G0 X-48.768 Y5.178 F4800
;segType:Loop
G0 X-54.575 Y3.111
G1 X-54.040 Y3.116 E56.8152 F1800
G1 X-53.097 Y4.750 E56.8777
G1 X-54.048 Y6.398 E56.9408
G1 X-55.952 Y6.398 E57.0038
G1 X-56.656 Y5.178 E57.0505
G1 X-56.884 Y4.710 E57.0677
G1 X-55.934 Y3.098 E57.1297
G1 X-54.775 Y3.109 E57.1681
;segType:Perimeter
G0 X-55.819 Y3.547 F4800
G1 X-55.619 Y3.549 E57.1740 F900
G1 X-54.300 Y3.561 E57.2130
G1 X-53.614 Y4.750 E57.2536
G1 X-54.307 Y5.950 E57.2946
G1 X-55.693 Y5.950 E57.3356
G1 X-56.260 Y4.968 E57.3692
G1 X-56.376 Y4.730 E57.3770
G1 X-55.710 Y3.600 E57.4158
;segType:Loop
G0 X-88.750 Y1.144 F4800
G1 X-88.581 Y1.220 E57.4219 F1800
G1 X-88.174 Y1.496 E57.4382
G1 X-87.819 Y1.837 E57.4545
G1 X-87.528 Y2.234 E57.4708
G1 X-87.307 Y2.673 E57.4871
G1 X-87.164 Y3.143 E57.5034
G1 X-87.102 Y3.627 E57.5195
G1 X-87.123 Y4.118 E57.5358
G1 X-87.226 Y4.600 E57.5521
G1 X-87.410 Y5.056 E57.5684
G1 X-87.668 Y5.475 E57.5847
G1 X-87.993 Y5.844 E57.6010
G1 X-88.376 Y6.153 E57.6173
G1 X-88.805 Y6.393 E57.6336
G1 X-89.269 Y6.557 E57.6499
G1 X-89.754 Y6.640 E57.6662
G1 X-90.246 Y6.640 E57.6825
G1 X-90.731 Y6.557 E57.6988
G1 X-91.195 Y6.393 E57.7151
G1 X-91.624 Y6.153 E57.7314
G1 X-92.007 Y5.844 E57.7477
G1 X-92.332 Y5.474 E57.7640
G1 X-92.592 Y5.052 E57.7805
G1 X-92.775 Y4.594 E57.7968
G1 X-92.878 Y4.114 E57.8131
G1 X-92.898 Y3.622 E57.8294
G1 X-92.834 Y3.134 E57.8457
G1 X-92.689 Y2.664 E57.8619
G1 X-92.467 Y2.225 E57.8782
G1 X-92.174 Y1.830 E57.8945
G1 X-91.818 Y1.490 E57.9108
G1 X-91.410 Y1.216 E57.9271
G1 X-90.961 Y1.013 E57.9434
G1 X-90.485 Y0.891 E57.9597
G1 X-89.995 Y0.850 E57.9760
G1 X-89.505 Y0.892 E57.9923
G1 X-89.029 Y1.017 E58.0086
G1 X-88.932 Y1.061 E58.0120
;segType:Perimeter
G0 X-90.133 Y1.269 F4800
G1 X-89.936 Y1.304 E58.0179 F900
G1 X-89.582 Y1.335 E58.0284
G1 X-89.180 Y1.440 E58.0407
G1 X-88.801 Y1.613 E58.0530
G1 X-88.457 Y1.846 E58.0653
G1 X-88.158 Y2.134 E58.0776
G1 X-87.911 Y2.469 E58.0899
G1 X-87.724 Y2.840 E58.1022
G1 X-87.603 Y3.238 E58.1145
G1 X-87.551 Y3.646 E58.1266
G1 X-87.569 Y4.061 E58.1389
G1 X-87.656 Y4.468 E58.1512
G1 X-87.811 Y4.853 E58.1635
G1 X-88.029 Y5.207 E58.1758
G1 X-88.304 Y5.520 E58.1881
G1 X-88.627 Y5.781 E58.2004
G1 X-88.990 Y5.984 E58.2127
G1 X-89.382 Y6.122 E58.2250
G1 X-89.792 Y6.192 E58.2373
G1 X-90.208 Y6.192 E58.2496
G1 X-90.618 Y6.122 E58.2619
G1 X-91.010 Y5.984 E58.2742
G1 X-91.373 Y5.781 E58.2865
G1 X-91.696 Y5.520 E58.2988
G1 X-91.971 Y5.207 E58.3111
G1 X-92.190 Y4.850 E58.3235
G1 X-92.344 Y4.464 E58.3358
G1 X-92.431 Y4.057 E58.3481
G1 X-92.449 Y3.642 E58.3604
G1 X-92.395 Y3.230 E58.3727
G1 X-92.273 Y2.832 E58.3850
G1 X-92.085 Y2.462 E58.3973
G1 X-91.837 Y2.128 E58.4096
G1 X-91.536 Y1.841 E58.4219
G1 X-91.192 Y1.608 E58.4342
G1 X-90.812 Y1.438 E58.4465
G1 X-90.410 Y1.334 E58.4587
G1 X-90.056 Y1.304 E58.4693
G0 X-89.859 Y1.269 F4800
;segType:HShell
G0 X-94.620 Y-5.314
G1 X-88.126 Y1.181 E58.7652 F1350
G0 X-89.198 Y0.675 F4800
G1 X-95.186 Y-5.314 E59.0380 F1350
G0 X-95.752 Y-5.314 F4800
G1 X-89.867 Y0.571 E59.3061 F1350
G0 X-90.409 Y0.595 F4800
G1 X-96.318 Y-5.314 E59.5754 F1350
G0 X-96.883 Y-5.314 F4800
G1 X-90.876 Y0.694 E59.8491 F1350
G0 X-91.290 Y0.845 F4800
G1 X-97.449 Y-5.314 E60.1297 F1350
G0 X-98.015 Y-5.314 F4800
G1 X-91.663 Y1.038 E60.4191 F1350
G0 X-92.001 Y1.266 F4800
G1 X-98.580 Y-5.314 E60.7189 F1350
G0 X-99.064 Y-5.231 F4800
G1 X-92.290 Y1.542 E61.0275 F1350
G0 X-92.548 Y1.850 F4800
G1 X-99.064 Y-4.665 E61.3244 F1350
G0 X-99.064 Y-4.100 F4800
G1 X-92.773 Y2.191 E61.6110 F1350
G0 X-92.961 Y2.568 F4800
G1 X-99.064 Y-3.534 E61.8890 F1350
G0 X-99.064 Y-2.968 F4800
G1 X-93.095 Y3.001 E62.1610 F1350
G0 X-93.171 Y3.490 F4800
G1 X-99.064 Y-2.403 E62.4295 F1350
G0 X-99.064 Y-1.837 F4800
G1 X-93.168 Y4.058 E62.6981 F1350
G0 X-93.010 Y4.782 F4800
G1 X-99.064 Y-1.271 E62.9739 F1350
G0 X-99.064 Y17.396 F4800
G1 X-98.646 Y17.813 E62.9929 F1350
G0 X-98.081 Y17.813 F4800
G1 X-99.064 Y16.831 E63.0377 F1350
G0 X-99.064 Y16.265 F4800
G1 X-97.515 Y17.813 E63.1082 F1350
G0 X-96.949 Y17.813 F4800
G1 X-99.064 Y15.699 E63.2046 F1350
G0 X-99.064 Y15.134 F4800
G1 X-96.384 Y17.813 E63.3267 F1350
G0 X-95.818 Y17.813 F4800
G1 X-99.064 Y14.568 E63.4745 F1350
G0 X-99.064 Y14.002 F4800
G1 X-95.252 Y17.813 E63.6482 F1350
G0 X-94.687 Y17.813 F4800
G1 X-99.064 Y13.436 E63.8476 F1350
G0 X-99.064 Y12.871 F4800
G1 X-94.121 Y17.813 E64.0728 F1350
G0 X-93.555 Y17.813 F4800
G1 X-99.064 Y12.305 E64.3238 F1350
G0 X-99.064 Y11.739 F4800
G1 X-92.989 Y17.813 E64.6006 F1350
G0 X-92.424 Y17.813 F4800
G1 X-99.064 Y11.174 E64.9031 F1350
G0 X-99.064 Y10.608 F4800
G1 X-91.858 Y17.813 E65.2314 F1350
G0 X-91.292 Y17.813 F4800
G1 X-99.064 Y10.042 E65.5854 F1350
G0 X-99.064 Y9.477 F4800
G1 X-90.727 Y17.813 E65.9653 F1350
G0 X-90.161 Y17.813 F4800
G1 X-99.064 Y8.911 E66.3709 F1350
G0 X-99.064 Y8.345 F4800
G1 X-89.595 Y17.813 E66.8023 F1350
G0 X-89.030 Y17.813 F4800
G1 X-99.064 Y7.780 E67.2595 F1350
G0 X-99.064 Y7.214 F4800
G1 X-88.464 Y17.813 E67.7424 F1350
G0 X-87.898 Y17.813 F4800
G1 X-99.064 Y6.648 E68.2511 F1350
G0 X-99.064 Y6.083 F4800
G1 X-87.333 Y17.813 E68.7856 F1350
G0 X-86.767 Y17.813 F4800
G1 X-99.064 Y5.517 E69.3459 F1350
G0 X-99.064 Y4.951 F4800
G1 X-86.201 Y17.813 E69.9319 F1350
G0 X-85.636 Y17.813 F4800
G1 X-99.064 Y4.386 E70.5437 F1350
G0 X-99.064 Y3.820 F4800
G1 X-85.070 Y17.813 E71.1813 F1350
G0 X-84.504 Y17.813 F4800
G1 X-99.064 Y3.254 E71.8447 F1350
G0 X-99.064 Y2.688 F4800
G1 X-83.939 Y17.813 E72.5338 F1350
G0 X-83.373 Y17.813 F4800
G1 X-99.064 Y2.123 E73.2487 F1350
G0 X-99.064 Y1.557 F4800
G1 X-82.807 Y17.813 E73.9894 F1350
G0 X-82.241 Y17.813 F4800
G1 X-99.064 Y0.991 E74.7559 F1350
G0 X-99.064 Y0.426 F4800
G1 X-81.676 Y17.813 E75.5481 F1350
G0 X-81.110 Y17.813 F4800
G1 X-99.064 Y-0.140 E76.3661 F1350
G0 X-99.064 Y-0.706 F4800
G1 X-80.544 Y17.813 E77.2099 F1350
G0 X-79.979 Y17.813 F4800
G1 X-91.038 Y6.754 E77.7138 F1350
G0 X-90.304 Y6.923 F4800
G1 X-79.413 Y17.813 E78.2100 F1350
G0 X-78.847 Y17.813 F4800
G1 X-89.732 Y6.928 E78.7059 F1350
G0 X-89.249 Y6.846 F4800
G1 X-78.282 Y17.813 E79.2056 F1350
G0 X-77.716 Y17.813 F4800
G1 X-88.824 Y6.706 E79.7117 F1350
G0 X-88.443 Y6.521 F4800
G1 X-77.150 Y17.813 E80.2263 F1350
G0 X-76.585 Y17.813 F4800
G1 X-88.098 Y6.300 E80.7509 F1350
G0 X-87.786 Y6.046 F4800
G1 X-76.019 Y17.813 E81.2870 F1350
G0 X-75.453 Y17.813 F4800
G1 X-87.522 Y5.745 E81.8369 F1350
G0 X-87.290 Y5.411 F4800
G1 X-74.888 Y17.813 E82.4020 F1350
G0 X-74.322 Y17.813 F4800
G1 X-87.094 Y5.042 E82.9839 F1350
G0 X-86.939 Y4.631 F4800
G1 X-73.756 Y17.813 E83.5845 F1350
G0 X-73.190 Y17.813 F4800
G1 X-86.838 Y4.166 E84.2063 F1350
G0 X-86.813 Y3.625 F4800
G1 X-72.625 Y17.813 E84.8528 F1350
G0 X-72.059 Y17.813 F4800
G1 X-86.921 Y2.952 E85.5300 F1350
G0 X-87.440 Y1.867 F4800
G1 X-71.493 Y17.813 E86.2565 F1350
G0 X-70.928 Y17.813 F4800
G1 X-94.055 Y-5.314 E87.3102 F1350
G0 X-93.489 Y-5.314 F4800
G1 X-70.362 Y17.813 E88.3640 F1350
G0 X-69.796 Y17.813 F4800
G1 X-92.923 Y-5.314 E89.4177 F1350
G0 X-92.358 Y-5.314 F4800
G1 X-69.231 Y17.813 E90.4714 F1350
G0 X-68.665 Y17.813 F4800
G1 X-91.792 Y-5.314 E91.5251 F1350
G0 X-91.226 Y-5.314 F4800
G1 X-68.099 Y17.813 E92.5789 F1350
G0 X-67.534 Y17.813 F4800
G1 X-90.661 Y-5.314 E93.6326 F1350
G0 X-90.095 Y-5.314 F4800
G1 X-66.968 Y17.813 E94.6863 F1350
G0 X-66.402 Y17.813 F4800
G1 X-89.529 Y-5.314 E95.7400 F1350
G0 X-88.964 Y-5.314 F4800
G1 X-65.837 Y17.813 E96.7938 F1350
G0 X-65.271 Y17.813 F4800
G1 X-88.398 Y-5.314 E97.8475 F1350
G0 X-87.832 Y-5.314 F4800
G1 X-64.705 Y17.813 E98.9012 F1350
G0 X-64.140 Y17.813 F4800
G1 X-87.267 Y-5.314 E99.9550 F1350
G0 X-86.701 Y-5.314 F4800
G1 X-63.574 Y17.813 E101.0087 F1350
G0 X-63.008 Y17.813 F4800
G1 X-86.135 Y-5.314 E102.0624 F1350
G0 X-85.569 Y-5.314 F4800
G1 X-62.442 Y17.813 E103.1161 F1350
G0 X-61.877 Y17.813 F4800
G1 X-85.004 Y-5.314 E104.1699 F1350
G0 X-84.438 Y-5.314 F4800
G1 X-61.311 Y17.813 E105.2236 F1350
G0 X-60.745 Y17.813 F4800
G1 X-83.872 Y-5.314 E106.2773 F1350
G0 X-83.307 Y-5.314 F4800
G1 X-60.180 Y17.813 E107.3310 F1350
G0 X-59.614 Y17.813 F4800
G1 X-82.741 Y-5.314 E108.3848 F1350
G0 X-82.175 Y-5.314 F4800
G1 X-59.048 Y17.813 E109.4385 F1350
G0 X-58.483 Y17.813 F4800
G1 X-81.610 Y-5.314 E110.4922 F1350
G0 X-81.044 Y-5.314 F4800
G1 X-57.917 Y17.813 E111.5459 F1350
G0 X-57.351 Y17.813 F4800
G1 X-80.478 Y-5.314 E112.5997 F1350
G0 X-79.913 Y-5.314 F4800
G1 X-56.786 Y17.813 E113.6534 F1350
G0 X-56.220 Y17.813 F4800
G1 X-79.347 Y-5.314 E114.7071 F1350
G0 X-78.781 Y-5.314 F4800
G1 X-55.654 Y17.813 E115.7608 F1350
G0 X-55.089 Y17.813 F4800
G1 X-78.216 Y-5.314 E116.8146 F1350
G0 X-77.650 Y-5.314 F4800
G1 X-54.523 Y17.813 E117.8683 F1350
G0 X-53.957 Y17.813 F4800
G1 X-77.084 Y-5.314 E118.9220 F1350
G0 X-76.519 Y-5.314 F4800
G1 X-53.392 Y17.813 E119.9758 F1350
G0 X-52.826 Y17.813 F4800
G1 X-75.953 Y-5.314 E121.0295 F1350
G0 X-75.387 Y-5.314 F4800
G1 X-52.260 Y17.813 E122.0832 F1350
G0 X-51.694 Y17.813 F4800
G1 X-74.821 Y-5.314 E123.1369 F1350
G0 X-74.256 Y-5.314 F4800
G1 X-51.129 Y17.813 E124.1907 F1350
G0 X-50.563 Y17.813 F4800
G1 X-73.690 Y-5.314 E125.2444 F1350
G0 X-73.124 Y-5.314 F4800
G1 X-49.997 Y17.813 E126.2981 F1350
G0 X-49.432 Y17.813 F4800
G1 X-72.559 Y-5.314 E127.3518 F1350
G0 X-71.993 Y-5.314 F4800
G1 X-48.866 Y17.813 E128.4056 F1350
G0 X-48.300 Y17.813 F4800
G1 X-71.427 Y-5.314 E129.4593 F1350
G0 X-70.862 Y-5.314 F4800
G1 X-47.735 Y17.813 E130.5130 F1350
G0 X-47.169 Y17.813 F4800
G1 X-70.296 Y-5.314 E131.5667 F1350
G0 X-69.730 Y-5.314 F4800
G1 X-46.603 Y17.813 E132.6205 F1350
G0 X-46.038 Y17.813 F4800
G1 X-69.165 Y-5.314 E133.6742 F1350
G0 X-68.599 Y-5.314 F4800
G1 X-45.472 Y17.813 E134.7279 F1350
G0 X-44.906 Y17.813 F4800
G1 X-56.033 Y6.687 E135.2349 F1350
G0 X-55.467 Y6.687 F4800
G1 X-44.341 Y17.813 E135.7419 F1350
G0 X-43.775 Y17.813 F4800
G1 X-54.902 Y6.687 E136.2488 F1350
G0 X-54.336 Y6.687 F4800
G1 X-43.209 Y17.813 E136.7558 F1350
G0 X-42.643 Y17.813 F4800
G1 X-53.841 Y6.616 E137.2660 F1350
G0 X-53.634 Y6.257 F4800
G1 X-42.078 Y17.813 E137.7925 F1350
G0 X-41.512 Y17.813 F4800
G1 X-53.427 Y5.899 E138.3354 F1350
G0 X-53.220 Y5.540 F4800
G1 X-40.946 Y17.813 E138.8946 F1350
G0 X-40.381 Y17.813 F4800
G1 X-49.258 Y8.937 E139.2991 F1350
G0 X-48.692 Y8.937 F4800
G1 X-39.815 Y17.813 E139.7035 F1350
G0 X-39.249 Y17.813 F4800
G1 X-48.126 Y8.937 E140.1080 F1350
G0 X-47.561 Y8.937 F4800
G1 X-38.684 Y17.813 E140.5124 F1350
G0 X-38.118 Y17.813 F4800
G1 X-46.995 Y8.937 E140.9169 F1350
G0 X-46.625 Y8.741 F4800
G1 X-37.552 Y17.813 E141.3303 F1350
G0 X-36.987 Y17.813 F4800
G1 X-46.418 Y8.382 E141.7600 F1350
G0 X-46.211 Y8.024 F4800
G1 X-36.421 Y17.813 E142.2060 F1350
G0 X-35.855 Y17.813 F4800
G1 X-46.004 Y7.665 E142.6684 F1350
G0 X-45.797 Y7.306 F4800
G1 X-43.077 Y10.026 E142.7923 F1350
G0 X-41.916 Y11.187 F4800
G1 X-35.290 Y17.813 E143.0943 F1350
G0 X-34.724 Y17.813 F4800
G1 X-41.351 Y11.187 E143.3962 F1350
G0 X-40.785 Y11.187 F4800
G1 X-34.158 Y17.813 E143.6981 F1350
G0 X-33.593 Y17.813 F4800
G1 X-40.219 Y11.187 E144.0001 F1350
G0 X-39.654 Y11.187 F4800
G1 X-33.027 Y17.813 E144.3020 F1350
G0 X-32.461 Y17.813 F4800
G1 X-39.408 Y10.866 E144.6186 F1350
G0 X-39.201 Y10.508 F4800
G1 X-31.895 Y17.813 E144.9514 F1350
G0 X-31.330 Y17.813 F4800
G1 X-38.994 Y10.149 E145.3006 F1350
G0 X-38.787 Y9.790 F4800
G1 X-30.764 Y17.813 E145.6662 F1350
G0 X-30.198 Y17.813 F4800
G1 X-38.580 Y9.432 E146.0481 F1350
G0 X-38.373 Y9.073 F4800
G1 X-29.633 Y17.813 E146.4463 F1350
G0 X-29.067 Y17.813 F4800
G1 X-38.263 Y8.617 E146.8653 F1350
G0 X-39.036 Y7.279 F4800
G1 X-28.501 Y17.813 E147.3453 F1350
G0 X-27.936 Y17.813 F4800
G1 X-51.063 Y-5.314 E148.3990 F1350
G0 X-50.497 Y-5.314 F4800
G1 X-27.370 Y17.813 E149.4527 F1350
G0 X-26.804 Y17.813 F4800
G1 X-29.931 Y14.687 E149.5952 F1350
G0 X-29.366 Y14.687 F4800
G1 X-26.239 Y17.813 E149.7377 F1350
G0 X-25.673 Y17.813 F4800
G1 X-28.800 Y14.687 E149.8802 F1350
G0 X-28.234 Y14.687 F4800
G1 X-25.107 Y17.813 E150.0226 F1350
G0 X-24.542 Y17.813 F4800
G1 X-27.668 Y14.687 E150.1651 F1350
G0 X-27.103 Y14.687 F4800
G1 X-23.976 Y17.813 E150.3076 F1350
G0 X-23.410 Y17.813 F4800
G1 X-26.537 Y14.687 E150.4500 F1350
G0 X-25.971 Y14.687 F4800
G1 X-22.844 Y17.813 E150.5925 F1350
G0 X-22.279 Y17.813 F4800
G1 X-25.406 Y14.687 E150.7350 F1350
G0 X-24.840 Y14.687 F4800
G1 X-21.713 Y17.814 E150.8775 F1350
G0 X-21.147 Y17.814 F4800
G1 X-24.274 Y14.687 E151.0199 F1350
G0 X-23.709 Y14.687 F4800
G1 X-20.582 Y17.814 E151.1624 F1350
G0 X-20.016 Y17.814 F4800
G1 X-23.143 Y14.687 E151.3049 F1350
G0 X-22.577 Y14.687 F4800
G1 X-19.450 Y17.814 E151.4473 F1350
G0 X-18.885 Y17.814 F4800
G1 X-22.012 Y14.687 E151.5898 F1350
G0 X-21.446 Y14.687 F4800
G1 X-18.319 Y17.814 E151.7323 F1350
G0 X-17.753 Y17.814 F4800
G1 X-20.880 Y14.687 E151.8748 F1350
G0 X-20.315 Y14.687 F4800
G1 X-17.188 Y17.814 E152.0172 F1350
G0 X-16.622 Y17.814 F4800
G1 X-19.749 Y14.687 E152.1597 F1350
G0 X-19.183 Y14.687 F4800
G1 X-16.056 Y17.814 E152.3022 F1350
G0 X-15.491 Y17.814 F4800
G1 X-18.617 Y14.687 E152.4446 F1350
G0 X-18.052 Y14.687 F4800
G1 X-14.925 Y17.814 E152.5871 F1350
G0 X-14.359 Y17.814 F4800
G1 X-17.486 Y14.687 E152.7296 F1350
G0 X-16.920 Y14.687 F4800
G1 X-13.793 Y17.814 E152.8721 F1350
G0 X-13.228 Y17.814 F4800
G1 X-16.355 Y14.687 E153.0145 F1350
G0 X-15.789 Y14.687 F4800
G1 X-12.662 Y17.814 E153.1570 F1350
G0 X-12.096 Y17.814 F4800
G1 X-15.223 Y14.687 E153.2995 F1350
G0 X-14.658 Y14.687 F4800
G1 X-11.531 Y17.814 E153.4419 F1350
G0 X-10.965 Y17.814 F4800
G1 X-14.092 Y14.687 E153.5844 F1350
G0 X-13.526 Y14.687 F4800
G1 X-10.399 Y17.814 E153.7269 F1350
G0 X-9.834 Y17.814 F4800
G1 X-13.331 Y14.316 E153.8863 F1350
G0 X-13.331 Y13.750 F4800
G1 X-9.268 Y17.814 E154.0714 F1350
G0 X-8.702 Y17.814 F4800
G1 X-13.331 Y13.185 E154.2823 F1350
G0 X-13.331 Y12.619 F4800
G1 X-8.137 Y17.814 E154.5190 F1350
G0 X-7.571 Y17.814 F4800
G1 X-13.331 Y12.053 E154.7814 F1350
G0 X-13.331 Y11.487 F4800
G1 X-7.005 Y17.814 E155.0697 F1350
G0 X-6.440 Y17.814 F4800
G1 X-13.331 Y10.922 E155.3837 F1350
G0 X-13.331 Y10.356 F4800
G1 X-5.874 Y17.814 E155.7235 F1350
G0 X-5.308 Y17.814 F4800
G1 X-13.331 Y9.790 E156.0890 F1350
G0 X-13.331 Y9.225 F4800
G1 X-4.742 Y17.814 E156.4804 F1350
G0 X-4.177 Y17.814 F4800
G1 X-13.331 Y8.659 E156.8975 F1350
G0 X-13.331 Y8.093 F4800
G1 X-3.611 Y17.814 E157.3403 F1350
G0 X-3.045 Y17.814 F4800
G1 X-13.331 Y7.528 E157.8090 F1350
G0 X-13.429 Y-2.187 F4800
G1 X-16.556 Y-5.314 E157.9515 F1350
G0 X-17.122 Y-5.314 F4800
G1 X-13.995 Y-2.187 E158.0939 F1350
G0 X-14.560 Y-2.187 F4800
G1 X-17.687 Y-5.314 E158.2364 F1350
G0 X-18.253 Y-5.314 F4800
G1 X-15.126 Y-2.187 E158.3789 F1350
G0 X-15.692 Y-2.187 F4800
G1 X-18.819 Y-5.314 E158.5213 F1350
G0 X-19.384 Y-5.314 F4800
G1 X-16.257 Y-2.187 E158.6638 F1350
G0 X-16.823 Y-2.187 F4800
G1 X-19.950 Y-5.314 E158.8063 F1350
G0 X-20.516 Y-5.314 F4800
G1 X-17.389 Y-2.187 E158.9488 F1350
G0 X-17.954 Y-2.187 F4800
G1 X-21.081 Y-5.314 E159.0912 F1350
G0 X-21.647 Y-5.314 F4800
G1 X-18.520 Y-2.187 E159.2337 F1350
G0 X-19.086 Y-2.187 F4800
G1 X-22.213 Y-5.314 E159.3762 F1350
G0 X-22.778 Y-5.314 F4800
G1 X-19.651 Y-2.187 E159.5186 F1350
G0 X-20.217 Y-2.187 F4800
G1 X-23.344 Y-5.314 E159.6611 F1350
G0 X-23.910 Y-5.314 F4800
G1 X-20.783 Y-2.187 E159.8036 F1350
G0 X-21.349 Y-2.187 F4800
G1 X-24.475 Y-5.314 E159.9461 F1350
G0 X-25.041 Y-5.314 F4800
G1 X-21.914 Y-2.187 E160.0885 F1350
G0 X-22.480 Y-2.187 F4800
G1 X-25.607 Y-5.314 E160.2310 F1350
G0 X-26.173 Y-5.314 F4800
G1 X-23.046 Y-2.187 E160.3735 F1350
G0 X-23.611 Y-2.187 F4800
G1 X-26.738 Y-5.314 E160.5159 F1350
G0 X-27.304 Y-5.314 F4800
G1 X-24.177 Y-2.187 E160.6584 F1350
G0 X-24.743 Y-2.187 F4800
G1 X-27.870 Y-5.314 E160.8009 F1350
G0 X-28.435 Y-5.314 F4800
G1 X-25.308 Y-2.187 E160.9434 F1350
G0 X-25.874 Y-2.187 F4800
G1 X-29.001 Y-5.314 E161.0858 F1350
G0 X-29.567 Y-5.314 F4800
G1 X-26.440 Y-2.187 E161.2283 F1350
G0 X-27.005 Y-2.187 F4800
G1 X-30.132 Y-5.314 E161.3708 F1350
G0 X-30.698 Y-5.314 F4800
G1 X-27.571 Y-2.187 E161.5132 F1350
G0 X-28.137 Y-2.187 F4800
G1 X-31.264 Y-5.314 E161.6557 F1350
G0 X-31.829 Y-5.314 F4800
G1 X-28.702 Y-2.187 E161.7982 F1350
G0 X-29.268 Y-2.187 F4800
G1 X-32.395 Y-5.314 E161.9406 F1350
G0 X-32.961 Y-5.314 F4800
G1 X-29.834 Y-2.187 E162.0831 F1350
G0 X-30.205 Y-1.992 F4800
G1 X-33.526 Y-5.314 E162.2345 F1350
G0 X-34.092 Y-5.314 F4800
G1 X-30.205 Y-1.426 E162.4116 F1350
G0 X-30.205 Y-0.860 F4800
G1 X-34.658 Y-5.314 E162.6145 F1350
G0 X-35.223 Y-5.314 F4800
G1 X-30.205 Y-0.295 E162.8432 F1350
G0 X-30.205 Y0.271 F4800
G1 X-35.789 Y-5.314 E163.0976 F1350
G0 X-36.355 Y-5.314 F4800
G1 X-30.205 Y0.837 E163.3779 F1350
G0 X-30.205 Y1.402 F4800
G1 X-36.921 Y-5.314 E163.6839 F1350
G0 X-37.486 Y-5.314 F4800
G1 X-30.205 Y1.968 E164.0156 F1350
G0 X-30.205 Y2.534 F4800
G1 X-38.052 Y-5.314 E164.3732 F1350
G0 X-38.618 Y-5.314 F4800
G1 X-30.205 Y3.100 E164.7565 F1350
G0 X-30.205 Y3.665 F4800
G1 X-39.183 Y-5.314 E165.1656 F1350
G0 X-39.749 Y-5.314 F4800
G1 X-30.205 Y4.231 E165.6005 F1350
G0 X-30.205 Y4.797 F4800
G1 X-40.315 Y-5.314 E166.0611 F1350
G0 X-39.664 Y-5.602 F4800
G0 X-10.620 Y-5.602
G0 X-10.620 Y-15.898
G0 X-12.543 Y-15.898
G0 X-12.619 Y-15.912
G0 X-12.619 Y-17.577
G0 X-12.619 Y-17.577
G0 X-12.073 Y-17.819
G0 X-12.085 Y-17.813
G1 X-10.458 Y-16.187 E166.1352 F1350
G0 X-11.024 Y-16.187 F4800
G1 X-12.331 Y-17.494 E166.1948 F1350
G0 X-12.331 Y-16.928 F4800
G1 X-11.590 Y-16.187 E166.2286 F1350
G0 X-12.155 Y-16.187 F4800
G1 X-12.331 Y-16.363 E166.2366 F1350
G0 X-11.939 Y-15.898 F4800
G0 X-10.620 Y-15.898
G0 X-10.620 Y-14.340
G0 X-10.620 Y-14.340
G0 X-2.971 Y-5.304
G0 X-2.979 Y-5.314
G1 X20.148 Y17.813 E167.2903 F1350
G0 X20.713 Y17.813 F4800
G1 X-2.414 Y-5.314 E168.3441 F1350
G0 X-1.848 Y-5.314 F4800
G1 X21.279 Y17.813 E169.3978 F1350
G0 X21.845 Y17.813 F4800
G1 X-1.282 Y-5.314 E170.4515 F1350
G0 X-0.717 Y-5.314 F4800
G1 X22.410 Y17.813 E171.5052 F1350
G0 X22.976 Y17.813 F4800
G1 X-0.151 Y-5.314 E172.5590 F1350
G0 X0.415 Y-5.314 F4800
G1 X23.542 Y17.813 E173.6127 F1350
G0 X24.107 Y17.813 F4800
G1 X0.980 Y-5.314 E174.6664 F1350
G0 X1.546 Y-5.314 F4800
G1 X24.673 Y17.813 E175.7201 F1350
G0 X25.239 Y17.813 F4800
G1 X2.112 Y-5.314 E176.7739 F1350
G0 X2.677 Y-5.314 F4800
G1 X25.804 Y17.813 E177.8276 F1350
G0 X26.370 Y17.813 F4800
G1 X3.243 Y-5.314 E178.8813 F1350
G0 X3.809 Y-5.314 F4800
G1 X26.936 Y17.813 E179.9350 F1350
G0 X27.501 Y17.813 F4800
G1 X4.375 Y-5.314 E180.9888 F1350
G0 X4.940 Y-5.314 F4800
G1 X28.067 Y17.813 E182.0425 F1350
G0 X28.633 Y17.813 F4800
G1 X5.506 Y-5.314 E183.0962 F1350
G0 X6.072 Y-5.314 F4800
G1 X29.199 Y17.813 E184.1500 F1350
G0 X29.764 Y17.813 F4800
G1 X6.637 Y-5.314 E185.2037 F1350
G0 X7.203 Y-5.314 F4800
G1 X30.330 Y17.813 E186.2574 F1350
G0 X30.896 Y17.813 F4800
G1 X7.769 Y-5.314 E187.3111 F1350
G0 X8.334 Y-5.314 F4800
G1 X31.461 Y17.813 E188.3649 F1350
G0 X32.027 Y17.813 F4800
G1 X8.900 Y-5.314 E189.4186 F1350
G0 X9.466 Y-5.314 F4800
G1 X32.593 Y17.813 E190.4723 F1350
G0 X33.158 Y17.813 F4800
G1 X10.031 Y-5.314 E191.5260 F1350
G0 X10.597 Y-5.314 F4800
G1 X33.724 Y17.813 E192.5798 F1350
G0 X34.290 Y17.813 F4800
G1 X11.163 Y-5.314 E193.6335 F1350
G0 X11.728 Y-5.314 F4800
G1 X34.855 Y17.813 E194.6872 F1350
G0 X35.421 Y17.813 F4800
G1 X12.294 Y-5.314 E195.7409 F1350
G0 X12.860 Y-5.314 F4800
G1 X35.987 Y17.813 E196.7947 F1350
G0 X36.552 Y17.813 F4800
G1 X13.425 Y-5.314 E197.8484 F1350
G0 X13.991 Y-5.314 F4800
G1 X37.118 Y17.813 E198.9021 F1350
G0 X37.684 Y17.813 F4800
G1 X14.557 Y-5.314 E199.9558 F1350
G0 X15.123 Y-5.314 F4800
G1 X38.249 Y17.813 E201.0096 F1350
G0 X38.815 Y17.813 F4800
G1 X15.688 Y-5.314 E202.0633 F1350
G0 X16.254 Y-5.314 F4800
G1 X39.381 Y17.813 E203.1170 F1350
G0 X39.947 Y17.813 F4800
G1 X16.820 Y-5.314 E204.1708 F1350
G0 X17.385 Y-5.314 F4800
G1 X40.512 Y17.813 E205.2245 F1350
G0 X41.078 Y17.813 F4800
G1 X17.951 Y-5.314 E206.2782 F1350
G0 X18.517 Y-5.314 F4800
G1 X41.644 Y17.813 E207.3319 F1350
G0 X42.209 Y17.813 F4800
G1 X19.082 Y-5.314 E208.3857 F1350
G0 X19.648 Y-5.314 F4800
G1 X42.775 Y17.813 E209.4394 F1350
G0 X43.341 Y17.813 F4800
G1 X20.214 Y-5.314 E210.4931 F1350
G0 X20.779 Y-5.314 F4800
G1 X43.906 Y17.813 E211.5468 F1350
G0 X44.472 Y17.813 F4800
G1 X21.345 Y-5.314 E212.6006 F1350
G0 X21.911 Y-5.314 F4800
G1 X45.038 Y17.813 E213.6543 F1350
G0 X45.603 Y17.813 F4800
G1 X22.476 Y-5.314 E214.7080 F1350
G0 X23.042 Y-5.314 F4800
G1 X46.169 Y17.813 E215.7617 F1350
G0 X46.735 Y17.813 F4800
G1 X23.608 Y-5.314 E216.8155 F1350
G0 X24.174 Y-5.314 F4800
G1 X47.300 Y17.813 E217.8692 F1350
G0 X47.866 Y17.813 F4800
G1 X24.739 Y-5.314 E218.9229 F1350
G0 X25.305 Y-5.314 F4800
G1 X48.432 Y17.813 E219.9767 F1350
G0 X48.997 Y17.813 F4800
G1 X25.871 Y-5.314 E221.0304 F1350
G0 X26.436 Y-5.314 F4800
G1 X49.563 Y17.813 E222.0841 F1350
G0 X50.129 Y17.813 F4800
G1 X27.002 Y-5.314 E223.1378 F1350
G0 X27.568 Y-5.314 F4800
G1 X50.695 Y17.813 E224.1916 F1350
G0 X51.260 Y17.813 F4800
G1 X28.133 Y-5.314 E225.2453 F1350
G0 X28.699 Y-5.314 F4800
G1 X51.826 Y17.813 E226.2990 F1350
G0 X52.392 Y17.813 F4800
G1 X29.265 Y-5.314 E227.3527 F1350
G0 X29.830 Y-5.314 F4800
G1 X52.957 Y17.813 E228.4065 F1350
G0 X53.523 Y17.813 F4800
G1 X30.396 Y-5.314 E229.4602 F1350
G0 X30.962 Y-5.314 F4800
G1 X54.089 Y17.813 E230.5139 F1350
G0 X54.654 Y17.813 F4800
G1 X31.527 Y-5.314 E231.5676 F1350
G0 X32.093 Y-5.314 F4800
G1 X55.220 Y17.813 E232.6214 F1350
G0 X55.786 Y17.813 F4800
G1 X32.659 Y-5.314 E233.6751 F1350
G0 X33.224 Y-5.314 F4800
G1 X56.351 Y17.813 E234.7288 F1350
G0 X56.917 Y17.813 F4800
G1 X33.790 Y-5.314 E235.7825 F1350
G0 X34.356 Y-5.314 F4800
G1 X57.483 Y17.813 E236.8363 F1350
G0 X58.048 Y17.813 F4800
G1 X34.922 Y-5.314 E237.8900 F1350
G0 X35.487 Y-5.314 F4800
G1 X58.614 Y17.813 E238.9437 F1350
G0 X59.180 Y17.813 F4800
G1 X36.053 Y-5.314 E239.9974 F1350
G0 X36.619 Y-5.314 F4800
G1 X59.745 Y17.813 E241.0512 F1350
G0 X60.311 Y17.813 F4800
G1 X37.184 Y-5.314 E242.1049 F1350
G0 X37.750 Y-5.314 F4800
G1 X60.877 Y17.813 E243.1586 F1350
G0 X61.443 Y17.813 F4800
G1 X38.316 Y-5.314 E244.2124 F1350
G0 X38.881 Y-5.314 F4800
G1 X62.008 Y17.813 E245.2661 F1350
G0 X62.574 Y17.813 F4800
G1 X39.447 Y-5.314 E246.3198 F1350
G0 X40.013 Y-5.314 F4800
G1 X63.140 Y17.813 E247.3735 F1350
G0 X63.705 Y17.813 F4800
G1 X40.578 Y-5.314 E248.4273 F1350
G0 X41.144 Y-5.314 F4800
G1 X64.271 Y17.813 E249.4810 F1350
G0 X64.837 Y17.813 F4800
G1 X59.210 Y12.187 E249.7373 F1350
G0 X59.776 Y12.187 F4800
G1 X65.402 Y17.813 E249.9937 F1350
G0 X65.968 Y17.813 F4800
G1 X60.341 Y12.187 E250.2501 F1350
G0 X60.907 Y12.187 F4800
G1 X66.534 Y17.813 E250.5064 F1350
G0 X67.099 Y17.813 F4800
G1 X61.473 Y12.187 E250.7628 F1350
G0 X62.038 Y12.187 F4800
G1 X67.665 Y17.813 E251.0192 F1350
G0 X68.231 Y17.813 F4800
G1 X62.604 Y12.187 E251.2755 F1350
G0 X63.170 Y12.187 F4800
G1 X68.796 Y17.813 E251.5319 F1350
G0 X69.362 Y17.813 F4800
G1 X63.735 Y12.187 E251.7883 F1350
G0 X64.301 Y12.187 F4800
G1 X69.928 Y17.813 E252.0446 F1350
G0 X70.493 Y17.813 F4800
G1 X64.867 Y12.187 E252.3010 F1350
G0 X65.432 Y12.187 F4800
G1 X71.059 Y17.813 E252.5573 F1350
G0 X71.625 Y17.813 F4800
G1 X65.998 Y12.187 E252.8137 F1350
G0 X66.564 Y12.187 F4800
G1 X72.191 Y17.813 E253.0701 F1350
G0 X72.756 Y17.813 F4800
G1 X67.129 Y12.187 E253.3264 F1350
G0 X67.695 Y12.187 F4800
G1 X73.322 Y17.813 E253.5828 F1350
G0 X73.888 Y17.813 F4800
G1 X68.261 Y12.187 E253.8392 F1350
G0 X68.827 Y12.187 F4800
G1 X74.453 Y17.813 E254.0955 F1350
G0 X75.019 Y17.813 F4800
G1 X69.392 Y12.187 E254.3519 F1350
G0 X69.958 Y12.187 F4800
G1 X75.585 Y17.813 E254.6082 F1350
G0 X76.150 Y17.813 F4800
G1 X70.524 Y12.187 E254.8646 F1350
G0 X71.089 Y12.187 F4800
G1 X76.716 Y17.813 E255.1210 F1350
G0 X77.282 Y17.813 F4800
G1 X71.655 Y12.187 E255.3773 F1350
G0 X72.221 Y12.187 F4800
G1 X77.847 Y17.813 E255.6337 F1350
G0 X78.413 Y17.813 F4800
G1 X72.786 Y12.187 E255.8901 F1350
G0 X73.352 Y12.187 F4800
G1 X78.979 Y17.813 E256.1464 F1350
G0 X79.544 Y17.813 F4800
G1 X73.918 Y12.187 E256.4028 F1350
G0 X74.483 Y12.187 F4800
G1 X80.110 Y17.813 E256.6592 F1350
G0 X80.676 Y17.813 F4800
G1 X75.049 Y12.187 E256.9156 F1350
G0 X75.615 Y12.187 F4800
G1 X81.241 Y17.813 E257.1719 F1350
G0 X81.807 Y17.813 F4800
G1 X76.180 Y12.187 E257.4283 F1350
G0 X76.746 Y12.187 F4800
G1 X82.373 Y17.813 E257.6847 F1350
G0 X82.938 Y17.813 F4800
G1 X77.312 Y12.187 E257.9411 F1350
G0 X77.877 Y12.187 F4800
G1 X83.504 Y17.813 E258.1975 F1350
G0 X84.070 Y17.813 F4800
G1 X78.443 Y12.187 E258.4538 F1350
G0 X79.009 Y12.187 F4800
G1 X84.636 Y17.813 E258.7102 F1350
G0 X85.201 Y17.813 F4800
G1 X79.574 Y12.187 E258.9666 F1350
G0 X80.140 Y12.187 F4800
G1 X85.767 Y17.813 E259.2230 F1350
G0 X86.333 Y17.813 F4800
G1 X80.706 Y12.187 E259.4794 F1350
G0 X81.272 Y12.187 F4800
G1 X86.898 Y17.813 E259.7357 F1350
G0 X87.464 Y17.813 F4800
G1 X81.837 Y12.187 E259.9921 F1350
G0 X82.403 Y12.187 F4800
G1 X88.030 Y17.813 E260.2485 F1350
G0 X88.595 Y17.813 F4800
G1 X82.969 Y12.187 E260.5049 F1350
G0 X83.534 Y12.187 F4800
G1 X89.161 Y17.813 E260.7612 F1350
G0 X89.727 Y17.813 F4800
G1 X84.100 Y12.187 E261.0176 F1350
G0 X84.666 Y12.187 F4800
G1 X90.292 Y17.813 E261.2740 F1350
G0 X90.858 Y17.813 F4800
G1 X85.231 Y12.187 E261.5304 F1350
G0 X85.797 Y12.187 F4800
G1 X91.424 Y17.813 E261.7868 F1350
G0 X91.989 Y17.813 F4800
G1 X86.363 Y12.186 E262.0431 F1350
G0 X86.928 Y12.186 F4800
G1 X92.555 Y17.813 E262.2995 F1350
G0 X93.121 Y17.813 F4800
G1 X87.494 Y12.187 E262.5559 F1350
G0 X88.060 Y12.186 F4800
G1 X93.686 Y17.813 E262.8123 F1350
G0 X94.252 Y17.813 F4800
G1 X88.625 Y12.186 E263.0686 F1350
G0 X89.191 Y12.186 F4800
G1 X94.818 Y17.813 E263.3250 F1350
G0 X95.384 Y17.813 F4800
G1 X89.757 Y12.186 E263.5814 F1350
G0 X90.322 Y12.186 F4800
G1 X95.949 Y17.813 E263.8378 F1350
G0 X96.515 Y17.813 F4800
G1 X90.888 Y12.186 E264.0942 F1350
G0 X91.454 Y12.186 F4800
G1 X97.081 Y17.813 E264.3505 F1350
G0 X97.646 Y17.813 F4800
G1 X92.020 Y12.186 E264.6069 F1350
G0 X92.585 Y12.186 F4800
G1 X98.212 Y17.813 E264.8633 F1350
G0 X98.773 Y17.809 F4800
G1 X93.151 Y12.186 E265.1195 F1350
G0 X93.717 Y12.186 F4800
G1 X99.064 Y17.533 E265.3631 F1350
G0 X99.064 Y16.968 F4800
G1 X94.282 Y12.186 E265.5809 F1350
G0 X94.848 Y12.186 F4800
G1 X99.064 Y16.402 E265.7730 F1350
G0 X99.064 Y15.836 F4800
G1 X95.414 Y12.186 E265.9393 F1350
G0 X95.979 Y12.186 F4800
G1 X99.063 Y15.271 E266.0798 F1350
G0 X99.063 Y14.705 F4800
G1 X96.545 Y12.186 E266.1946 F1350
G0 X97.111 Y12.186 F4800
G1 X99.063 Y14.139 E266.2836 F1350
G0 X99.063 Y13.574 F4800
G1 X97.676 Y12.186 E266.3468 F1350
G0 X98.242 Y12.186 F4800
G1 X99.063 Y13.008 E266.3842 F1350
G0 X99.063 Y12.442 F4800
G1 X98.808 Y12.186 E266.3958 F1350
G0 X98.064 Y11.898 F4800
G0 X59.352 Y11.898
G0 X59.352 Y8.119
G0 X85.654 Y7.096
G0 X85.654 Y7.096
G0 X65.148 Y-0.840
G0 X65.148 Y-0.840
G0 X65.148 Y2.398
G0 X61.352 Y2.398
G0 X61.352 Y-2.309
G0 X61.352 Y-2.309
G0 X53.577 Y-5.318
G0 X53.589 Y-5.314
G1 X61.063 Y2.161 E266.7364 F1350
G0 X61.063 Y1.595 F4800
G1 X54.155 Y-5.314 E267.0512 F1350
G0 X54.720 Y-5.314 F4800
G1 X61.063 Y1.029 E267.3402 F1350
G0 X61.063 Y0.464 F4800
G1 X55.286 Y-5.314 E267.6034 F1350
G0 X55.852 Y-5.314 F4800
G1 X61.063 Y-0.102 E267.8409 F1350
G0 X61.063 Y-0.668 F4800
G1 X56.417 Y-5.314 E268.0525 F1350
G0 X56.983 Y-5.314 F4800
G1 X61.063 Y-1.233 E268.2384 F1350
G0 X61.063 Y-1.799 F4800
G1 X57.549 Y-5.314 E268.3986 F1350
G0 X58.115 Y-5.314 F4800
G1 X61.063 Y-2.365 E268.5329 F1350
G0 X61.063 Y-2.930 F4800
G1 X58.680 Y-5.314 E268.6415 F1350
G0 X59.246 Y-5.314 F4800
G1 X61.063 Y-3.496 E268.7243 F1350
G0 X61.063 Y-4.062 F4800
G1 X59.812 Y-5.314 E268.7814 F1350
G0 X60.377 Y-5.314 F4800
G1 X61.063 Y-4.627 E268.8126 F1350
G0 X61.352 Y-4.632 F4800
G0 X61.352 Y2.398
G0 X65.148 Y2.398
G0 X65.148 Y-4.698
G0 X65.148 Y-4.698
G0 X98.893 Y-5.278
G0 X98.880 Y-5.278
G1 X99.064 Y-5.094 E268.8210 F1350
G0 X99.064 Y-4.528 F4800
G1 X98.313 Y-5.278 E268.8552 F1350
G0 X97.747 Y-5.279 F4800
G1 X99.064 Y-3.963 E268.9152 F1350
G0 X99.064 Y-3.397 F4800
G1 X97.181 Y-5.280 E269.0010 F1350
G0 X96.615 Y-5.280 F4800
G1 X99.064 Y-2.831 E269.1125 F1350
G0 X99.064 Y-2.266 F4800
G1 X96.048 Y-5.281 E269.2499 F1350
G0 X95.482 Y-5.281 F4800
G1 X99.064 Y-1.700 E269.4131 F1350
G0 X99.064 Y-1.134 F4800
G1 X94.916 Y-5.282 E269.6021 F1350
G0 X94.349 Y-5.283 F4800
G1 X99.064 Y-0.568 E269.8169 F1350
G0 X99.064 Y-0.003 F4800
G1 X93.783 Y-5.283 E270.0575 F1350
G0 X93.217 Y-5.284 F4800
G1 X99.064 Y0.563 E270.3239 F1350
G0 X99.064 Y1.129 F4800
G1 X92.651 Y-5.284 E270.6160 F1350
G0 X92.084 Y-5.285 F4800
G1 X99.064 Y1.694 E270.9340 F1350
G0 X99.064 Y2.260 F4800
G1 X91.518 Y-5.286 E271.2778 F1350
G0 X90.952 Y-5.286 F4800
G1 X99.064 Y2.826 E271.6474 F1350
G0 X99.064 Y3.391 F4800
G1 X90.385 Y-5.287 E272.0428 F1350
G0 X89.819 Y-5.287 F4800
G1 X99.064 Y3.957 E272.4640 F1350
G0 X99.064 Y4.523 F4800
G1 X89.253 Y-5.288 E272.9110 F1350
G0 X88.687 Y-5.289 F4800
G1 X99.064 Y5.088 E273.3838 F1350
G0 X99.064 Y5.654 F4800
G1 X88.120 Y-5.289 E273.8824 F1350
G0 X87.554 Y-5.290 F4800
G1 X99.064 Y6.220 E274.4068 F1350
G0 X98.583 Y6.305 F4800
G1 X86.988 Y-5.290 E274.9351 F1350
G0 X86.422 Y-5.291 F4800
G1 X98.039 Y6.326 E275.4644 F1350
G0 X97.494 Y6.347 F4800
G1 X85.855 Y-5.292 E275.9947 F1350
G0 X85.289 Y-5.292 F4800
G1 X96.950 Y6.368 E276.5260 F1350
G0 X96.405 Y6.390 F4800
G1 X84.723 Y-5.293 E277.0583 F1350
G0 X84.156 Y-5.293 F4800
G1 X95.861 Y6.411 E277.5916 F1350
G0 X95.316 Y6.432 F4800
G1 X83.590 Y-5.294 E278.1258 F1350
G0 X83.024 Y-5.294 F4800
G1 X94.771 Y6.453 E278.6611 F1350
G0 X94.227 Y6.474 F4800
G1 X82.458 Y-5.295 E279.1973 F1350
G0 X81.891 Y-5.296 F4800
G1 X93.682 Y6.495 E279.7346 F1350
G0 X93.138 Y6.517 F4800
G1 X81.325 Y-5.296 E280.2728 F1350
G0 X80.759 Y-5.297 F4800
G1 X92.593 Y6.538 E280.8120 F1350
G0 X92.049 Y6.559 F4800
G1 X80.192 Y-5.297 E281.3522 F1350
G0 X79.626 Y-5.298 F4800
G1 X91.504 Y6.580 E281.8934 F1350
G0 X90.960 Y6.601 F4800
G1 X79.060 Y-5.299 E282.4357 F1350
G0 X78.494 Y-5.299 F4800
G1 X90.415 Y6.623 E282.9788 F1350
G0 X89.871 Y6.644 F4800
G1 X77.927 Y-5.300 E283.5230 F1350
G0 X77.361 Y-5.300 F4800
G1 X89.326 Y6.665 E284.0682 F1350
G0 X88.782 Y6.686 F4800
G1 X76.795 Y-5.301 E284.6144 F1350
G0 X76.228 Y-5.302 F4800
G1 X88.237 Y6.707 E285.1615 F1350
G0 X87.693 Y6.728 F4800
G1 X75.662 Y-5.302 E285.7097 F1350
G0 X75.096 Y-5.303 F4800
G1 X87.148 Y6.750 E286.2588 F1350
G0 X86.604 Y6.771 F4800
G1 X74.530 Y-5.303 E286.8089 F1350
G0 X73.963 Y-5.304 F4800
G1 X86.059 Y6.792 E287.3601 F1350
G0 X85.515 Y6.813 F4800
G1 X73.397 Y-5.305 E287.9122 F1350
G0 X72.831 Y-5.305 F4800
G1 X84.970 Y6.834 E288.4653 F1350
G0 X84.426 Y6.855 F4800
G1 X72.265 Y-5.306 E289.0194 F1350
G0 X71.698 Y-5.306 F4800
G1 X83.881 Y6.877 E289.5745 F1350
G0 X83.337 Y6.898 F4800
G1 X71.132 Y-5.307 E290.1306 F1350
G0 X70.566 Y-5.308 F4800
G1 X82.792 Y6.919 E290.6876 F1350
G0 X82.248 Y6.940 F4800
G1 X69.999 Y-5.308 E291.2457 F1350
G0 X69.433 Y-5.309 F4800
G1 X81.703 Y6.961 E291.8048 F1350
G0 X81.159 Y6.982 F4800
G1 X68.867 Y-5.309 E292.3648 F1350
G0 X68.301 Y-5.310 F4800
G1 X80.614 Y7.004 E292.9259 F1350
G0 X80.070 Y7.025 F4800
G1 X67.734 Y-5.311 E293.4879 F1350
G0 X67.168 Y-5.311 F4800
G1 X79.525 Y7.046 E294.0509 F1350
G0 X78.981 Y7.067 F4800
G1 X66.602 Y-5.312 E294.6149 F1350
G0 X66.035 Y-5.312 F4800
G1 X78.436 Y7.088 E295.1799 F1350
G0 X77.892 Y7.110 F4800
G1 X65.469 Y-5.313 E295.7460 F1350
G0 X65.436 Y-4.780 F4800
G1 X77.347 Y7.131 E296.2886 F1350
G0 X76.803 Y7.152 F4800
G1 X65.436 Y-4.214 E296.8065 F1350
G0 X65.436 Y-3.649 F4800
G1 X76.258 Y7.173 E297.2996 F1350
G0 X75.714 Y7.194 F4800
G1 X65.436 Y-3.083 E297.7678 F1350
G0 X65.436 Y-2.517 F4800
G1 X75.169 Y7.215 E298.2113 F1350
G0 X74.625 Y7.237 F4800
G1 X65.436 Y-1.952 E298.6299 F1350
G0 X65.436 Y-1.386 F4800
G1 X74.080 Y7.258 E299.0238 F1350
G0 X73.535 Y7.279 F4800
G1 X65.436 Y-0.820 E299.3928 F1350
G0 X65.436 Y-0.254 F4800
G1 X72.991 Y7.300 E299.7370 F1350
G0 X72.446 Y7.321 F4800
G1 X65.436 Y0.311 E300.0564 F1350
G0 X65.436 Y0.877 F4800
G1 X71.902 Y7.342 E300.3510 F1350
G0 X71.357 Y7.364 F4800
G1 X65.436 Y1.443 E300.6207 F1350
G0 X65.436 Y2.008 F4800
G1 X70.813 Y7.385 E300.8657 F1350
G0 X70.268 Y7.406 F4800
G1 X65.436 Y2.574 E301.0859 F1350
G0 X64.983 Y2.686 F4800
G1 X69.724 Y7.427 E301.3019 F1350
G0 X69.179 Y7.448 F4800
G1 X64.418 Y2.686 E301.5188 F1350
G0 X63.852 Y2.686 F4800
G1 X68.635 Y7.469 E301.7367 F1350
G0 X68.090 Y7.491 F4800
G1 X63.286 Y2.686 E301.9556 F1350
G0 X62.721 Y2.686 F4800
G1 X67.546 Y7.512 E302.1755 F1350
G0 X67.001 Y7.533 F4800
G1 X62.155 Y2.686 E302.3963 F1350
G0 X61.589 Y2.686 F4800
G1 X66.457 Y7.554 E302.6181 F1350
G0 X65.912 Y7.575 F4800
G1 X53.023 Y-5.314 E303.2053 F1350
G0 X52.458 Y-5.314 F4800
G1 X65.368 Y7.596 E303.7936 F1350
G0 X64.823 Y7.618 F4800
G1 X51.892 Y-5.314 E304.3827 F1350
G0 X51.326 Y-5.314 F4800
G1 X64.279 Y7.639 E304.9729 F1350
G0 X63.734 Y7.660 F4800
G1 X50.761 Y-5.314 E305.5640 F1350
G0 X50.195 Y-5.314 F4800
G1 X63.190 Y7.681 E306.1561 F1350
G0 X62.645 Y7.702 F4800
G1 X49.629 Y-5.314 E306.7491 F1350
G0 X49.064 Y-5.314 F4800
G1 X62.101 Y7.724 E307.3431 F1350
G0 X61.556 Y7.745 F4800
G1 X48.498 Y-5.314 E307.9381 F1350
G0 X47.932 Y-5.314 F4800
G1 X61.012 Y7.766 E308.5340 F1350
G0 X60.467 Y7.787 F4800
G1 X47.367 Y-5.314 E309.1309 F1350
G0 X46.801 Y-5.314 F4800
G1 X59.923 Y7.808 E309.7288 F1350
G0 X59.378 Y7.829 F4800
G1 X46.235 Y-5.314 E310.3276 F1350
G0 X45.669 Y-5.314 F4800
G1 X59.064 Y8.080 E310.9379 F1350
G0 X59.064 Y8.646 F4800
G1 X45.104 Y-5.314 E311.5739 F1350
G0 X44.538 Y-5.314 F4800
G1 X59.064 Y9.212 E312.2357 F1350
G0 X59.064 Y9.778 F4800
G1 X43.972 Y-5.314 E312.9233 F1350
G0 X43.407 Y-5.314 F4800
G1 X59.064 Y10.343 E313.6367 F1350
G0 X59.064 Y10.909 F4800
G1 X42.841 Y-5.314 E314.3758 F1350
G0 X42.275 Y-5.314 F4800
G1 X59.064 Y11.475 E315.1408 F1350
G0 X59.064 Y12.040 F4800
G1 X41.710 Y-5.314 E315.9314 F1350
G0 X40.662 Y-5.602 F4800
G0 X-2.916 Y-5.602
G0 X-2.916 Y-15.898
G0 X-0.916 Y-15.898
G0 X-0.916 Y-17.036
G0 X-0.916 Y-17.036
G0 X-1.217 Y-17.119
G0 X-1.204 Y-17.115
G1 X-1.903 Y-17.813 E315.9633 F1350
G0 X-2.469 Y-17.813 F4800
G1 X-1.204 Y-16.549 E316.0209 F1350
G0 X-1.407 Y-16.187 F4800
G1 X-3.034 Y-17.813 E316.0950 F1350
G0 X-3.600 Y-17.813 F4800
G1 X-1.973 Y-16.187 E316.1691 F1350
G0 X-2.539 Y-16.187 F4800
G1 X-4.166 Y-17.813 E316.2432 F1350
G0 X-4.731 Y-17.813 F4800
G1 X-3.104 Y-16.187 E316.3174 F1350
G0 X-3.205 Y-15.721 F4800
G1 X-5.297 Y-17.813 E316.4127 F1350
G0 X-5.863 Y-17.813 F4800
G1 X-3.205 Y-15.155 E316.5338 F1350
G0 X-3.205 Y-14.590 F4800
G1 X-6.428 Y-17.813 E316.6807 F1350
G0 X-6.994 Y-17.813 F4800
G1 X-3.205 Y-14.024 E316.8533 F1350
G0 X-3.205 Y-13.458 F4800
G1 X-7.560 Y-17.813 E317.0518 F1350
G0 X-8.125 Y-17.813 F4800
G1 X-3.205 Y-12.893 E317.2760 F1350
G0 X-3.205 Y-12.327 F4800
G1 X-8.691 Y-17.813 E317.5260 F1350
G0 X-9.257 Y-17.813 F4800
G1 X-3.205 Y-11.761 E317.8017 F1350
G0 X-3.205 Y-11.196 F4800
G1 X-9.822 Y-17.813 E318.1032 F1350
G0 X-10.388 Y-17.813 F4800
G1 X-3.205 Y-10.630 E318.4305 F1350
G0 X-3.205 Y-10.064 F4800
G1 X-10.954 Y-17.813 E318.7836 F1350
G0 X-11.520 Y-17.813 F4800
G1 X-3.205 Y-9.499 E319.1625 F1350
G0 X-3.205 Y-8.933 F4800
G1 X-10.332 Y-16.060 E319.4872 F1350
G0 X-10.332 Y-15.494 F4800
G1 X-3.205 Y-8.367 E319.8119 F1350
G0 X-3.205 Y-7.801 F4800
G1 X-10.332 Y-14.928 E320.1366 F1350
G0 X-10.332 Y-14.363 F4800
G1 X-3.205 Y-7.236 E320.4613 F1350
G0 X-3.205 Y-6.670 F4800
G1 X-10.332 Y-13.797 E320.7860 F1350
G0 X-10.332 Y-13.231 F4800
G1 X-3.205 Y-6.104 E321.1107 F1350
G0 X-3.205 Y-5.539 F4800
G1 X-10.332 Y-12.666 E321.4354 F1350
G0 X-10.332 Y-12.100 F4800
G1 X19.582 Y17.813 E322.7984 F1350
G0 X19.016 Y17.813 F4800
G1 X-10.332 Y-11.534 E324.1355 F1350
G0 X-10.332 Y-10.969 F4800
G1 X18.451 Y17.813 E325.4469 F1350
G0 X17.885 Y17.813 F4800
G1 X-10.332 Y-10.403 E326.7325 F1350
G0 X-10.332 Y-9.837 F4800
G1 X17.319 Y17.813 E327.9924 F1350
G0 X16.753 Y17.813 F4800
G1 X-10.331 Y-9.272 E329.2264 F1350
G0 X-10.332 Y-8.706 F4800
G1 X16.188 Y17.813 E330.4347 F1350
G0 X15.622 Y17.813 F4800
G1 X-10.331 Y-8.140 E331.6172 F1350
G0 X-10.331 Y-7.574 F4800
G1 X15.056 Y17.813 E332.7740 F1350
G0 X14.491 Y17.813 F4800
G1 X-10.331 Y-7.009 E333.9050 F1350
G0 X-10.331 Y-6.443 F4800
G1 X13.925 Y17.813 E335.0101 F1350
G0 X13.359 Y17.813 F4800
G1 X-10.331 Y-5.877 E336.0896 F1350
G0 X-10.333 Y-5.314 F4800
G1 X12.794 Y17.813 E337.1433 F1350
G0 X12.228 Y17.813 F4800
G1 X-10.899 Y-5.314 E338.1970 F1350
G0 X-11.465 Y-5.314 F4800
G1 X11.662 Y17.813 E339.2508 F1350
G0 X11.097 Y17.813 F4800
G1 X-12.030 Y-5.314 E340.3045 F1350
G0 X-12.596 Y-5.314 F4800
G1 X10.531 Y17.813 E341.3583 F1350
G0 X9.965 Y17.813 F4800
G1 X-13.162 Y-5.314 E342.4120 F1350
G0 X-13.727 Y-5.314 F4800
G1 X9.400 Y17.813 E343.4657 F1350
G0 X8.834 Y17.814 F4800
G1 X-14.293 Y-5.314 E344.5195 F1350
G0 X-14.859 Y-5.314 F4800
G1 X8.268 Y17.813 E345.5732 F1350
G0 X7.703 Y17.814 F4800
G1 X-15.424 Y-5.314 E346.6270 F1350
G0 X-15.990 Y-5.314 F4800
G1 X7.137 Y17.814 E347.6807 F1350
G0 X6.571 Y17.814 F4800
G1 X-13.331 Y-2.089 E348.5875 F1350
G0 X-13.331 Y-1.523 F4800
G1 X6.006 Y17.814 E349.4685 F1350
G0 X5.440 Y17.814 F4800
G1 X-13.331 Y-0.958 E350.3238 F1350
G0 X-13.331 Y-0.392 F4800
G1 X4.874 Y17.814 E351.1533 F1350
G0 X4.308 Y17.814 F4800
G1 X-13.331 Y0.174 E351.9570 F1350
G0 X-13.331 Y0.739 F4800
G1 X3.743 Y17.814 E352.7350 F1350
G0 X3.177 Y17.814 F4800
G1 X-13.331 Y1.305 E353.4871 F1350
G0 X-13.331 Y1.871 F4800
G1 X2.611 Y17.814 E354.2135 F1350
G0 X2.046 Y17.814 F4800
G1 X-13.331 Y2.436 E354.9141 F1350
G0 X-13.331 Y3.002 F4800
G1 X1.480 Y17.814 E355.5890 F1350
G0 X0.914 Y17.814 F4800
G1 X-13.331 Y3.568 E356.2380 F1350
G0 X-13.331 Y4.134 F4800
G1 X0.349 Y17.814 E356.8613 F1350
G0 X-0.217 Y17.814 F4800
G1 X-13.331 Y4.699 E357.4589 F1350
G0 X-13.410 Y5.186 F4800
G1 X-0.783 Y17.814 E358.0342 F1350
G0 X-1.348 Y17.814 F4800
G1 X-13.975 Y5.186 E358.6095 F1350
G0 X-14.541 Y5.186 F4800
G1 X-1.914 Y17.814 E359.1848 F1350
G0 X-2.480 Y17.814 F4800
G1 X-15.107 Y5.186 E359.7601 F1350
G0 X-13.546 Y7.313 F4800
G1 X-15.672 Y5.186 E359.8571 F1350
G0 X-16.238 Y5.186 F4800
G1 X-14.111 Y7.313 E359.9540 F1350
G0 X-14.677 Y7.313 F4800
G1 X-16.804 Y5.186 E360.0509 F1350
G0 X-17.370 Y5.186 F4800
G1 X-15.243 Y7.313 E360.1478 F1350
G0 X-15.808 Y7.313 F4800
G1 X-17.935 Y5.186 E360.2448 F1350
G0 X-18.501 Y5.186 F4800
G1 X-16.374 Y7.313 E360.3417 F1350
G0 X-16.940 Y7.313 F4800
G1 X-19.067 Y5.186 E360.4386 F1350
G0 X-19.632 Y5.186 F4800
G1 X-17.505 Y7.313 E360.5355 F1350
G0 X-18.071 Y7.313 F4800
G1 X-20.198 Y5.186 E360.6325 F1350
G0 X-20.764 Y5.186 F4800
G1 X-18.637 Y7.313 E360.7294 F1350
G0 X-19.202 Y7.313 F4800
G1 X-21.329 Y5.186 E360.8263 F1350
G0 X-21.895 Y5.186 F4800
G1 X-19.768 Y7.313 E360.9232 F1350
G0 X-20.334 Y7.313 F4800
G1 X-22.461 Y5.186 E361.0202 F1350
G0 X-23.026 Y5.186 F4800
G1 X-20.899 Y7.313 E361.1171 F1350
G0 X-21.465 Y7.313 F4800
G1 X-23.592 Y5.186 E361.2140 F1350
G0 X-24.158 Y5.186 F4800
G1 X-22.031 Y7.313 E361.3109 F1350
G0 X-22.596 Y7.313 F4800
G1 X-24.723 Y5.186 E361.4078 F1350
G0 X-25.289 Y5.186 F4800
G1 X-23.162 Y7.313 E361.5048 F1350
G0 X-23.728 Y7.313 F4800
G1 X-25.855 Y5.186 E361.6017 F1350
G0 X-26.421 Y5.186 F4800
G1 X-24.294 Y7.313 E361.6986 F1350
G0 X-24.859 Y7.313 F4800
G1 X-26.986 Y5.186 E361.7955 F1350
G0 X-27.552 Y5.186 F4800
G1 X-25.425 Y7.313 E361.8925 F1350
G0 X-25.991 Y7.313 F4800
G1 X-28.118 Y5.186 E361.9894 F1350
G0 X-28.683 Y5.186 F4800
G1 X-26.556 Y7.313 E362.0863 F1350
G0 X-27.122 Y7.313 F4800
G1 X-29.249 Y5.186 E362.1832 F1350
G0 X-29.815 Y5.186 F4800
G1 X-27.688 Y7.313 E362.2802 F1350
G0 X-28.253 Y7.313 F4800
G1 X-40.880 Y-5.314 E362.8555 F1350
G0 X-41.446 Y-5.314 F4800
G1 X-28.819 Y7.313 E363.4308 F1350
G0 X-29.385 Y7.313 F4800
G1 X-42.012 Y-5.314 E364.0061 F1350
G0 X-42.577 Y-5.314 F4800
G1 X-29.950 Y7.313 E364.5814 F1350
G0 X-30.205 Y7.625 F4800
G1 X-43.143 Y-5.314 E365.1709 F1350
G0 X-43.709 Y-5.314 F4800
G1 X-30.205 Y8.191 E365.7862 F1350
G0 X-30.205 Y8.756 F4800
G1 X-44.274 Y-5.314 E366.4273 F1350
G0 X-44.840 Y-5.314 F4800
G1 X-30.205 Y9.322 E367.0941 F1350
G0 X-30.205 Y9.888 F4800
G1 X-45.406 Y-5.314 E367.7867 F1350
G0 X-45.971 Y-5.314 F4800
G1 X-30.205 Y10.453 E368.5051 F1350
G0 X-30.205 Y11.019 F4800
G1 X-46.537 Y-5.314 E369.2493 F1350
G0 X-47.103 Y-5.314 F4800
G1 X-30.205 Y11.585 E370.0192 F1350
G0 X-30.205 Y12.150 F4800
G1 X-47.669 Y-5.314 E370.8149 F1350
G0 X-48.234 Y-5.314 F4800
G1 X-30.205 Y12.716 E371.6364 F1350
G0 X-30.205 Y13.282 F4800
G1 X-48.800 Y-5.314 E372.4837 F1350
G0 X-49.366 Y-5.314 F4800
G1 X-30.205 Y13.848 E373.3567 F1350
G0 X-30.205 Y14.413 F4800
G1 X-49.931 Y-5.314 E374.2555 F1350
G0 X-52.806 Y4.823 F4800
G1 X-50.041 Y7.587 E374.3814 F1350
G0 X-50.447 Y6.616 F4800
G1 X-53.380 Y3.683 E374.5151 F1350
G0 X-53.013 Y5.181 F4800
G1 X-49.269 Y8.925 E374.6856 F1350
G0 X-48.755 Y8.648 F4800
G0 X-46.904 Y8.648
G0 X-46.072 Y7.207
G0 X-46.072 Y7.207
G0 X-45.578 Y6.942
G0 X-45.590 Y6.948
G1 X-43.804 Y8.733 E374.7670 F1350
G0 X-43.597 Y8.375 F4800
G1 X-45.822 Y6.150 E374.8684 F1350
G0 X-46.594 Y4.812 F4800
G1 X-43.390 Y8.016 E375.0144 F1350
G0 X-42.921 Y7.781 F4800
G0 X-42.240 Y6.602
G0 X-40.575 Y6.602
G0 X-40.575 Y6.602
G0 X-39.990 Y6.308
G0 X-40.001 Y6.313
G1 X-51.628 Y-5.314 E375.5441 F1350
G0 X-52.194 Y-5.314 F4800
G1 X-40.567 Y6.313 E376.0739 F1350
G0 X-41.133 Y6.313 F4800
G1 X-52.760 Y-5.314 E376.6036 F1350
G0 X-53.325 Y-5.314 F4800
G1 X-41.698 Y6.313 E377.1334 F1350
G0 X-42.264 Y6.313 F4800
G1 X-53.891 Y-5.314 E377.6631 F1350
G0 X-54.457 Y-5.314 F4800
G1 X-42.562 Y6.582 E378.2051 F1350
G0 X-42.769 Y6.940 F4800
G1 X-55.022 Y-5.314 E378.7634 F1350
G0 X-55.588 Y-5.314 F4800
G1 X-42.976 Y7.299 E379.3381 F1350
G0 X-43.183 Y7.658 F4800
G1 X-56.154 Y-5.314 E379.9291 F1350
G0 X-56.720 Y-5.314 F4800
G1 X-46.842 Y4.564 E380.3791 F1350
G0 X-47.408 Y4.564 F4800
G1 X-57.285 Y-5.314 E380.8291 F1350
G0 X-57.851 Y-5.314 F4800
G1 X-47.974 Y4.564 E381.2791 F1350
G0 X-48.540 Y4.564 F4800
G1 X-58.417 Y-5.314 E381.7291 F1350
G0 X-58.982 Y-5.314 F4800
G1 X-49.105 Y4.564 E382.1792 F1350
G0 X-49.412 Y4.822 F4800
G1 X-59.548 Y-5.314 E382.6410 F1350
G0 X-60.114 Y-5.314 F4800
G1 X-49.619 Y5.181 E383.1191 F1350
G0 X-49.826 Y5.540 F4800
G1 X-60.679 Y-5.314 E383.6136 F1350
G0 X-61.245 Y-5.314 F4800
G1 X-50.033 Y5.898 E384.1245 F1350
G0 X-50.240 Y6.257 F4800
G1 X-61.811 Y-5.314 E384.6517 F1350
G0 X-62.376 Y-5.314 F4800
G1 X-54.237 Y2.826 E385.0225 F1350
G0 X-54.808 Y2.820 F4800
G1 X-62.942 Y-5.314 E385.3931 F1350
G0 X-63.508 Y-5.314 F4800
G1 X-55.379 Y2.815 E385.7635 F1350
G0 X-55.950 Y2.810 F4800
G1 X-64.073 Y-5.314 E386.1336 F1350
G0 X-64.639 Y-5.314 F4800
G1 X-56.253 Y3.073 E386.5157 F1350
G0 X-56.463 Y3.428 F4800
G1 X-65.205 Y-5.314 E386.9140 F1350
G0 X-65.770 Y-5.314 F4800
G1 X-56.673 Y3.784 E387.3285 F1350
G0 X-56.882 Y4.140 F4800
G1 X-66.336 Y-5.314 E387.7592 F1350
G0 X-66.902 Y-5.314 F4800
G1 X-57.092 Y4.496 E388.2062 F1350
G0 X-56.977 Y5.177 F4800
G1 X-67.468 Y-5.314 E388.6842 F1350
G0 X-68.033 Y-5.314 F4800
G1 X-56.234 Y6.486 E389.2218 F1350
; ------------------------------------
; Layer #1
; ------------------------------------
M106 S0 ;turn off fan
G21 ; mm
G90 ; abs
G92 E0 ;reset extr
G0 F4200 E-7.0000
G0 F4800 Z1.800
G0 X-53.810 Y5.539
G0 X-2.916 Y-14.350
G0 Z0.800
G0 F4200 E0.0000
;segType:Loop
G1 X-2.916 Y-5.602 E0.3450 F2400
G1 X61.286 Y-5.602 E2.8769
G1 X61.352 Y-5.512 E2.8813
G1 X61.352 Y2.398 E3.1932
G1 X65.148 Y2.398 E3.3430
G1 X65.148 Y-5.598 E3.6583
G1 X65.227 Y-5.602 E3.6614
G1 X99.352 Y-5.602 E5.0071
G1 X99.352 Y8.102 E5.5475
G1 X59.352 Y8.102 E7.1250
G1 X59.352 Y11.898 E7.2747
G1 X99.352 Y11.898 E8.8521
G1 X99.352 Y18.102 E9.0967
G1 X-99.352 Y18.102 E16.9328
G1 X-99.352 Y-5.602 E17.8675
G1 X-10.620 Y-5.602 E21.3668
G1 X-10.620 Y-15.898 E21.7728
G1 X-12.619 Y-15.898 E21.8517
G1 X-12.619 Y-18.102 E21.9386
G1 X-0.916 Y-18.102 E22.4001
G1 X-0.916 Y-15.898 E22.4870
G1 X-2.916 Y-15.898 E22.5659
G1 X-2.916 Y-14.550 E22.6137
;segType:Perimeter
G0 X-2.468 Y-15.590 F4800
G1 X-2.468 Y-15.390 E22.6208 F1200
G1 X-2.468 Y-6.050 E22.9496
G1 X61.443 Y-6.050 E25.2000
G1 X61.800 Y-6.025 E25.2126
G1 X61.800 Y1.950 E25.4934
G1 X64.700 Y1.950 E25.5956
G1 X64.700 Y-6.022 E25.8763
G1 X65.215 Y-6.050 E25.8944
G1 X99.800 Y-6.050 E27.1122
G1 X99.800 Y8.550 E27.6262
G1 X59.800 Y8.550 E29.0347
G1 X59.800 Y11.450 E29.1368
G1 X99.800 Y11.450 E30.5452
G1 X99.800 Y18.550 E30.7952
G1 X-99.800 Y18.550 E37.8232
G1 X-99.800 Y-6.050 E38.6893
G1 X-11.068 Y-6.050 E41.8136
G1 X-11.068 Y-15.450 E42.1447
G1 X-13.068 Y-15.450 E42.2151
G1 X-13.068 Y-18.550 E42.3242
G1 X-0.468 Y-18.550 E42.7678
G1 X-0.468 Y-15.450 E42.8769
G1 X-2.408 Y-15.450 E42.9453
G0 X-2.608 Y-15.450 F4800
G0 X-2.916 Y-15.288
G0 X-10.620 Y-11.236
G0 X-10.620 Y-11.236
G0 X-10.620 Y-5.602
G0 X-21.329 Y-5.602
G0 X-21.329 Y-5.602
G0 X-28.368 Y-1.899
G0 X-28.368 Y-1.899
G0 X-28.380 Y-1.892
;segType:Loop
G0 X-28.368 Y-1.899
G1 X-13.619 Y-1.899 E43.5269 F2400
G1 X-13.619 Y4.898 E43.7949
G1 X-29.916 Y4.898 E44.4376
G1 X-29.916 Y-1.899 E44.7057
G1 X-28.568 Y-1.899 E44.7535
;segType:Perimeter
G0 X-29.608 Y-1.451 F4800
G1 X-29.408 Y-1.451 E44.7606 F1200
G1 X-14.067 Y-1.451 E45.3007
G1 X-14.067 Y4.450 E45.5085
G1 X-29.468 Y4.450 E46.0508
G1 X-29.468 Y-1.391 E46.2564
G0 X-29.468 Y-1.591 F4800
G0 X-28.692 Y4.898
G0 X-28.368 Y7.602
G0 X-28.368 Y7.602
G0 X-28.367 Y7.615
;segType:Loop
G0 X-28.368 Y7.602
G1 X-13.619 Y7.602 E46.8381 F2400
G1 X-13.619 Y14.398 E47.1061
G1 X-29.916 Y14.398 E47.7488
G1 X-29.916 Y7.602 E48.0168
G1 X-28.568 Y7.602 E48.0647
;segType:Perimeter
G0 X-29.408 Y8.050 F4800
G1 X-14.067 Y8.050 E48.6049 F1200
G1 X-14.067 Y13.950 E48.8126
G1 X-29.468 Y13.950 E49.3549
G1 X-29.468 Y8.110 E49.5606
G0 X-29.468 Y7.910 F4800
;segType:Loop
G0 X-39.080 Y7.778
G1 X-38.519 Y8.750 E49.6048 F2400
G1 X-39.760 Y10.899 E49.7027
G1 X-42.240 Y10.899 E49.8005
G1 X-43.481 Y8.750 E49.8983
G1 X-42.240 Y6.602 E49.9962
G1 X-39.760 Y6.602 E50.0940
G1 X-39.180 Y7.605 E50.1397
;segType:Perimeter
G0 X-40.088 Y6.928 F4800
G1 X-39.988 Y7.102 E50.1467 F1200
G1 X-39.037 Y8.750 E50.2138
G1 X-40.018 Y10.451 E50.2829
G1 X-41.982 Y10.451 E50.3520
G1 X-42.964 Y8.750 E50.4212
G1 X-41.982 Y7.050 E50.4903
G1 X-40.078 Y7.050 E50.5573
G0 X-39.878 Y7.050 F4800
;segType:Loop
G0 X-47.737 Y4.852
G1 X-46.904 Y4.852 E50.5902 F2400
G1 X-45.808 Y6.750 E50.6766
G1 X-46.904 Y8.648 E50.7631
G1 X-49.096 Y8.648 E50.8495
G1 X-50.192 Y6.750 E50.9360
G1 X-49.096 Y4.852 E51.0224
G1 X-47.937 Y4.852 E51.0681
;segType:Perimeter
G0 X-48.977 Y5.300 F4800
G1 X-48.777 Y5.300 E51.0751 F1200
G1 X-47.163 Y5.300 E51.1320
G1 X-46.325 Y6.750 E51.1910
G1 X-47.163 Y8.200 E51.2499
G1 X-48.838 Y8.200 E51.3089
G1 X-49.675 Y6.750 E51.3679
G1 X-48.867 Y5.352 E51.4247
G0 X-48.768 Y5.178 F4800
;segType:Loop
G0 X-54.557 Y3.120
G1 X-54.032 Y3.130 E51.4455 F2400
G1 X-53.097 Y4.750 E51.5192
G1 X-54.048 Y6.398 E51.5943
G1 X-55.952 Y6.398 E51.6694
G1 X-56.668 Y5.158 E51.7258
G1 X-56.866 Y4.673 E51.7465
G1 X-55.915 Y3.095 E51.8191
G1 X-54.757 Y3.116 E51.8648
;segType:Perimeter
G0 X-55.605 Y3.549 F4800
G1 X-54.293 Y3.573 E51.9110 F1200
G1 X-53.614 Y4.750 E51.9589
G1 X-54.307 Y5.950 E52.0077
G1 X-55.693 Y5.950 E52.0565
G1 X-56.264 Y4.961 E52.0967
G1 X-56.366 Y4.712 E52.1062
G1 X-55.696 Y3.599 E52.1519
G0 X-55.593 Y3.428 F4800
;segType:Loop
G0 X-88.745 Y1.146
G1 X-88.577 Y1.223 E52.1592 F2400
G1 X-88.171 Y1.500 E52.1786
G1 X-87.817 Y1.841 E52.1980
G1 X-87.525 Y2.238 E52.2174
G1 X-87.305 Y2.678 E52.2368
G1 X-87.163 Y3.148 E52.2562
G1 X-87.102 Y3.627 E52.2752
G1 X-87.123 Y4.118 E52.2946
G1 X-87.226 Y4.600 E52.3140
G1 X-87.410 Y5.056 E52.3334
G1 X-87.668 Y5.475 E52.3528
G1 X-87.993 Y5.844 E52.3722
G1 X-88.376 Y6.153 E52.3916
G1 X-88.805 Y6.393 E52.4110
G1 X-89.269 Y6.557 E52.4305
G1 X-89.754 Y6.640 E52.4499
G1 X-90.246 Y6.640 E52.4693
G1 X-90.731 Y6.557 E52.4887
G1 X-91.195 Y6.393 E52.5081
G1 X-91.624 Y6.153 E52.5275
G1 X-92.007 Y5.844 E52.5469
G1 X-92.333 Y5.474 E52.5663
G1 X-92.594 Y5.047 E52.5860
G1 X-92.776 Y4.590 E52.6055
G1 X-92.878 Y4.109 E52.6249
G1 X-92.897 Y3.617 E52.6443
G1 X-92.833 Y3.129 E52.6637
G1 X-92.687 Y2.660 E52.6831
G1 X-92.464 Y2.221 E52.7025
G1 X-92.171 Y1.827 E52.7219
G1 X-91.814 Y1.488 E52.7412
G1 X-91.406 Y1.213 E52.7606
G1 X-90.957 Y1.012 E52.7800
G1 X-90.481 Y0.890 E52.7994
G1 X-89.990 Y0.850 E52.8188
G1 X-89.500 Y0.893 E52.8382
G1 X-89.024 Y1.019 E52.8576
G1 X-88.927 Y1.063 E52.8616
;segType:Perimeter
G0 X-90.129 Y1.269 F4800
G1 X-89.932 Y1.305 E52.8687 F1200
G1 X-89.578 Y1.336 E52.8812
G1 X-89.176 Y1.442 E52.8958
G1 X-88.798 Y1.615 E52.9105
G1 X-88.454 Y1.849 E52.9251
G1 X-88.155 Y2.137 E52.9397
G1 X-87.909 Y2.472 E52.9544
G1 X-87.723 Y2.844 E52.9690
G1 X-87.603 Y3.242 E52.9836
G1 X-87.551 Y3.646 E52.9980
G1 X-87.569 Y4.061 E53.0126
G1 X-87.656 Y4.468 E53.0273
G1 X-87.811 Y4.853 E53.0419
G1 X-88.029 Y5.207 E53.0565
G1 X-88.304 Y5.520 E53.0712
G1 X-88.627 Y5.781 E53.0858
G1 X-88.990 Y5.984 E53.1004
G1 X-89.382 Y6.122 E53.1151
G1 X-89.792 Y6.192 E53.1297
G1 X-90.208 Y6.192 E53.1443
G1 X-90.618 Y6.122 E53.1590
G1 X-91.010 Y5.984 E53.1736
G1 X-91.373 Y5.781 E53.1883
G1 X-91.696 Y5.520 E53.2029
G1 X-91.971 Y5.207 E53.2176
G1 X-92.192 Y4.846 E53.2325
G1 X-92.346 Y4.460 E53.2471
G1 X-92.432 Y4.053 E53.2617
G1 X-92.448 Y3.638 E53.2764
G1 X-92.394 Y3.226 E53.2910
G1 X-92.271 Y2.829 E53.3056
G1 X-92.082 Y2.458 E53.3203
G1 X-91.834 Y2.125 E53.3349
G1 X-91.533 Y1.838 E53.3495
G1 X-91.188 Y1.607 E53.3642
G1 X-90.809 Y1.437 E53.3788
G1 X-90.406 Y1.333 E53.3935
G1 X-90.052 Y1.304 E53.4060
G0 X-89.855 Y1.270 F4800
G0 X-89.847 Y1.312
G0 X-89.000 Y5.987
G0 X-89.000 Y5.987
G0 X-88.864 Y6.734
;segType:HShell
G0 X-88.867 Y6.721
G1 X-99.064 Y16.917 E53.9591 F1800
G0 X-99.064 Y16.352 F4800
G1 X-89.622 Y6.910 E54.4712 F1800
G0 X-90.206 Y6.928 F4800
G1 X-99.064 Y15.786 E54.9516 F1800
G0 X-99.064 Y15.220 F4800
G1 X-90.698 Y6.855 E55.4054 F1800
G0 X-91.130 Y6.722 F4800
G1 X-99.064 Y14.655 E55.8357 F1800
G0 X-99.064 Y14.089 F4800
G1 X-91.518 Y6.543 E56.2450 F1800
G0 X-91.867 Y6.327 F4800
G1 X-99.064 Y13.523 E56.6353 F1800
G0 X-99.064 Y12.958 F4800
G1 X-92.181 Y6.075 E57.0087 F1800
G0 X-92.449 Y5.778 F4800
G1 X-99.064 Y12.392 E57.3674 F1800
G0 X-99.064 Y11.826 F4800
G1 X-92.686 Y5.449 E57.7133 F1800
G0 X-92.889 Y5.086 F4800
G1 X-99.064 Y11.261 E58.0483 F1800
G0 X-99.064 Y10.695 F4800
G1 X-93.050 Y4.681 E58.3745 F1800
G0 X-93.150 Y4.216 F4800
G1 X-99.064 Y10.129 E58.6952 F1800
G0 X-99.064 Y9.564 F4800
G1 X-93.183 Y3.683 E59.0142 F1800
G0 X-93.107 Y3.042 F4800
G1 X-99.064 Y8.998 E59.3373 F1800
G0 X-99.064 Y8.432 F4800
G1 X-92.721 Y2.089 E59.6813 F1800
G0 X-98.894 Y-5.314 F4800
G1 X-99.064 Y-5.144 E59.6905 F1800
G0 X-99.064 Y-4.579 F4800
G1 X-98.329 Y-5.314 E59.7304 F1800
G0 X-97.763 Y-5.314 F4800
G1 X-99.064 Y-4.013 E59.8009 F1800
G0 X-99.064 Y-3.447 F4800
G1 X-97.197 Y-5.314 E59.9022 F1800
G0 X-96.632 Y-5.314 F4800
G1 X-99.064 Y-2.882 E60.0341 F1800
G0 X-99.064 Y-2.316 F4800
G1 X-96.066 Y-5.314 E60.1967 F1800
G0 X-95.500 Y-5.314 F4800
G1 X-99.064 Y-1.750 E60.3899 F1800
G0 X-99.064 Y-1.184 F4800
G1 X-94.934 Y-5.314 E60.6139 F1800
G0 X-94.369 Y-5.314 F4800
G1 X-99.064 Y-0.619 E60.8686 F1800
G0 X-99.064 Y-0.053 F4800
G1 X-93.803 Y-5.314 E61.1539 F1800
G0 X-93.237 Y-5.314 F4800
G1 X-99.064 Y0.513 E61.4699 F1800
G0 X-99.064 Y1.078 F4800
G1 X-92.672 Y-5.314 E61.8166 F1800
G0 X-92.106 Y-5.314 F4800
G1 X-99.064 Y1.644 E62.1940 F1800
G0 X-99.064 Y2.210 F4800
G1 X-91.540 Y-5.314 E62.6021 F1800
G0 X-90.975 Y-5.314 F4800
G1 X-99.064 Y2.775 E63.0408 F1800
G0 X-99.064 Y3.341 F4800
G1 X-90.409 Y-5.314 E63.5102 F1800
G0 X-89.843 Y-5.314 F4800
G1 X-99.064 Y3.907 E64.0104 F1800
G0 X-99.064 Y4.472 F4800
G1 X-89.278 Y-5.314 E64.5412 F1800
G0 X-88.712 Y-5.314 F4800
G1 X-99.064 Y5.038 E65.1026 F1800
G0 X-99.064 Y5.604 F4800
G1 X-88.146 Y-5.314 E65.6948 F1800
G0 X-87.581 Y-5.314 F4800
G1 X-99.064 Y6.169 E66.3177 F1800
G0 X-99.064 Y6.735 F4800
G1 X-87.015 Y-5.314 E66.9712 F1800
G0 X-86.449 Y-5.314 F4800
G1 X-99.064 Y7.301 E67.6554 F1800
G0 X-99.064 Y7.866 F4800
G1 X-85.884 Y-5.314 E68.3703 F1800
G0 X-85.318 Y-5.314 F4800
G1 X-91.685 Y1.054 E68.7157 F1800
G0 X-90.720 Y0.654 F4800
G1 X-84.752 Y-5.314 E69.0394 F1800
G0 X-84.186 Y-5.314 F4800
G1 X-90.067 Y0.567 E69.3583 F1800
G0 X-89.535 Y0.601 F4800
G1 X-83.621 Y-5.314 E69.6791 F1800
G0 X-83.055 Y-5.314 F4800
G1 X-89.076 Y0.707 E70.0057 F1800
G0 X-88.668 Y0.865 F4800
G1 X-82.489 Y-5.314 E70.3408 F1800
G0 X-81.924 Y-5.314 F4800
G1 X-88.300 Y1.063 E70.6867 F1800
G0 X-87.967 Y1.296 F4800
G1 X-81.358 Y-5.314 E71.0452 F1800
G0 X-80.792 Y-5.314 F4800
G1 X-87.679 Y1.573 E71.4188 F1800
G0 X-87.426 Y1.886 F4800
G1 X-80.227 Y-5.314 E71.8093 F1800
G0 X-79.661 Y-5.314 F4800
G1 X-87.206 Y2.232 E72.2185 F1800
G0 X-87.024 Y2.615 F4800
G1 X-79.095 Y-5.314 E72.6486 F1800
G0 X-78.530 Y-5.314 F4800
G1 X-86.892 Y3.049 E73.1022 F1800
G0 X-86.822 Y3.545 F4800
G1 X-77.964 Y-5.314 E73.5826 F1800
G0 X-77.398 Y-5.314 F4800
G1 X-86.835 Y4.123 E74.0945 F1800
G0 X-87.030 Y4.884 F4800
G1 X-76.833 Y-5.314 E74.6476 F1800
G0 X-76.267 Y-5.314 F4800
G1 X-99.064 Y17.483 E75.8842 F1800
G0 X-98.828 Y17.813 F4800
G1 X-75.701 Y-5.314 E77.1386 F1800
G0 X-75.135 Y-5.314 F4800
G1 X-98.262 Y17.813 E78.3930 F1800
G0 X-97.697 Y17.813 F4800
G1 X-74.570 Y-5.314 E79.6475 F1800
G0 X-74.004 Y-5.314 F4800
G1 X-97.131 Y17.813 E80.9019 F1800
G0 X-96.565 Y17.813 F4800
G1 X-73.438 Y-5.314 E82.1564 F1800
G0 X-72.873 Y-5.314 F4800
G1 X-96.000 Y17.813 E83.4108 F1800
G0 X-95.434 Y17.813 F4800
G1 X-72.307 Y-5.314 E84.6652 F1800
G0 X-71.741 Y-5.314 F4800
G1 X-94.868 Y17.813 E85.9197 F1800
G0 X-94.303 Y17.813 F4800
G1 X-71.176 Y-5.314 E87.1741 F1800
G0 X-70.610 Y-5.314 F4800
G1 X-93.737 Y17.813 E88.4286 F1800
G0 X-93.171 Y17.813 F4800
G1 X-70.044 Y-5.314 E89.6830 F1800
G0 X-69.479 Y-5.314 F4800
G1 X-92.606 Y17.813 E90.9374 F1800
G0 X-92.040 Y17.813 F4800
G1 X-68.913 Y-5.314 E92.1919 F1800
G0 X-68.347 Y-5.314 F4800
G1 X-91.474 Y17.813 E93.4463 F1800
G0 X-90.909 Y17.813 F4800
G1 X-67.782 Y-5.314 E94.7008 F1800
G0 X-67.216 Y-5.314 F4800
G1 X-90.343 Y17.813 E95.9552 F1800
G0 X-89.777 Y17.813 F4800
G1 X-66.650 Y-5.314 E97.2096 F1800
G0 X-66.084 Y-5.314 F4800
G1 X-89.212 Y17.813 E98.4641 F1800
G0 X-88.646 Y17.813 F4800
G1 X-65.519 Y-5.314 E99.7185 F1800
G0 X-64.953 Y-5.314 F4800
G1 X-88.080 Y17.813 E100.9730 F1800
G0 X-87.514 Y17.813 F4800
G1 X-64.387 Y-5.314 E102.2274 F1800
G0 X-63.822 Y-5.314 F4800
G1 X-86.949 Y17.813 E103.4818 F1800
G0 X-86.383 Y17.813 F4800
G1 X-63.256 Y-5.314 E104.7363 F1800
G0 X-62.690 Y-5.314 F4800
G1 X-85.817 Y17.813 E105.9907 F1800
G0 X-85.252 Y17.813 F4800
G1 X-62.125 Y-5.314 E107.2452 F1800
G0 X-61.559 Y-5.314 F4800
G1 X-84.686 Y17.813 E108.4996 F1800
G0 X-84.120 Y17.813 F4800
G1 X-60.993 Y-5.314 E109.7540 F1800
G0 X-60.428 Y-5.314 F4800
G1 X-83.555 Y17.813 E111.0085 F1800
G0 X-82.989 Y17.813 F4800
G1 X-59.862 Y-5.314 E112.2629 F1800
G0 X-59.296 Y-5.314 F4800
G1 X-82.423 Y17.813 E113.5174 F1800
G0 X-81.858 Y17.813 F4800
G1 X-58.731 Y-5.314 E114.7718 F1800
G0 X-58.165 Y-5.314 F4800
G1 X-81.292 Y17.813 E116.0262 F1800
G0 X-80.726 Y17.813 F4800
G1 X-57.599 Y-5.314 E117.2807 F1800
G0 X-57.034 Y-5.314 F4800
G1 X-80.161 Y17.813 E118.5351 F1800
G0 X-79.595 Y17.813 F4800
G1 X-56.468 Y-5.314 E119.7896 F1800
G0 X-55.902 Y-5.314 F4800
G1 X-79.029 Y17.813 E121.0440 F1800
G0 X-78.463 Y17.813 F4800
G1 X-55.336 Y-5.314 E122.2984 F1800
G0 X-54.771 Y-5.314 F4800
G1 X-77.898 Y17.813 E123.5529 F1800
G0 X-77.332 Y17.813 F4800
G1 X-54.205 Y-5.314 E124.8073 F1800
G0 X-53.639 Y-5.314 F4800
G1 X-76.766 Y17.813 E126.0618 F1800
G0 X-76.201 Y17.813 F4800
G1 X-53.074 Y-5.314 E127.3162 F1800
G0 X-52.508 Y-5.314 F4800
G1 X-75.635 Y17.813 E128.5707 F1800
G0 X-75.069 Y17.813 F4800
G1 X-51.942 Y-5.314 E129.8251 F1800
G0 X-51.377 Y-5.314 F4800
G1 X-74.504 Y17.813 E131.0795 F1800
G0 X-73.938 Y17.813 F4800
G1 X-50.811 Y-5.314 E132.3340 F1800
G0 X-50.245 Y-5.314 F4800
G1 X-73.372 Y17.813 E133.5884 F1800
G0 X-72.807 Y17.813 F4800
G1 X-49.680 Y-5.314 E134.8429 F1800
G0 X-49.114 Y-5.314 F4800
G1 X-72.241 Y17.813 E136.0973 F1800
G0 X-71.675 Y17.813 F4800
G1 X-48.548 Y-5.314 E137.3517 F1800
G0 X-47.983 Y-5.314 F4800
G1 X-71.110 Y17.813 E138.6062 F1800
G0 X-70.544 Y17.813 F4800
G1 X-56.897 Y4.167 E139.3464 F1800
G0 X-57.079 Y4.914 F4800
G1 X-69.978 Y17.813 E140.0461 F1800
G0 X-69.413 Y17.813 F4800
G1 X-56.911 Y5.312 E140.7241 F1800
G0 X-56.704 Y5.671 F4800
G1 X-68.847 Y17.813 E141.3828 F1800
G0 X-68.281 Y17.813 F4800
G1 X-56.497 Y6.030 E142.0219 F1800
G0 X-56.290 Y6.388 F4800
G1 X-67.715 Y17.813 E142.6417 F1800
G0 X-67.150 Y17.813 F4800
G1 X-56.023 Y6.687 E143.2452 F1800
G0 X-55.457 Y6.687 F4800
G1 X-66.584 Y17.813 E143.8488 F1800
G0 X-66.018 Y17.813 F4800
G1 X-54.891 Y6.687 E144.4523 F1800
G0 X-54.326 Y6.687 F4800
G1 X-65.453 Y17.813 E145.0559 F1800
G0 X-64.887 Y17.813 F4800
G1 X-41.760 Y-5.314 E146.3103 F1800
G0 X-41.194 Y-5.314 F4800
G1 X-64.321 Y17.813 E147.5647 F1800
G0 X-63.756 Y17.813 F4800
G1 X-40.629 Y-5.314 E148.8192 F1800
G0 X-40.063 Y-5.314 F4800
G1 X-63.190 Y17.813 E150.0736 F1800
G0 X-62.624 Y17.813 F4800
G1 X-39.497 Y-5.314 E151.3281 F1800
G0 X-38.932 Y-5.314 F4800
G1 X-48.809 Y4.564 E151.8638 F1800
G0 X-48.243 Y4.564 F4800
G1 X-38.366 Y-5.314 E152.3996 F1800
G0 X-37.800 Y-5.314 F4800
G1 X-47.677 Y4.564 E152.9353 F1800
G0 X-47.112 Y4.564 F4800
G1 X-37.234 Y-5.314 E153.4711 F1800
G0 X-36.669 Y-5.314 F4800
G1 X-46.667 Y4.685 E154.0134 F1800
G0 X-46.460 Y5.044 F4800
G1 X-36.103 Y-5.314 E154.5752 F1800
G0 X-35.537 Y-5.314 F4800
G1 X-46.253 Y5.402 E155.1564 F1800
G0 X-46.046 Y5.761 F4800
G1 X-34.972 Y-5.314 E155.7571 F1800
G0 X-34.406 Y-5.314 F4800
G1 X-45.839 Y6.120 E156.3773 F1800
G0 X-45.632 Y6.478 F4800
G1 X-33.840 Y-5.314 E157.0169 F1800
G0 X-33.275 Y-5.314 F4800
G1 X-45.663 Y7.074 E157.6888 F1800
G0 X-30.205 Y1.799 F4800
G1 X-46.219 Y17.813 E158.5575 F1800
G0 X-45.654 Y17.813 F4800
G1 X-30.205 Y2.364 E159.3955 F1800
G0 X-30.205 Y2.930 F4800
G1 X-45.088 Y17.813 E160.2028 F1800
G0 X-44.522 Y17.813 F4800
G1 X-30.205 Y3.496 E160.9794 F1800
G0 X-30.205 Y4.061 F4800
G1 X-43.957 Y17.813 E161.7253 F1800
G0 X-43.391 Y17.813 F4800
G1 X-30.205 Y4.627 E162.4406 F1800
G0 X-30.198 Y5.186 F4800
G1 X-42.825 Y17.813 E163.1255 F1800
G0 X-42.260 Y17.813 F4800
G1 X-29.633 Y5.186 E163.8104 F1800
G0 X-29.067 Y5.186 F4800
G1 X-41.694 Y17.813 E164.4953 F1800
G0 X-41.128 Y17.813 F4800
G1 X-28.501 Y5.186 E165.1802 F1800
G0 X-27.936 Y5.186 F4800
G1 X-30.063 Y7.313 E165.2956 F1800
G0 X-29.497 Y7.313 F4800
G1 X-27.370 Y5.186 E165.4109 F1800
G0 X-26.804 Y5.186 F4800
G1 X-28.931 Y7.313 E165.5263 F1800
G0 X-28.365 Y7.313 F4800
G1 X-26.239 Y5.186 E165.6417 F1800
G0 X-25.673 Y5.186 F4800
G1 X-27.800 Y7.313 E165.7570 F1800
G0 X-27.234 Y7.313 F4800
G1 X-25.107 Y5.186 E165.8724 F1800
G0 X-24.541 Y5.186 F4800
G1 X-26.668 Y7.313 E165.9878 F1800
G0 X-26.103 Y7.313 F4800
G1 X-23.976 Y5.186 E166.1032 F1800
G0 X-23.410 Y5.186 F4800
G1 X-25.537 Y7.313 E166.2185 F1800
G0 X-24.971 Y7.313 F4800
G1 X-22.844 Y5.186 E166.3339 F1800
G0 X-22.279 Y5.186 F4800
G1 X-24.406 Y7.313 E166.4493 F1800
G0 X-23.840 Y7.313 F4800
G1 X-21.713 Y5.186 E166.5646 F1800
G0 X-21.147 Y5.186 F4800
G1 X-23.274 Y7.313 E166.6800 F1800
G0 X-22.709 Y7.313 F4800
G1 X-20.582 Y5.186 E166.7954 F1800
G0 X-20.016 Y5.186 F4800
G1 X-22.143 Y7.313 E166.9108 F1800
G0 X-21.577 Y7.313 F4800
G1 X-19.450 Y5.186 E167.0261 F1800
G0 X-18.885 Y5.186 F4800
G1 X-21.012 Y7.313 E167.1415 F1800
G0 X-20.446 Y7.313 F4800
G1 X-18.319 Y5.186 E167.2569 F1800
G0 X-17.753 Y5.186 F4800
G1 X-19.880 Y7.313 E167.3722 F1800
G0 X-19.314 Y7.313 F4800
G1 X-17.188 Y5.186 E167.4876 F1800
G0 X-16.622 Y5.186 F4800
G1 X-18.749 Y7.313 E167.6030 F1800
G0 X-18.183 Y7.313 F4800
G1 X-16.056 Y5.186 E167.7184 F1800
G0 X-15.490 Y5.186 F4800
G1 X-17.617 Y7.313 E167.8337 F1800
G0 X-17.052 Y7.313 F4800
G1 X-14.925 Y5.186 E167.9491 F1800
G0 X-14.359 Y5.186 F4800
G1 X-16.486 Y7.313 E168.0645 F1800
G0 X-15.920 Y7.313 F4800
G1 X-13.793 Y5.186 E168.1798 F1800
G0 X-13.331 Y4.724 F4800
G1 X-3.205 Y-5.402 E168.7291 F1800
G0 X-3.205 Y-5.968 F4800
G1 X-13.331 Y4.159 E169.2784 F1800
G0 X-13.331 Y3.593 F4800
G1 X-3.205 Y-6.534 E169.8277 F1800
G0 X-3.205 Y-7.099 F4800
G1 X-13.331 Y3.027 E170.3770 F1800
G0 X-13.331 Y2.462 F4800
G1 X-3.205 Y-7.665 E170.9263 F1800
G0 X-3.205 Y-8.231 F4800
G1 X-13.331 Y1.896 E171.4756 F1800
G0 X-13.331 Y1.330 F4800
G1 X-3.205 Y-8.797 E172.0248 F1800
G0 X-3.205 Y-9.362 F4800
G1 X-13.331 Y0.765 E172.5741 F1800
G0 X-13.331 Y0.199 F4800
G1 X-3.205 Y-9.928 E173.1234 F1800
G0 X-3.205 Y-10.494 F4800
G1 X-13.331 Y-0.367 E173.6727 F1800
G0 X-13.331 Y-0.933 F4800
G1 X-3.205 Y-11.059 E174.2220 F1800
G0 X-3.205 Y-11.625 F4800
G1 X-13.331 Y-1.498 E174.7713 F1800
G0 X-13.331 Y-2.064 F4800
G1 X-3.205 Y-12.191 E175.3206 F1800
G0 X-2.916 Y-12.128 F4800
G0 X-2.916 Y-5.602
G0 X27.035 Y-5.602
G0 X27.035 Y-5.602
G0 X61.352 Y1.875
G0 X61.352 Y1.875
G0 X63.752 Y2.398
G0 X63.752 Y2.398
G0 X65.087 Y2.689
G0 X65.074 Y2.687
G1 X59.947 Y7.814 E175.5987 F1800
G0 X59.381 Y7.814 F4800
G1 X64.508 Y2.686 E175.8767 F1800
G0 X64.552 Y2.398 F4800
G0 X65.148 Y2.398
G0 X65.148 Y-1.538
G0 X65.148 Y-1.538
G0 X65.722 Y-5.327
G0 X65.720 Y-5.314
G1 X65.436 Y-5.030 E175.8921 F1800
G0 X65.436 Y-4.464 F4800
G1 X66.286 Y-5.314 E175.9382 F1800
G0 X66.852 Y-5.314 F4800
G1 X65.436 Y-3.898 E176.0150 F1800
G0 X65.436 Y-3.333 F4800
G1 X67.417 Y-5.314 E176.1224 F1800
G0 X67.983 Y-5.314 F4800
G1 X65.436 Y-2.767 E176.2606 F1800
G0 X65.436 Y-2.201 F4800
G1 X68.549 Y-5.314 E176.4294 F1800
G0 X69.114 Y-5.314 F4800
G1 X65.436 Y-1.636 E176.6289 F1800
G0 X65.436 Y-1.070 F4800
G1 X69.680 Y-5.314 E176.8590 F1800
G0 X70.246 Y-5.314 F4800
G1 X65.436 Y-0.504 E177.1199 F1800
G0 X65.436 Y0.061 F4800
G1 X70.811 Y-5.314 E177.4114 F1800
G0 X71.377 Y-5.314 F4800
G1 X65.436 Y0.627 E177.7337 F1800
G0 X65.436 Y1.193 F4800
G1 X71.943 Y-5.314 E178.0866 F1800
G0 X72.508 Y-5.314 F4800
G1 X65.436 Y1.758 E178.4702 F1800
G0 X65.436 Y2.324 F4800
G1 X73.074 Y-5.314 E178.8845 F1800
G0 X73.640 Y-5.314 F4800
G1 X60.513 Y7.814 E179.5965 F1800
G0 X61.078 Y7.814 F4800
G1 X74.206 Y-5.314 E180.3085 F1800
G0 X74.771 Y-5.314 F4800
G1 X61.644 Y7.814 E181.0206 F1800
G0 X62.210 Y7.814 F4800
G1 X75.337 Y-5.314 E181.7326 F1800
G0 X75.903 Y-5.314 F4800
G1 X62.775 Y7.814 E182.4446 F1800
G0 X63.341 Y7.814 F4800
G1 X76.468 Y-5.314 E183.1567 F1800
G0 X77.034 Y-5.314 F4800
G1 X63.907 Y7.814 E183.8687 F1800
G0 X64.472 Y7.814 F4800
G1 X77.600 Y-5.314 E184.5807 F1800
G0 X78.165 Y-5.314 F4800
G1 X65.038 Y7.814 E185.2928 F1800
G0 X65.604 Y7.814 F4800
G1 X78.731 Y-5.314 E186.0048 F1800
G0 X79.297 Y-5.314 F4800
G1 X66.170 Y7.814 E186.7168 F1800
G0 X66.735 Y7.814 F4800
G1 X79.862 Y-5.314 E187.4289 F1800
G0 X80.428 Y-5.314 F4800
G1 X67.301 Y7.814 E188.1409 F1800
G0 X67.867 Y7.814 F4800
G1 X80.994 Y-5.314 E188.8530 F1800
G0 X81.560 Y-5.314 F4800
G1 X68.432 Y7.814 E189.5650 F1800
G0 X68.998 Y7.814 F4800
G1 X82.125 Y-5.314 E190.2770 F1800
G0 X82.691 Y-5.314 F4800
G1 X69.564 Y7.814 E190.9891 F1800
G0 X70.129 Y7.814 F4800
G1 X83.257 Y-5.314 E191.7011 F1800
G0 X83.822 Y-5.314 F4800
G1 X70.695 Y7.814 E192.4131 F1800
G0 X71.261 Y7.814 F4800
G1 X84.388 Y-5.314 E193.1252 F1800
G0 X84.954 Y-5.314 F4800
G1 X71.826 Y7.814 E193.8372 F1800
G0 X72.392 Y7.814 F4800
G1 X85.519 Y-5.314 E194.5492 F1800
G0 X86.085 Y-5.314 F4800
G1 X72.958 Y7.814 E195.2613 F1800
G0 X73.523 Y7.814 F4800
G1 X86.651 Y-5.314 E195.9733 F1800
G0 X87.216 Y-5.314 F4800
G1 X74.089 Y7.814 E196.6854 F1800
G0 X74.655 Y7.814 F4800
G1 X87.782 Y-5.314 E197.3974 F1800
G0 X88.348 Y-5.314 F4800
G1 X75.220 Y7.814 E198.1094 F1800
G0 X75.786 Y7.814 F4800
G1 X88.913 Y-5.314 E198.8215 F1800
G0 X89.479 Y-5.314 F4800
G1 X76.352 Y7.814 E199.5335 F1800
G0 X76.918 Y7.814 F4800
G1 X90.045 Y-5.314 E200.2455 F1800
G0 X90.611 Y-5.314 F4800
G1 X77.483 Y7.814 E200.9576 F1800
G0 X78.049 Y7.814 F4800
G1 X91.176 Y-5.314 E201.6696 F1800
G0 X91.742 Y-5.314 F4800
G1 X78.615 Y7.814 E202.3816 F1800
G0 X79.180 Y7.814 F4800
G1 X92.308 Y-5.314 E203.0937 F1800
G0 X92.873 Y-5.314 F4800
G1 X79.746 Y7.814 E203.8057 F1800
G0 X80.312 Y7.814 F4800
G1 X93.439 Y-5.314 E204.5178 F1800
G0 X94.005 Y-5.314 F4800
G1 X80.877 Y7.814 E205.2298 F1800
G0 X81.443 Y7.814 F4800
G1 X94.570 Y-5.314 E205.9418 F1800
G0 X95.136 Y-5.314 F4800
G1 X82.009 Y7.814 E206.6539 F1800
G0 X82.574 Y7.814 F4800
G1 X95.702 Y-5.314 E207.3659 F1800
G0 X96.267 Y-5.314 F4800
G1 X83.140 Y7.814 E208.0779 F1800
G0 X83.706 Y7.814 F4800
G1 X96.833 Y-5.314 E208.7900 F1800
G0 X97.399 Y-5.314 F4800
G1 X84.272 Y7.814 E209.5020 F1800
G0 X84.837 Y7.814 F4800
G1 X97.965 Y-5.314 E210.2140 F1800
G0 X98.530 Y-5.314 F4800
G1 X85.403 Y7.814 E210.9261 F1800
G0 X85.969 Y7.814 F4800
G1 X99.064 Y-5.281 E211.6364 F1800
G0 X99.064 Y-4.716 F4800
G1 X86.534 Y7.814 E212.3160 F1800
G0 X87.100 Y7.814 F4800
G1 X99.064 Y-4.150 E212.9649 F1800
G0 X99.064 Y-3.584 F4800
G1 X87.666 Y7.813 E213.5831 F1800
G0 X88.231 Y7.814 F4800
G1 X99.064 Y-3.019 E214.1707 F1800
G0 X99.064 Y-2.453 F4800
G1 X88.797 Y7.813 E214.7276 F1800
G0 X89.363 Y7.813 F4800
G1 X99.063 Y-1.887 E215.2537 F1800
G0 X99.063 Y-1.322 F4800
G1 X89.928 Y7.813 E215.7492 F1800
G0 X90.494 Y7.813 F4800
G1 X99.063 Y-0.756 E216.2140 F1800
G0 X99.063 Y-0.190 F4800
G1 X91.060 Y7.813 E216.6482 F1800
G0 X91.625 Y7.813 F4800
G1 X99.063 Y0.375 E217.0516 F1800
G0 X99.063 Y0.941 F4800
G1 X92.191 Y7.813 E217.4244 F1800
G0 X92.757 Y7.813 F4800
G1 X99.063 Y1.507 E217.7665 F1800
G0 X99.063 Y2.073 F4800
G1 X93.323 Y7.813 E218.0779 F1800
G0 X93.888 Y7.813 F4800
G1 X99.063 Y2.638 E218.3586 F1800
G0 X99.063 Y3.204 F4800
G1 X94.454 Y7.813 E218.6086 F1800
G0 X95.020 Y7.813 F4800
G1 X99.063 Y3.770 E218.8280 F1800
G0 X99.063 Y4.335 F4800
G1 X95.585 Y7.813 E219.0166 F1800
G0 X96.151 Y7.813 F4800
G1 X99.063 Y4.901 E219.1746 F1800
G0 X99.063 Y5.467 F4800
G1 X96.717 Y7.813 E219.3019 F1800
G0 X97.282 Y7.813 F4800
G1 X99.063 Y6.032 E219.3985 F1800
G0 X99.063 Y6.598 F4800
G1 X97.848 Y7.813 E219.4644 F1800
G0 X98.414 Y7.813 F4800
G1 X99.063 Y7.164 E219.4996 F1800
G0 X99.022 Y8.102 F4800
G0 X59.352 Y8.102
G0 X59.352 Y11.898
G0 X98.856 Y11.898
G0 X98.856 Y11.898
G0 X98.595 Y17.827
G0 X98.596 Y17.814
G1 X99.063 Y17.346 E219.5250 F1800
G0 X99.063 Y16.780 F4800
G1 X98.030 Y17.814 E219.5811 F1800
G0 X97.465 Y17.814 F4800
G1 X99.063 Y16.215 E219.6678 F1800
G0 X99.063 Y15.649 F4800
G1 X96.899 Y17.814 E219.7852 F1800
G0 X96.333 Y17.814 F4800
G1 X99.063 Y15.083 E219.9333 F1800
G0 X99.063 Y14.518 F4800
G1 X95.767 Y17.814 E220.1121 F1800
G0 X95.202 Y17.814 F4800
G1 X99.063 Y13.952 E220.3215 F1800
G0 X99.063 Y13.386 F4800
G1 X94.636 Y17.814 E220.5617 F1800
G0 X94.070 Y17.814 F4800
G1 X99.064 Y12.821 E220.8325 F1800
G0 X99.064 Y12.255 F4800
G1 X93.505 Y17.814 E221.1340 F1800
G0 X92.939 Y17.814 F4800
G1 X98.566 Y12.187 E221.4393 F1800
G0 X98.000 Y12.187 F4800
G1 X92.373 Y17.814 E221.7445 F1800
G0 X91.808 Y17.814 F4800
G1 X97.435 Y12.187 E222.0497 F1800
G0 X96.869 Y12.187 F4800
G1 X91.242 Y17.814 E222.3549 F1800
G0 X90.676 Y17.814 F4800
G1 X96.303 Y12.187 E222.6601 F1800
G0 X95.738 Y12.187 F4800
G1 X90.111 Y17.814 E222.9654 F1800
G0 X89.545 Y17.814 F4800
G1 X95.172 Y12.187 E223.2706 F1800
G0 X94.606 Y12.187 F4800
G1 X88.979 Y17.814 E223.5758 F1800
G0 X88.413 Y17.814 F4800
G1 X94.041 Y12.187 E223.8810 F1800
G0 X93.475 Y12.187 F4800
G1 X87.848 Y17.814 E224.1862 F1800
G0 X87.282 Y17.814 F4800
G1 X92.909 Y12.187 E224.4915 F1800
G0 X92.344 Y12.187 F4800
G1 X86.716 Y17.814 E224.7967 F1800
G0 X86.151 Y17.814 F4800
G1 X91.778 Y12.187 E225.1019 F1800
G0 X91.212 Y12.187 F4800
G1 X85.585 Y17.814 E225.4071 F1800
G0 X85.019 Y17.814 F4800
G1 X90.646 Y12.187 E225.7124 F1800
G0 X90.081 Y12.187 F4800
G1 X84.454 Y17.814 E226.0176 F1800
G0 X83.888 Y17.814 F4800
G1 X89.515 Y12.187 E226.3228 F1800
G0 X88.949 Y12.187 F4800
G1 X83.322 Y17.814 E226.6280 F1800
G0 X82.757 Y17.814 F4800
G1 X88.384 Y12.187 E226.9332 F1800
G0 X87.818 Y12.187 F4800
G1 X82.191 Y17.814 E227.2385 F1800
G0 X81.625 Y17.814 F4800
G1 X87.252 Y12.187 E227.5437 F1800
G0 X86.687 Y12.187 F4800
G1 X81.060 Y17.814 E227.8489 F1800
G0 X80.494 Y17.814 F4800
G1 X86.121 Y12.187 E228.1541 F1800
G0 X85.555 Y12.187 F4800
G1 X79.928 Y17.814 E228.4593 F1800
G0 X79.363 Y17.814 F4800
G1 X84.990 Y12.187 E228.7646 F1800
G0 X84.424 Y12.187 F4800
G1 X78.797 Y17.814 E229.0698 F1800
G0 X78.231 Y17.814 F4800
G1 X83.858 Y12.187 E229.3750 F1800
G0 X83.293 Y12.187 F4800
G1 X77.665 Y17.814 E229.6802 F1800
G0 X77.100 Y17.814 F4800
G1 X82.727 Y12.187 E229.9855 F1800
G0 X82.161 Y12.187 F4800
G1 X76.534 Y17.814 E230.2907 F1800
G0 X75.968 Y17.814 F4800
G1 X81.595 Y12.187 E230.5959 F1800
G0 X81.030 Y12.187 F4800
G1 X75.403 Y17.814 E230.9011 F1800
G0 X74.837 Y17.814 F4800
G1 X80.464 Y12.187 E231.2063 F1800
G0 X79.898 Y12.187 F4800
G1 X74.271 Y17.814 E231.5116 F1800
G0 X73.706 Y17.814 F4800
G1 X79.333 Y12.187 E231.8168 F1800
G0 X78.767 Y12.187 F4800
G1 X73.140 Y17.814 E232.1220 F1800
G0 X72.574 Y17.814 F4800
G1 X78.201 Y12.187 E232.4272 F1800
G0 X77.636 Y12.187 F4800
G1 X72.009 Y17.814 E232.7324 F1800
G0 X71.443 Y17.814 F4800
G1 X77.070 Y12.187 E233.0377 F1800
G0 X76.504 Y12.187 F4800
G1 X70.877 Y17.814 E233.3429 F1800
G0 X70.312 Y17.814 F4800
G1 X75.939 Y12.187 E233.6481 F1800
G0 X75.373 Y12.187 F4800
G1 X69.746 Y17.814 E233.9533 F1800
G0 X69.180 Y17.814 F4800
G1 X74.807 Y12.187 E234.2586 F1800
G0 X74.242 Y12.187 F4800
G1 X68.615 Y17.814 E234.5638 F1800
G0 X68.049 Y17.814 F4800
G1 X73.676 Y12.187 E234.8690 F1800
G0 X73.110 Y12.187 F4800
G1 X67.483 Y17.814 E235.1742 F1800
G0 X66.917 Y17.814 F4800
G1 X72.544 Y12.187 E235.4794 F1800
G0 X71.979 Y12.187 F4800
G1 X66.352 Y17.814 E235.7847 F1800
G0 X65.786 Y17.814 F4800
G1 X71.413 Y12.187 E236.0899 F1800
G0 X70.847 Y12.187 F4800
G1 X65.220 Y17.814 E236.3951 F1800
G0 X64.655 Y17.814 F4800
G1 X70.282 Y12.187 E236.7003 F1800
G0 X69.716 Y12.187 F4800
G1 X64.089 Y17.814 E237.0056 F1800
G0 X63.523 Y17.814 F4800
G1 X69.150 Y12.187 E237.3108 F1800
G0 X68.585 Y12.187 F4800
G1 X62.958 Y17.814 E237.6160 F1800
G0 X62.392 Y17.814 F4800
G1 X68.019 Y12.187 E237.9212 F1800
G0 X67.453 Y12.187 F4800
G1 X61.826 Y17.814 E238.2264 F1800
G0 X61.261 Y17.814 F4800
G1 X66.888 Y12.187 E238.5317 F1800
G0 X66.322 Y12.187 F4800
G1 X60.695 Y17.814 E238.8369 F1800
G0 X60.129 Y17.814 F4800
G1 X65.756 Y12.187 E239.1421 F1800
G0 X65.191 Y12.187 F4800
G1 X59.564 Y17.814 E239.4473 F1800
G0 X58.998 Y17.814 F4800
G1 X64.625 Y12.187 E239.7525 F1800
G0 X64.059 Y12.187 F4800
G1 X58.432 Y17.814 E240.0578 F1800
G0 X57.867 Y17.814 F4800
G1 X63.494 Y12.187 E240.3630 F1800
G0 X62.928 Y12.187 F4800
G1 X57.301 Y17.814 E240.6682 F1800
G0 X56.735 Y17.814 F4800
G1 X62.362 Y12.187 E240.9734 F1800
G0 X61.797 Y12.187 F4800
G1 X56.170 Y17.814 E241.2787 F1800
G0 X55.604 Y17.814 F4800
G1 X61.231 Y12.187 E241.5839 F1800
G0 X60.665 Y12.187 F4800
G1 X55.038 Y17.814 E241.8891 F1800
G0 X54.472 Y17.814 F4800
G1 X60.099 Y12.187 E242.1943 F1800
G0 X59.534 Y12.187 F4800
G1 X53.907 Y17.814 E242.4995 F1800
G0 X53.341 Y17.814 F4800
G1 X59.064 Y12.091 E242.8099 F1800
G0 X59.064 Y11.525 F4800
G1 X52.775 Y17.814 E243.1510 F1800
G0 X52.210 Y17.814 F4800
G1 X59.064 Y10.960 E243.5228 F1800
G0 X59.064 Y10.394 F4800
G1 X51.644 Y17.814 E243.9252 F1800
G0 X51.078 Y17.814 F4800
G1 X59.064 Y9.828 E244.3584 F1800
G0 X59.064 Y9.263 F4800
G1 X50.513 Y17.814 E244.8222 F1800
G0 X49.947 Y17.814 F4800
G1 X59.064 Y8.697 E245.3167 F1800
G0 X59.064 Y8.131 F4800
G1 X49.381 Y17.814 E245.8418 F1800
G0 X48.816 Y17.814 F4800
G1 X63.943 Y2.686 E246.6624 F1800
G0 X63.377 Y2.686 F4800
G1 X48.250 Y17.814 E247.4829 F1800
G0 X47.684 Y17.814 F4800
G1 X62.811 Y2.686 E248.3034 F1800
G0 X62.246 Y2.686 F4800
G1 X47.119 Y17.814 E249.1239 F1800
G0 X46.553 Y17.814 F4800
G1 X61.680 Y2.686 E249.9444 F1800
G0 X61.114 Y2.686 F4800
G1 X45.987 Y17.814 E250.7649 F1800
G0 X45.422 Y17.814 F4800
G1 X61.063 Y2.172 E251.6133 F1800
G0 X61.063 Y1.606 F4800
G1 X44.856 Y17.814 E252.4925 F1800
G0 X44.290 Y17.814 F4800
G1 X61.063 Y1.040 E253.4023 F1800
G0 X61.063 Y0.475 F4800
G1 X43.724 Y17.814 E254.3428 F1800
G0 X43.159 Y17.814 F4800
G1 X61.063 Y-0.091 E255.3139 F1800
G0 X61.063 Y-0.657 F4800
G1 X42.593 Y17.814 E256.3158 F1800
G0 X42.027 Y17.814 F4800
G1 X61.063 Y-1.222 E257.3483 F1800
G0 X61.063 Y-1.788 F4800
G1 X41.462 Y17.814 E258.4115 F1800
G0 X40.896 Y17.814 F4800
G1 X61.063 Y-2.354 E259.5054 F1800
G0 X61.063 Y-2.920 F4800
G1 X40.330 Y17.814 E260.6300 F1800
G0 X39.765 Y17.814 F4800
G1 X61.063 Y-3.485 E261.7853 F1800
G0 X61.063 Y-4.051 F4800
G1 X39.199 Y17.814 E262.9713 F1800
G0 X38.633 Y17.814 F4800
G1 X61.063 Y-4.617 E264.1879 F1800
G0 X61.063 Y-5.182 F4800
G1 X38.068 Y17.814 E265.4352 F1800
G0 X37.502 Y17.814 F4800
G1 X60.629 Y-5.313 E266.6896 F1800
G0 X60.063 Y-5.313 F4800
G1 X36.936 Y17.814 E267.9441 F1800
G0 X36.371 Y17.814 F4800
G1 X59.497 Y-5.313 E269.1985 F1800
G0 X58.932 Y-5.313 F4800
G1 X35.805 Y17.814 E270.4529 F1800
G0 X35.239 Y17.814 F4800
G1 X58.366 Y-5.313 E271.7073 F1800
G0 X57.800 Y-5.313 F4800
G1 X34.674 Y17.814 E272.9618 F1800
G0 X34.108 Y17.814 F4800
G1 X57.235 Y-5.313 E274.2162 F1800
G0 X56.669 Y-5.313 F4800
G1 X33.542 Y17.814 E275.4706 F1800
G0 X32.976 Y17.814 F4800
G1 X56.103 Y-5.313 E276.7250 F1800
G0 X55.538 Y-5.313 F4800
G1 X32.411 Y17.814 E277.9795 F1800
G0 X31.845 Y17.814 F4800
G1 X54.972 Y-5.313 E279.2339 F1800
G0 X54.406 Y-5.313 F4800
G1 X31.279 Y17.814 E280.4883 F1800
G0 X30.714 Y17.814 F4800
G1 X53.841 Y-5.313 E281.7427 F1800
G0 X53.275 Y-5.313 F4800
G1 X30.148 Y17.814 E282.9972 F1800
G0 X29.582 Y17.814 F4800
G1 X52.709 Y-5.313 E284.2516 F1800
G0 X52.144 Y-5.313 F4800
G1 X29.017 Y17.814 E285.5060 F1800
G0 X28.451 Y17.814 F4800
G1 X51.578 Y-5.313 E286.7604 F1800
G0 X51.012 Y-5.313 F4800
G1 X27.885 Y17.814 E288.0149 F1800
G0 X27.320 Y17.814 F4800
G1 X50.447 Y-5.313 E289.2693 F1800
G0 X49.881 Y-5.313 F4800
G1 X26.754 Y17.814 E290.5237 F1800
G0 X26.188 Y17.814 F4800
G1 X49.315 Y-5.313 E291.7781 F1800
G0 X48.749 Y-5.313 F4800
G1 X25.623 Y17.814 E293.0326 F1800
G0 X25.057 Y17.814 F4800
G1 X48.184 Y-5.313 E294.2870 F1800
G0 X47.618 Y-5.313 F4800
G1 X24.491 Y17.814 E295.5414 F1800
G0 X23.926 Y17.814 F4800
G1 X47.052 Y-5.313 E296.7958 F1800
G0 X46.487 Y-5.313 F4800
G1 X23.360 Y17.814 E298.0503 F1800
G0 X22.794 Y17.813 F4800
G1 X45.921 Y-5.313 E299.3047 F1800
G0 X45.355 Y-5.313 F4800
G1 X22.228 Y17.814 E300.5591 F1800
G0 X21.663 Y17.813 F4800
G1 X44.790 Y-5.313 E301.8136 F1800
G0 X44.224 Y-5.313 F4800
G1 X21.097 Y17.813 E303.0680 F1800
G0 X20.531 Y17.813 F4800
G1 X43.658 Y-5.313 E304.3224 F1800
G0 X43.093 Y-5.313 F4800
G1 X19.966 Y17.813 E305.5768 F1800
G0 X19.400 Y17.813 F4800
G1 X42.527 Y-5.313 E306.8313 F1800
G0 X41.961 Y-5.313 F4800
G1 X18.834 Y17.813 E308.0857 F1800
G0 X18.269 Y17.813 F4800
G1 X41.396 Y-5.313 E309.3401 F1800
G0 X40.830 Y-5.313 F4800
G1 X17.703 Y17.813 E310.5945 F1800
G0 X17.137 Y17.813 F4800
G1 X40.264 Y-5.313 E311.8490 F1800
G0 X39.699 Y-5.313 F4800
G1 X16.572 Y17.813 E313.1034 F1800
G0 X16.006 Y17.813 F4800
G1 X39.133 Y-5.313 E314.3578 F1800
G0 X38.567 Y-5.313 F4800
G1 X15.440 Y17.813 E315.6122 F1800
G0 X14.875 Y17.813 F4800
G1 X38.002 Y-5.313 E316.8667 F1800
G0 X37.436 Y-5.313 F4800
G1 X14.309 Y17.813 E318.1211 F1800
G0 X13.743 Y17.813 F4800
G1 X36.870 Y-5.313 E319.3755 F1800
G0 X36.304 Y-5.313 F4800
G1 X13.178 Y17.813 E320.6299 F1800
G0 X12.612 Y17.813 F4800
G1 X35.739 Y-5.313 E321.8844 F1800
G0 X35.173 Y-5.313 F4800
G1 X12.046 Y17.813 E323.1388 F1800
G0 X11.480 Y17.813 F4800
G1 X34.607 Y-5.313 E324.3932 F1800
G0 X34.042 Y-5.313 F4800
G1 X10.915 Y17.813 E325.6476 F1800
G0 X10.349 Y17.813 F4800
G1 X33.476 Y-5.313 E326.9021 F1800
G0 X32.910 Y-5.313 F4800
G1 X9.783 Y17.813 E328.1565 F1800
G0 X9.218 Y17.813 F4800
G1 X32.345 Y-5.313 E329.4109 F1800
G0 X31.779 Y-5.313 F4800
G1 X8.652 Y17.813 E330.6653 F1800
G0 X8.086 Y17.813 F4800
G1 X31.213 Y-5.313 E331.9198 F1800
G0 X30.648 Y-5.313 F4800
G1 X7.521 Y17.813 E333.1742 F1800
G0 X6.955 Y17.813 F4800
G1 X30.082 Y-5.313 E334.4286 F1800
G0 X29.516 Y-5.313 F4800
G1 X6.389 Y17.813 E335.6830 F1800
G0 X5.824 Y17.813 F4800
G1 X28.951 Y-5.313 E336.9375 F1800
G0 X28.385 Y-5.313 F4800
G1 X5.258 Y17.813 E338.1919 F1800
G0 X4.692 Y17.813 F4800
G1 X27.819 Y-5.313 E339.4463 F1800
G0 X27.254 Y-5.313 F4800
G1 X4.127 Y17.813 E340.7007 F1800
G0 X3.561 Y17.813 F4800
G1 X26.688 Y-5.313 E341.9552 F1800
G0 X26.122 Y-5.313 F4800
G1 X2.995 Y17.813 E343.2096 F1800
G0 X2.430 Y17.813 F4800
G1 X25.556 Y-5.313 E344.4640 F1800
G0 X24.991 Y-5.313 F4800
G1 X1.864 Y17.813 E345.7184 F1800
G0 X1.298 Y17.813 F4800
G1 X24.425 Y-5.313 E346.9729 F1800
G0 X23.859 Y-5.313 F4800
G1 X0.733 Y17.813 E348.2273 F1800
G0 X0.167 Y17.813 F4800
G1 X23.294 Y-5.313 E349.4817 F1800
G0 X22.728 Y-5.313 F4800
G1 X-0.399 Y17.813 E350.7361 F1800
G0 X-0.965 Y17.813 F4800
G1 X22.162 Y-5.313 E351.9906 F1800
G0 X21.597 Y-5.313 F4800
G1 X-1.530 Y17.813 E353.2450 F1800
G0 X-2.096 Y17.813 F4800
G1 X21.031 Y-5.313 E354.4994 F1800
G0 X20.465 Y-5.313 F4800
G1 X-2.662 Y17.813 E355.7538 F1800
G0 X-3.227 Y17.813 F4800
G1 X19.900 Y-5.313 E357.0083 F1800
G0 X19.334 Y-5.313 F4800
G1 X-3.793 Y17.813 E358.2627 F1800
G0 X-4.359 Y17.813 F4800
G1 X18.768 Y-5.313 E359.5171 F1800
G0 X18.203 Y-5.313 F4800
G1 X-4.924 Y17.813 E360.7715 F1800
G0 X-5.490 Y17.813 F4800
G1 X17.637 Y-5.313 E362.0260 F1800
G0 X17.071 Y-5.313 F4800
G1 X-6.056 Y17.813 E363.2804 F1800
G0 X-6.621 Y17.813 F4800
G1 X16.506 Y-5.313 E364.5348 F1800
G0 X15.940 Y-5.313 F4800
G1 X-7.187 Y17.813 E365.7892 F1800
G0 X-7.753 Y17.813 F4800
G1 X15.374 Y-5.313 E367.0437 F1800
G0 X14.808 Y-5.313 F4800
G1 X-8.318 Y17.813 E368.2981 F1800
G0 X-8.884 Y17.813 F4800
G1 X14.243 Y-5.313 E369.5525 F1800
G0 X13.677 Y-5.313 F4800
G1 X-9.450 Y17.813 E370.8069 F1800
G0 X-10.015 Y17.813 F4800
G1 X13.111 Y-5.314 E372.0614 F1800
G0 X12.546 Y-5.314 F4800
G1 X-10.581 Y17.813 E373.3158 F1800
G0 X-11.147 Y17.813 F4800
G1 X11.980 Y-5.314 E374.5702 F1800
G0 X11.414 Y-5.314 F4800
G1 X-11.713 Y17.813 E375.8246 F1800
G0 X-12.278 Y17.813 F4800
G1 X10.849 Y-5.314 E377.0791 F1800
G0 X10.283 Y-5.314 F4800
G1 X-12.844 Y17.813 E378.3335 F1800
G0 X-13.410 Y17.813 F4800
G1 X9.717 Y-5.314 E379.5879 F1800
G0 X9.152 Y-5.314 F4800
G1 X-13.975 Y17.813 E380.8423 F1800
G0 X-14.541 Y17.813 F4800
G1 X8.586 Y-5.314 E382.0968 F1800
G0 X8.020 Y-5.314 F4800
G1 X-15.107 Y17.813 E383.3512 F1800
G0 X-15.672 Y17.813 F4800
G1 X7.455 Y-5.314 E384.6056 F1800
G0 X6.889 Y-5.314 F4800
G1 X-16.238 Y17.813 E385.8600 F1800
G0 X-16.804 Y17.813 F4800
G1 X-13.677 Y14.687 E386.0296 F1800
G0 X-14.243 Y14.687 F4800
G1 X-17.369 Y17.813 E386.1993 F1800
G0 X-17.935 Y17.813 F4800
G1 X-14.808 Y14.687 E386.3689 F1800
G0 X-15.374 Y14.687 F4800
G1 X-18.501 Y17.813 E386.5385 F1800
G0 X-19.066 Y17.813 F4800
G1 X-15.940 Y14.687 E386.7081 F1800
G0 X-16.505 Y14.687 F4800
G1 X-19.632 Y17.813 E386.8777 F1800
G0 X-20.198 Y17.813 F4800
G1 X-17.071 Y14.687 E387.0473 F1800
G0 X-17.637 Y14.687 F4800
G1 X-20.764 Y17.813 E387.2170 F1800
G0 X-21.329 Y17.813 F4800
G1 X-18.202 Y14.687 E387.3866 F1800
G0 X-18.768 Y14.687 F4800
G1 X-21.895 Y17.813 E387.5562 F1800
G0 X-22.461 Y17.813 F4800
G1 X-19.334 Y14.687 E387.7258 F1800
G0 X-19.899 Y14.687 F4800
G1 X-23.026 Y17.813 E387.8954 F1800
G0 X-23.592 Y17.813 F4800
G1 X-20.465 Y14.687 E388.0650 F1800
G0 X-21.031 Y14.687 F4800
G1 X-24.158 Y17.813 E388.2347 F1800
G0 X-24.723 Y17.813 F4800
G1 X-21.596 Y14.687 E388.4043 F1800
G0 X-22.162 Y14.687 F4800
G1 X-25.289 Y17.813 E388.5739 F1800
G0 X-25.855 Y17.813 F4800
G1 X-22.728 Y14.687 E388.7435 F1800
G0 X-23.294 Y14.687 F4800
G1 X-26.420 Y17.813 E388.9131 F1800
G0 X-26.986 Y17.813 F4800
G1 X-23.859 Y14.687 E389.0827 F1800
G0 X-24.425 Y14.687 F4800
G1 X-27.552 Y17.813 E389.2524 F1800
G0 X-28.117 Y17.813 F4800
G1 X-24.991 Y14.687 E389.4220 F1800
G0 X-25.556 Y14.687 F4800
G1 X-28.683 Y17.813 E389.5916 F1800
G0 X-29.249 Y17.813 F4800
G1 X-26.122 Y14.687 E389.7612 F1800
G0 X-26.688 Y14.687 F4800
G1 X-29.815 Y17.813 E389.9308 F1800
G0 X-30.380 Y17.813 F4800
G1 X-27.253 Y14.687 E390.1004 F1800
G0 X-27.819 Y14.687 F4800
G1 X-30.946 Y17.813 E390.2701 F1800
G0 X-31.512 Y17.813 F4800
G1 X-28.385 Y14.687 E390.4397 F1800
G0 X-28.950 Y14.687 F4800
G1 X-32.077 Y17.813 E390.6093 F1800
G0 X-32.643 Y17.813 F4800
G1 X-29.516 Y14.687 E390.7789 F1800
G0 X-30.082 Y14.687 F4800
G1 X-33.209 Y17.813 E390.9485 F1800
G0 X-33.774 Y17.813 F4800
G1 X-30.205 Y14.244 E391.1422 F1800
G0 X-30.205 Y13.678 F4800
G1 X-34.340 Y17.813 E391.3665 F1800
G0 X-34.906 Y17.813 F4800
G1 X-30.205 Y13.112 E391.6215 F1800
G0 X-30.205 Y12.547 F4800
G1 X-35.471 Y17.813 E391.9071 F1800
G0 X-36.037 Y17.813 F4800
G1 X-30.205 Y11.981 E392.2235 F1800
G0 X-30.205 Y11.415 F4800
G1 X-36.603 Y17.813 E392.5706 F1800
G0 X-37.168 Y17.813 F4800
G1 X-30.205 Y10.850 E392.9483 F1800
G0 X-30.205 Y10.284 F4800
G1 X-37.734 Y17.813 E393.3567 F1800
G0 X-38.300 Y17.813 F4800
G1 X-30.205 Y9.718 E393.7958 F1800
G0 X-30.205 Y9.153 F4800
G1 X-38.865 Y17.813 E394.2656 F1800
G0 X-39.431 Y17.813 F4800
G1 X-30.205 Y8.587 E394.7660 F1800
G0 X-30.205 Y8.021 F4800
G1 X-39.997 Y17.813 E395.2972 F1800
G0 X-40.563 Y17.813 F4800
G1 X-30.205 Y7.455 E395.8590 F1800
G0 X-29.846 Y7.602 F4800
G0 X-13.619 Y7.602
G0 X-13.619 Y14.223
G0 X-13.619 Y14.223
G0 X-13.319 Y14.346
G0 X-13.331 Y14.341
G1 X6.323 Y-5.314 E396.9251 F1800
G0 X5.758 Y-5.314 F4800
G1 X-13.331 Y13.775 E397.9605 F1800
G0 X-13.331 Y13.210 F4800
G1 X5.192 Y-5.314 E398.9653 F1800
G0 X4.626 Y-5.314 F4800
G1 X-13.331 Y12.644 E399.9393 F1800
G0 X-13.331 Y12.078 F4800
G1 X4.060 Y-5.314 E400.8826 F1800
G0 X3.495 Y-5.314 F4800
G1 X-13.331 Y11.513 E401.7953 F1800
G0 X-13.331 Y10.947 F4800
G1 X2.929 Y-5.314 E402.6773 F1800
G0 X2.363 Y-5.314 F4800
G1 X-13.331 Y10.381 E403.5286 F1800
G0 X-13.331 Y9.816 F4800
G1 X1.798 Y-5.314 E404.3492 F1800
G0 X1.232 Y-5.314 F4800
G1 X-13.331 Y9.250 E405.1391 F1800
G0 X-13.331 Y8.684 F4800
G1 X0.666 Y-5.314 E405.8984 F1800
G0 X0.101 Y-5.314 F4800
G1 X-13.331 Y8.118 E406.6270 F1800
G0 X-13.331 Y7.553 F4800
G1 X-0.465 Y-5.314 E407.3248 F1800
G0 X-1.031 Y-5.314 F4800
G1 X-13.658 Y7.313 E408.0097 F1800
G0 X-14.223 Y7.313 F4800
G1 X-1.596 Y-5.314 E408.6947 F1800
G0 X-2.162 Y-5.314 F4800
G1 X-14.789 Y7.313 E409.3796 F1800
G0 X-15.355 Y7.313 F4800
G1 X-2.728 Y-5.314 E410.0645 F1800
G0 X-10.331 Y-5.629 F4800
G1 X-3.205 Y-12.756 E410.4510 F1800
G0 X-3.205 Y-13.322 F4800
G1 X-10.331 Y-6.195 E410.8376 F1800
G0 X-10.331 Y-6.761 F4800
G1 X-3.205 Y-13.888 E411.2242 F1800
G0 X-3.205 Y-14.453 F4800
G1 X-10.331 Y-7.326 E411.6107 F1800
G0 X-10.331 Y-7.892 F4800
G1 X-3.205 Y-15.019 E411.9973 F1800
G0 X-3.205 Y-15.585 F4800
G1 X-10.331 Y-8.458 E412.3839 F1800
G0 X-10.331 Y-9.024 F4800
G1 X-3.205 Y-16.150 E412.7704 F1800
G0 X-1.204 Y-16.453 F4800
G1 X-1.471 Y-16.187 E412.7849 F1800
G0 X-2.037 Y-16.187 F4800
G1 X-1.204 Y-17.019 E412.8301 F1800
G0 X-1.204 Y-17.585 F4800
G1 X-2.603 Y-16.187 E412.9059 F1800
G0 X-3.168 Y-16.187 F4800
G1 X-1.542 Y-17.813 E412.9941 F1800
G0 X-2.107 Y-17.813 F4800
G1 X-10.331 Y-9.589 E413.4402 F1800
G0 X-10.331 Y-10.155 F4800
G1 X-2.673 Y-17.813 E413.8556 F1800
G0 X-3.239 Y-17.813 F4800
G1 X-10.331 Y-10.721 E414.2404 F1800
G0 X-10.331 Y-11.286 F4800
G1 X-3.804 Y-17.813 E414.5944 F1800
G0 X-4.370 Y-17.813 F4800
G1 X-10.331 Y-11.852 E414.9178 F1800
G0 X-10.331 Y-12.418 F4800
G1 X-4.936 Y-17.813 E415.2104 F1800
G0 X-5.501 Y-17.813 F4800
G1 X-10.331 Y-12.983 E415.4724 F1800
G0 X-10.331 Y-13.549 F4800
G1 X-6.067 Y-17.813 E415.7037 F1800
G0 X-6.633 Y-17.813 F4800
G1 X-10.331 Y-14.115 E415.9044 F1800
G0 X-10.331 Y-14.680 F4800
G1 X-7.198 Y-17.813 E416.0743 F1800
G0 X-7.764 Y-17.813 F4800
G1 X-10.331 Y-15.246 E416.2136 F1800
G0 X-10.331 Y-15.812 F4800
G1 X-8.330 Y-17.813 E416.3222 F1800
G0 X-8.895 Y-17.813 F4800
G1 X-10.522 Y-16.187 E416.4104 F1800
G0 X-11.088 Y-16.187 F4800
G1 X-9.461 Y-17.813 E416.4987 F1800
G0 X-10.027 Y-17.813 F4800
G1 X-11.654 Y-16.187 E416.5869 F1800
G0 X-12.219 Y-16.187 F4800
G1 X-10.592 Y-17.813 E416.6752 F1800
G0 X-11.158 Y-17.813 F4800
G1 X-12.331 Y-16.640 E416.7388 F1800
G0 X-12.331 Y-17.206 F4800
G1 X-11.724 Y-17.813 E416.7718 F1800
G0 X-11.559 Y-15.898 F4800
G0 X-10.620 Y-15.898
G0 X-10.620 Y-5.602
G0 X-10.672 Y-5.602
G0 X-10.672 Y-5.602
G0 X-10.646 Y-5.300
G0 X-10.647 Y-5.314
G1 X-13.774 Y-2.187 E416.9414 F1800
G0 X-14.340 Y-2.187 F4800
G1 X-11.213 Y-5.314 E417.1110 F1800
G0 X-11.779 Y-5.314 F4800
G1 X-14.906 Y-2.187 E417.2806 F1800
G0 X-15.471 Y-2.187 F4800
G1 X-12.344 Y-5.314 E417.4502 F1800
G0 X-12.910 Y-5.314 F4800
G1 X-16.037 Y-2.187 E417.6199 F1800
G0 X-16.603 Y-2.187 F4800
G1 X-13.476 Y-5.314 E417.7895 F1800
G0 X-14.041 Y-5.314 F4800
G1 X-17.168 Y-2.187 E417.9591 F1800
G0 X-17.734 Y-2.187 F4800
G1 X-14.607 Y-5.314 E418.1287 F1800
G0 X-15.173 Y-5.314 F4800
G1 X-18.300 Y-2.187 E418.2983 F1800
G0 X-18.865 Y-2.187 F4800
G1 X-15.738 Y-5.314 E418.4679 F1800
G0 X-16.304 Y-5.314 F4800
G1 X-19.431 Y-2.187 E418.6376 F1800
G0 X-19.997 Y-2.187 F4800
G1 X-16.870 Y-5.314 E418.8072 F1800
G0 X-17.436 Y-5.314 F4800
G1 X-20.562 Y-2.187 E418.9768 F1800
G0 X-21.128 Y-2.187 F4800
G1 X-18.001 Y-5.314 E419.1464 F1800
G0 X-18.567 Y-5.314 F4800
G1 X-21.694 Y-2.187 E419.3160 F1800
G0 X-22.260 Y-2.187 F4800
G1 X-19.133 Y-5.314 E419.4857 F1800
G0 X-19.698 Y-5.314 F4800
G1 X-22.825 Y-2.187 E419.6553 F1800
G0 X-23.391 Y-2.187 F4800
G1 X-20.264 Y-5.314 E419.8249 F1800
G0 X-20.830 Y-5.314 F4800
G1 X-23.957 Y-2.187 E419.9945 F1800
G0 X-24.522 Y-2.187 F4800
G1 X-21.395 Y-5.314 E420.1641 F1800
G0 X-21.961 Y-5.314 F4800
G1 X-25.088 Y-2.187 E420.3337 F1800
G0 X-25.654 Y-2.187 F4800
G1 X-22.527 Y-5.314 E420.5034 F1800
G0 X-23.092 Y-5.314 F4800
G1 X-26.219 Y-2.187 E420.6730 F1800
G0 X-26.785 Y-2.187 F4800
G1 X-23.658 Y-5.314 E420.8426 F1800
G0 X-24.224 Y-5.314 F4800
G1 X-27.351 Y-2.187 E421.0122 F1800
G0 X-27.916 Y-2.187 F4800
G1 X-24.789 Y-5.314 E421.1818 F1800
G0 X-25.355 Y-5.314 F4800
G1 X-28.482 Y-2.187 E421.3514 F1800
G0 X-29.048 Y-2.187 F4800
G1 X-25.921 Y-5.314 E421.5211 F1800
G0 X-26.486 Y-5.314 F4800
G1 X-29.613 Y-2.187 E421.6907 F1800
G0 X-30.179 Y-2.187 F4800
G1 X-27.052 Y-5.314 E421.8603 F1800
G0 X-27.618 Y-5.314 F4800
G1 X-39.466 Y6.534 E422.5029 F1800
G0 X-39.811 Y6.313 F4800
G1 X-28.184 Y-5.314 E423.1336 F1800
G0 X-28.749 Y-5.314 F4800
G1 X-40.376 Y6.313 E423.7643 F1800
G0 X-40.942 Y6.313 F4800
G1 X-29.315 Y-5.314 E424.3950 F1800
G0 X-29.881 Y-5.314 F4800
G1 X-41.508 Y6.313 E425.0256 F1800
G0 X-42.073 Y6.313 F4800
G1 X-30.446 Y-5.314 E425.6563 F1800
G0 X-30.205 Y-2.161 F4800
G1 X-39.259 Y6.893 E426.1474 F1800
G0 X-39.052 Y7.252 F4800
G1 X-30.205 Y-1.596 E426.6273 F1800
G0 X-30.205 Y-1.030 F4800
G1 X-38.845 Y7.610 E427.0960 F1800
G0 X-38.638 Y7.969 F4800
G1 X-30.205 Y-0.464 E427.5534 F1800
G0 X-30.205 Y0.102 F4800
G1 X-38.430 Y8.327 E427.9996 F1800
G0 X-38.223 Y8.686 F4800
G1 X-30.205 Y0.667 E428.4346 F1800
G0 X-30.205 Y1.233 F4800
G1 X-38.822 Y9.850 E428.9020 F1800
G0 X-40.158 Y11.187 F4800
G1 X-46.785 Y17.813 E429.2614 F1800
G0 X-47.351 Y17.813 F4800
G1 X-40.724 Y11.187 E429.6208 F1800
G0 X-41.290 Y11.187 F4800
G1 X-47.916 Y17.813 E429.9803 F1800
G0 X-48.482 Y17.813 F4800
G1 X-41.855 Y11.187 E430.3397 F1800
G0 X-42.412 Y11.178 F4800
G1 X-49.048 Y17.813 E430.6997 F1800
G0 X-49.614 Y17.813 F4800
G1 X-42.619 Y10.819 E431.0791 F1800
G0 X-42.826 Y10.460 F4800
G1 X-50.179 Y17.813 E431.4779 F1800
G0 X-50.745 Y17.813 F4800
G1 X-43.033 Y10.102 E431.8962 F1800
G0 X-43.240 Y9.743 F4800
G1 X-51.311 Y17.813 E432.3339 F1800
G0 X-51.876 Y17.813 F4800
G1 X-43.447 Y9.384 E432.7912 F1800
G0 X-43.654 Y9.026 F4800
G1 X-52.442 Y17.813 E433.2678 F1800
G0 X-53.008 Y17.813 F4800
G1 X-43.635 Y8.441 E433.7762 F1800
G0 X-46.435 Y8.412 F4800
G1 X-32.709 Y-5.314 E434.5207 F1800
G0 X-47.417 Y-5.314 F4800
G1 X-55.544 Y2.814 E434.9615 F1800
G0 X-54.989 Y2.824 F4800
G1 X-46.851 Y-5.314 E435.4029 F1800
G0 X-46.285 Y-5.314 F4800
G1 X-54.433 Y2.834 E435.8448 F1800
G0 X-53.878 Y2.844 F4800
G1 X-45.720 Y-5.314 E436.2873 F1800
G0 X-45.154 Y-5.314 F4800
G1 X-53.662 Y3.194 E436.7488 F1800
G0 X-53.455 Y3.553 F4800
G1 X-44.588 Y-5.314 E437.2298 F1800
G0 X-44.023 Y-5.314 F4800
G1 X-53.248 Y3.912 E437.7302 F1800
G0 X-53.041 Y4.270 F4800
G1 X-43.457 Y-5.314 E438.2500 F1800
G0 X-42.891 Y-5.314 F4800
G1 X-52.834 Y4.629 E438.7893 F1800
G0 X-53.276 Y5.636 F4800
G1 X-42.326 Y-5.314 E439.3832 F1800
G0 X-32.143 Y-5.314 F4800
G1 X-55.270 Y17.813 E440.6377 F1800
G0 X-54.705 Y17.813 F4800
G1 X-31.578 Y-5.314 E441.8921 F1800
G0 X-31.012 Y-5.314 F4800
G1 X-54.139 Y17.813 E443.1466 F1800
G0 X-53.573 Y17.813 F4800
G1 X-42.862 Y7.102 E443.7276 F1800
G0 X-46.959 Y8.937 F4800
G1 X-55.836 Y17.813 E444.2091 F1800
G0 X-56.402 Y17.813 F4800
G1 X-47.525 Y8.937 E444.6906 F1800
G0 X-48.091 Y8.937 F4800
G1 X-56.967 Y17.813 E445.1721 F1800
G0 X-57.533 Y17.813 F4800
G1 X-48.656 Y8.937 E445.6536 F1800
G0 X-49.222 Y8.937 F4800
G1 X-58.099 Y17.813 E446.1351 F1800
G0 X-58.665 Y17.813 F4800
G1 X-49.455 Y8.604 E446.6347 F1800
G0 X-49.662 Y8.245 F4800
G1 X-59.230 Y17.813 E447.1537 F1800
G0 X-59.796 Y17.813 F4800
G1 X-49.869 Y7.886 E447.6921 F1800
G0 X-50.076 Y7.528 F4800
G1 X-60.362 Y17.813 E448.2501 F1800
G0 X-60.927 Y17.813 F4800
G1 X-50.283 Y7.169 E448.8274 F1800
G0 X-50.490 Y6.810 F4800
G1 X-61.493 Y17.813 E449.4242 F1800
G0 X-62.059 Y17.813 F4800
G1 X-49.882 Y5.637 E450.0847 F1800
; ------------------------------------
; Layer #2
; ------------------------------------
M106 S255 ;set fan speed
G21 ; mm
G90 ; abs
G92 E0 ;reset extr
;segType:Loop
G0 F4200 E-7.0000
G0 F4800 Z2.000
G0 X-2.916 Y-14.350
G0 Z1.000
G0 F4200 E0.0000
G1 X-2.916 Y-5.602 E0.3450 F2400
G1 X61.352 Y-5.602 E2.8795
G1 X61.352 Y2.398 E3.1950
G1 X65.148 Y2.398 E3.3447
G1 X65.148 Y-5.602 E3.6602
G1 X99.352 Y-5.602 E5.0090
G1 X99.352 Y8.102 E5.5494
G1 X59.352 Y8.102 E7.1269
G1 X59.352 Y11.898 E7.2766
G1 X99.352 Y11.898 E8.8540
G1 X99.352 Y18.102 E9.0986
G1 X-99.352 Y18.102 E16.9347
G1 X-99.352 Y-5.602 E17.8694
G1 X-10.620 Y-5.602 E21.3687
G1 X-10.620 Y-15.898 E21.7747
G1 X-12.619 Y-15.898 E21.8536
G1 X-12.619 Y-18.102 E21.9405
G1 X-0.916 Y-18.102 E22.4020
G1 X-0.916 Y-15.898 E22.4889
G1 X-2.916 Y-15.898 E22.5678
G1 X-2.916 Y-14.550 E22.6156
;segType:Perimeter
G0 X-2.468 Y-15.590 F4800
G1 X-2.468 Y-15.390 E22.6227 F1200
G1 X-2.468 Y-6.050 E22.9516
G1 X61.800 Y-6.050 E25.2145
G1 X61.800 Y1.950 E25.4962
G1 X64.700 Y1.950 E25.5983
G1 X64.700 Y-6.050 E25.8800
G1 X99.800 Y-6.050 E27.1159
G1 X99.800 Y8.550 E27.6299
G1 X59.800 Y8.550 E29.0383
G1 X59.800 Y11.450 E29.1405
G1 X99.800 Y11.450 E30.5489
G1 X99.800 Y18.550 E30.7989
G1 X-99.800 Y18.550 E37.8269
G1 X-99.800 Y-6.050 E38.6930
G1 X-11.068 Y-6.050 E41.8173
G1 X-11.068 Y-15.450 E42.1483
G1 X-13.068 Y-15.450 E42.2187
G1 X-13.068 Y-18.550 E42.3279
G1 X-0.468 Y-18.550 E42.7715
G1 X-0.468 Y-15.450 E42.8806
G1 X-2.408 Y-15.450 E42.9489
G0 X-2.608 Y-15.450 F4800
G0 X-2.916 Y-15.288
G0 X-10.620 Y-11.236
G0 X-10.620 Y-11.236
G0 X-10.620 Y-5.602
G0 X-21.329 Y-5.602
G0 X-21.329 Y-5.602
G0 X-28.368 Y-1.899
G0 X-28.368 Y-1.899
G0 X-28.380 Y-1.892
;segType:Loop
G0 X-28.368 Y-1.899
G1 X-13.619 Y-1.899 E43.5306 F2400
G1 X-13.619 Y4.898 E43.7986
G1 X-29.916 Y4.898 E44.4413
G1 X-29.916 Y-1.899 E44.7093
G1 X-28.568 Y-1.899 E44.7572
;segType:Perimeter
G0 X-29.608 Y-1.451 F4800
G1 X-29.408 Y-1.451 E44.7642 F1200
G1 X-14.067 Y-1.451 E45.3044
G1 X-14.067 Y4.450 E45.5122
G1 X-29.468 Y4.450 E46.0544
G1 X-29.468 Y-1.391 E46.2601
G0 X-29.468 Y-1.591 F4800
G0 X-28.692 Y4.898
G0 X-28.368 Y7.602
G0 X-28.368 Y7.602
G0 X-28.367 Y7.615
;segType:Loop
G0 X-28.368 Y7.602
G1 X-13.619 Y7.602 E46.8417 F2400
G1 X-13.619 Y14.398 E47.1098
G1 X-29.916 Y14.398 E47.7525
G1 X-29.916 Y7.602 E48.0205
G1 X-28.568 Y7.602 E48.0684
;segType:Perimeter
G0 X-29.408 Y8.050 F4800
G1 X-14.067 Y8.050 E48.6085 F1200
G1 X-14.067 Y13.950 E48.8163
G1 X-29.468 Y13.950 E49.3586
G1 X-29.468 Y8.110 E49.5642
G0 X-29.468 Y7.910 F4800
;segType:Loop
G0 X-39.080 Y7.778
G1 X-38.519 Y8.750 E49.6085 F2400
G1 X-39.760 Y10.899 E49.7063
G1 X-42.240 Y10.899 E49.8042
G1 X-43.481 Y8.750 E49.9020
G1 X-42.240 Y6.602 E49.9998
G1 X-39.760 Y6.602 E50.0977
G1 X-39.180 Y7.605 E50.1434
;segType:Perimeter
G0 X-40.088 Y6.928 F4800
G1 X-39.988 Y7.102 E50.1504 F1200
G1 X-39.037 Y8.750 E50.2174
G1 X-40.018 Y10.451 E50.2866
G1 X-41.982 Y10.451 E50.3557
G1 X-42.964 Y8.750 E50.4248
G1 X-41.982 Y7.050 E50.4940
G1 X-40.078 Y7.050 E50.5610
G0 X-39.878 Y7.050 F4800
;segType:Loop
G0 X-47.737 Y4.852
G1 X-46.904 Y4.852 E50.5939 F2400
G1 X-45.808 Y6.750 E50.6803
G1 X-46.904 Y8.648 E50.7667
G1 X-49.096 Y8.648 E50.8532
G1 X-50.192 Y6.750 E50.9396
G1 X-49.096 Y4.852 E51.0261
G1 X-47.937 Y4.852 E51.0718
;segType:Perimeter
G0 X-48.977 Y5.300 F4800
G1 X-48.777 Y5.300 E51.0788 F1200
G1 X-47.163 Y5.300 E51.1357
G1 X-46.325 Y6.750 E51.1946
G1 X-47.163 Y8.200 E51.2536
G1 X-48.838 Y8.200 E51.3126
G1 X-49.675 Y6.750 E51.3716
G1 X-48.867 Y5.352 E51.4284
G0 X-48.768 Y5.178 F4800
;segType:Loop
G0 X-54.539 Y3.129
G1 X-54.024 Y3.144 E51.4487 F2400
G1 X-53.097 Y4.750 E51.5219
G1 X-54.048 Y6.398 E51.5969
G1 X-55.952 Y6.398 E51.6720
G1 X-56.678 Y5.140 E51.7293
G1 X-56.848 Y4.638 E51.7502
G1 X-55.897 Y3.092 E51.8218
G1 X-54.739 Y3.124 E51.8675
;segType:Perimeter
G0 X-55.591 Y3.548 F4800
G1 X-54.287 Y3.584 E51.9134 F1200
G1 X-53.614 Y4.750 E51.9608
G1 X-54.307 Y5.950 E52.0096
G1 X-55.693 Y5.950 E52.0584
G1 X-56.268 Y4.954 E52.0989
G1 X-56.356 Y4.694 E52.1086
G1 X-55.682 Y3.598 E52.1539
;segType:Loop
G0 X-88.741 Y1.149 F4800
G1 X-88.573 Y1.225 E52.1612 F2400
G1 X-88.167 Y1.503 E52.1806
G1 X-87.813 Y1.845 E52.2000
G1 X-87.523 Y2.242 E52.2194
G1 X-87.304 Y2.682 E52.2388
G1 X-87.162 Y3.154 E52.2582
G1 X-87.102 Y3.641 E52.2776
G1 X-87.126 Y4.133 E52.2970
G1 X-87.234 Y4.625 E52.3169
G1 X-87.484 Y5.177 E52.3408
G1 X-87.668 Y5.475 E52.3546
G1 X-87.993 Y5.844 E52.3740
G1 X-88.376 Y6.153 E52.3934
G1 X-88.805 Y6.393 E52.4128
G1 X-89.269 Y6.557 E52.4322
G1 X-89.754 Y6.640 E52.4516
G1 X-90.246 Y6.640 E52.4710
G1 X-90.731 Y6.557 E52.4904
G1 X-91.195 Y6.393 E52.5098
G1 X-91.624 Y6.153 E52.5292
G1 X-92.007 Y5.844 E52.5486
G1 X-92.333 Y5.473 E52.5681
G1 X-92.596 Y5.043 E52.5880
G1 X-92.777 Y4.585 E52.6074
G1 X-92.878 Y4.104 E52.6268
G1 X-92.897 Y3.612 E52.6462
G1 X-92.832 Y3.125 E52.6656
G1 X-92.685 Y2.655 E52.6850
G1 X-92.461 Y2.217 E52.7044
G1 X-92.167 Y1.823 E52.7237
G1 X-91.810 Y1.485 E52.7431
G1 X-91.401 Y1.211 E52.7625
G1 X-90.952 Y1.011 E52.7819
G1 X-90.476 Y0.889 E52.8013
G1 X-89.985 Y0.850 E52.8207
G1 X-89.495 Y0.894 E52.8401
G1 X-89.020 Y1.021 E52.8595
G1 X-88.923 Y1.065 E52.8635
;segType:Perimeter
G0 X-90.124 Y1.269 F4800
G1 X-89.928 Y1.305 E52.8705 F1200
G1 X-89.574 Y1.337 E52.8831
G1 X-89.172 Y1.444 E52.8977
G1 X-88.794 Y1.617 E52.9123
G1 X-88.451 Y1.852 E52.9270
G1 X-88.152 Y2.141 E52.9416
G1 X-87.907 Y2.476 E52.9562
G1 X-87.722 Y2.848 E52.9709
G1 X-87.602 Y3.246 E52.9855
G1 X-87.552 Y3.658 E53.0001
G1 X-87.571 Y4.074 E53.0147
G1 X-87.662 Y4.483 E53.0295
G1 X-87.881 Y4.966 E53.0482
G1 X-88.029 Y5.207 E53.0582
G1 X-88.304 Y5.520 E53.0728
G1 X-88.627 Y5.781 E53.0874
G1 X-88.990 Y5.984 E53.1021
G1 X-89.382 Y6.122 E53.1167
G1 X-89.792 Y6.192 E53.1314
G1 X-90.208 Y6.192 E53.1460
G1 X-90.618 Y6.122 E53.1606
G1 X-91.010 Y5.984 E53.1753
G1 X-91.373 Y5.781 E53.1899
G1 X-91.696 Y5.520 E53.2046
G1 X-91.971 Y5.207 E53.2192
G1 X-92.193 Y4.842 E53.2343
G1 X-92.346 Y4.456 E53.2489
G1 X-92.432 Y4.049 E53.2635
G1 X-92.447 Y3.634 E53.2782
G1 X-92.393 Y3.222 E53.2928
G1 X-92.269 Y2.825 E53.3074
G1 X-92.080 Y2.455 E53.3221
G1 X-91.831 Y2.122 E53.3367
G1 X-91.530 Y1.836 E53.3513
G1 X-91.184 Y1.605 E53.3660
G1 X-90.805 Y1.436 E53.3806
G1 X-90.402 Y1.333 E53.3952
G1 X-90.047 Y1.305 E53.4077
G0 X-89.850 Y1.270 F4800
;segType:Infill
G0 X-89.088 Y0.703
G1 X-95.105 Y-5.314 E53.6753 F2400
G0 X-98.813 Y-5.314 F4800
G1 X-99.064 Y-5.063 E53.6864 F2400
G0 X-99.064 Y-1.191 F4800
G1 X-92.956 Y4.917 E53.9579 F2400
G0 X-92.935 Y4.970 F4800
G1 X-99.064 Y11.099 E54.2304 F2400
